(.../pcb-gcode-3.6.2.4/pcb-gcode.ulp)
(Copyright 2005 - 2012 by John Johnson)
(See readme.txt for licensing terms.)
(This file generated from the board:)
(.../2016-05-23 - RX luster spodnji stuk/pisarnaInGarderoba-v2.brd)
(Current profile is .../pcb-gcode-3.6.2.4/profiles/generic.pp  )
(This file generated 24.5.2016 0:40:21)
(Settings from pcb-machine.h)
(spindle on time = 3.0000)
(  Tool Size)
(0.1400 )
(spindle speed = 14000.0000)
(tool change at 0.0000 0.0000 5.0000 )
(feed rate xy = F150.00 )
(feed rate z  = F150.00 )
(Z Axis Settings)
(  High     Up        Down     Drill)
(5.0000 	2.0000 	-0.2540 	-2.0000 )
(Settings from pcb-defaults.h)
(isolate min = 0.0800)
(isolate max = 0.3500)
(isolate step = 0.1000)
(Generated bottom outlines, bottom drill, )
(Unit of measure: mm)
(Metric Mode)
G21
(Absolute Coordinates)
G90
S14000
G00 Z5.0000 
G00 X0.0000 Y0.0000 
M03
G04 P3.000000
G00 Z2.0000 
G00 X10.1365 Y6.4639 
G01 Z-0.2540 F150.00 
G01 X10.0900 Y6.5445 F150.00 
G01 X10.0659 Y6.6343 
G01 X10.0659 Y6.7273 
G01 X10.0900 Y6.8171 
G01 X10.1365 Y6.8977 
G01 X10.2023 Y6.9634 
G01 X10.2828 Y7.0099 
G01 X10.3726 Y7.0340 
G01 X11.1136 Y7.3333 
G01 X11.6667 Y7.8863 
G01 X11.9660 Y8.6089 
G01 X11.9660 Y9.3911 
G01 X11.6667 Y10.1136 
G01 X11.1136 Y10.6667 
G01 X10.3911 Y10.9660 
G01 X9.6089 Y10.9660 
G01 X8.8863 Y10.6667 
G01 X8.3333 Y10.1136 
G01 X8.0340 Y9.3911 
G01 X8.0099 Y9.2828 
G01 X7.9634 Y9.2023 
G01 X7.8977 Y9.1365 
G01 X7.8171 Y9.0900 
G01 X7.7273 Y9.0659 
G01 X7.6343 Y9.0659 
G01 X7.5445 Y9.0900 
G01 X7.4639 Y9.1365 
G01 X7.3982 Y9.2023 
G01 X2.3612 Y14.2392 
G01 X2.2955 Y14.3050 
G01 X2.2490 Y14.3855 
G01 X2.2249 Y14.4753 
G01 X2.2249 Y75.9074 
G01 X2.2249 Y75.9931 
G01 X2.2388 Y76.0450 
G01 X2.2548 Y76.0963 
G01 X2.2955 Y76.1635 
G01 X2.3612 Y76.2293 
G01 X7.4361 Y80.9039 
G01 X7.5104 Y80.9585 
G01 X7.5963 Y80.9921 
G01 X7.6487 Y81.0039 
G01 X7.7273 Y81.0023 
G01 X7.7792 Y80.9884 
G01 X7.8304 Y80.9724 
G01 X7.8977 Y80.9317 
G01 X7.9634 Y80.8659 
G01 X8.0099 Y80.7854 
G01 X8.0238 Y80.7335 
G01 X8.0356 Y80.6811 
G01 X8.0340 Y80.6089 
G01 X8.3333 Y79.8863 
G01 X8.8864 Y79.3333 
G01 X9.6089 Y79.0340 
G01 X10.3911 Y79.0340 
G01 X11.1136 Y79.3333 
G01 X11.6667 Y79.8863 
G01 X11.9660 Y80.6089 
G01 X11.9660 Y81.3911 
G01 X11.6667 Y82.1136 
G01 X11.1136 Y82.6667 
G01 X10.4215 Y82.9534 
G01 X10.3638 Y82.9773 
G01 X10.3137 Y83.0122 
G01 X10.2507 Y83.0806 
G01 X10.2217 Y83.1359 
G01 X10.1979 Y83.1936 
G01 X10.1872 Y83.2537 
G01 X10.1897 Y83.3161 
G01 X10.1979 Y83.3780 
G01 X10.2187 Y83.4354 
G01 X10.2521 Y83.4882 
G01 X10.3143 Y83.5563 
G01 X17.7261 Y90.3867 
G01 X17.8004 Y90.4414 
G01 X17.8863 Y90.4749 
G01 X17.9388 Y90.4867 
G01 X73.1502 Y90.4851 
G01 X73.2095 Y90.4851 
G01 X73.2751 Y90.4701 
G01 X73.3285 Y90.4442 
G01 X73.3799 Y90.4145 
G01 X81.4278 Y83.4548 
G01 X81.4911 Y83.3877 
G01 X81.5349 Y83.3065 
G01 X81.5535 Y83.2528 
G01 X81.5609 Y83.1808 
G01 X81.5534 Y83.1245 
G01 X81.5428 Y83.0687 
G01 X81.5131 Y83.0027 
G01 X81.4565 Y82.9289 
G01 X81.3827 Y82.8723 
G01 X81.3303 Y82.8506 
G01 X80.8863 Y82.6667 
G01 X80.3333 Y82.1136 
G01 X80.0340 Y81.3911 
G01 X80.0340 Y80.6089 
G01 X80.3333 Y79.8863 
G01 X80.8863 Y79.3333 
G01 X81.6089 Y79.0340 
G01 X82.3911 Y79.0340 
G01 X83.1136 Y79.3333 
G01 X83.6667 Y79.8863 
G01 X83.9638 Y80.6037 
G01 X83.9954 Y80.6799 
G01 X84.0520 Y80.7537 
G01 X84.1258 Y80.8103 
G01 X84.1783 Y80.8321 
G01 X84.2319 Y80.8507 
G01 X84.3039 Y80.8581 
G01 X84.3602 Y80.8506 
G01 X84.4160 Y80.8400 
G01 X84.4820 Y80.8103 
G01 X84.5558 Y80.7537 
G01 X91.2775 Y74.9408 
G01 X91.3380 Y74.8885 
G01 X91.3903 Y74.8115 
G01 X91.4097 Y74.7555 
G01 X91.4251 Y74.6982 
G01 X91.4275 Y74.6309 
G01 X91.4251 Y49.0516 
G01 X91.4010 Y48.9618 
G01 X91.3545 Y48.8812 
G01 X91.2888 Y48.8155 
G01 X91.2082 Y48.7690 
G01 X91.1184 Y48.7449 
G01 X85.8207 Y48.7449 
G01 X85.7370 Y48.7449 
G01 X85.6832 Y48.7593 
G01 X85.6302 Y48.7766 
G01 X85.5667 Y48.8155 
G01 X85.5009 Y48.8812 
G01 X85.4544 Y48.9618 
G01 X85.4400 Y49.0156 
G01 X85.3871 Y48.9588 
G01 X85.2862 Y48.8200 
G01 X85.1650 Y48.6987 
G01 X85.0262 Y48.5979 
G01 X84.8733 Y48.5200 
G01 X84.7102 Y48.4670 
G01 X84.5408 Y48.4402 
G01 X84.3692 Y48.4402 
G01 X84.1998 Y48.4670 
G01 X84.0367 Y48.5200 
G01 X83.8838 Y48.5979 
G01 X83.7450 Y48.6987 
G01 X83.6237 Y48.8200 
G01 X83.5229 Y48.9588 
G01 X83.4783 Y49.0465 
G01 X83.4623 Y48.9792 
G01 X83.4200 Y48.8963 
G01 X83.3578 Y48.8272 
G01 X83.2798 Y48.7766 
G01 X83.2268 Y48.7593 
G01 X83.1729 Y48.7449 
G01 X83.0985 Y48.7429 
G01 X75.9263 Y48.7449 
G01 X75.8566 Y48.7449 
G01 X75.7894 Y48.7629 
G01 X75.7250 Y48.7896 
G01 X75.6697 Y48.8320 
G01 X75.6088 Y48.9015 
G01 X75.5740 Y48.9618 
G01 X75.5560 Y49.0290 
G01 X75.5469 Y49.0981 
G01 X75.5560 Y49.1672 
G01 X75.5740 Y49.2344 
G01 X75.5928 Y49.7882 
G01 X75.3952 Y50.2651 
G01 X75.0301 Y50.6302 
G01 X74.5532 Y50.8278 
G01 X74.0895 Y50.8278 
G01 X73.9997 Y50.8519 
G01 X73.9191 Y50.8984 
G01 X73.8534 Y50.9641 
G01 X72.6716 Y52.1459 
G01 X72.4827 Y52.3348 
G01 X72.2577 Y52.4280 
G01 X68.7156 Y52.4280 
G01 X68.6460 Y52.4280 
G01 X68.5787 Y52.4460 
G01 X68.5143 Y52.4727 
G01 X68.4591 Y52.5151 
G01 X68.3982 Y52.5846 
G01 X68.3633 Y52.6449 
G01 X68.3241 Y52.7476 
G01 X67.9876 Y53.0841 
G01 X67.5479 Y53.2662 
G01 X67.0721 Y53.2662 
G01 X66.6324 Y53.0841 
G01 X66.3252 Y52.7769 
G01 X66.2557 Y52.7160 
G01 X66.1957 Y52.6814 
G01 X66.1281 Y52.6633 
G01 X66.0586 Y52.6543 
G01 X65.9899 Y52.6635 
G01 X65.9230 Y52.6814 
G01 X65.8624 Y52.7164 
G01 X65.8069 Y52.7591 
G01 X65.7649 Y52.8142 
G01 X65.7302 Y52.8742 
G01 X65.7121 Y52.9418 
G01 X65.7031 Y53.0113 
G01 X65.7123 Y53.0799 
G01 X65.7302 Y53.1469 
G01 X66.0944 Y54.0129 
G01 X66.1213 Y54.0776 
G01 X66.1636 Y54.1324 
G01 X66.2331 Y54.1933 
G01 X66.2931 Y54.2279 
G01 X66.3608 Y54.2460 
G01 X66.4302 Y54.2550 
G01 X71.7497 Y54.2520 
G01 X71.9747 Y54.3452 
G01 X72.1770 Y54.5475 
G01 X72.2400 Y54.6105 
G01 X72.3233 Y54.6597 
G01 X72.4117 Y54.6834 
G01 X72.6279 Y54.6838 
G01 X73.0676 Y54.8659 
G01 X73.3991 Y55.1974 
G01 X73.4797 Y55.2439 
G01 X73.5695 Y55.2680 
G01 X88.5137 Y55.2680 
G01 X88.7387 Y55.3612 
G01 X88.9108 Y55.5333 
G01 X89.0040 Y55.7583 
G01 X89.0040 Y67.9397 
G01 X88.9108 Y68.1647 
G01 X88.6561 Y68.4194 
G01 X86.7067 Y70.3688 
G01 X86.4817 Y70.4620 
G01 X78.8393 Y70.4620 
G01 X78.7495 Y70.4861 
G01 X78.6689 Y70.5326 
G01 X77.3547 Y71.8468 
G01 X77.2890 Y71.9125 
G01 X77.2425 Y71.9931 
G01 X77.2184 Y72.0829 
G01 X77.2184 Y73.2530 
G01 X77.0634 Y73.6273 
G01 X76.7769 Y73.9138 
G01 X76.4026 Y74.0688 
G01 X75.9974 Y74.0688 
G01 X75.6231 Y73.9138 
G01 X75.3366 Y73.6273 
G01 X75.2741 Y73.4763 
G01 X75.2385 Y73.3904 
G01 X75.1819 Y73.3166 
G01 X75.1081 Y73.2600 
G01 X75.0222 Y73.2244 
G01 X74.9300 Y73.2123 
G01 X74.8378 Y73.2244 
G01 X74.7519 Y73.2600 
G01 X74.6781 Y73.3166 
G01 X74.6215 Y73.3904 
G01 X74.5859 Y73.4763 
G01 X74.5234 Y73.6273 
G01 X74.2369 Y73.9138 
G01 X73.8626 Y74.0688 
G01 X73.4574 Y74.0688 
G01 X73.0831 Y73.9138 
G01 X72.7966 Y73.6273 
G01 X72.6416 Y73.2530 
G01 X72.6416 Y71.5270 
G01 X72.7966 Y71.1527 
G01 X73.0831 Y70.8662 
G01 X73.4574 Y70.7112 
G01 X73.8626 Y70.7112 
G01 X74.2369 Y70.8662 
G01 X74.5234 Y71.1527 
G01 X74.5780 Y71.2846 
G01 X74.6046 Y71.3489 
G01 X74.6470 Y71.4042 
G01 X74.7165 Y71.4651 
G01 X74.7768 Y71.4999 
G01 X74.8441 Y71.5180 
G01 X74.9131 Y71.5270 
G01 X74.9700 Y71.5240 
G01 X75.0391 Y71.5149 
G01 X75.1034 Y71.4882 
G01 X75.1637 Y71.4534 
G01 X75.2295 Y71.3877 
G01 X75.2643 Y71.3273 
G01 X75.3366 Y71.1527 
G01 X75.6231 Y70.8662 
G01 X75.9974 Y70.7112 
G01 X76.4026 Y70.7112 
G01 X76.4582 Y70.7342 
G01 X76.5254 Y70.7523 
G01 X76.5951 Y70.7523 
G01 X76.6642 Y70.7432 
G01 X76.7285 Y70.7165 
G01 X76.7888 Y70.6817 
G01 X77.9504 Y69.5201 
G01 X78.1393 Y69.3312 
G01 X78.3643 Y69.2380 
G01 X86.0067 Y69.2380 
G01 X86.0965 Y69.2139 
G01 X86.1771 Y69.1674 
G01 X86.2428 Y69.1017 
G01 X87.7094 Y67.6351 
G01 X87.7559 Y67.5545 
G01 X87.7800 Y67.4647 
G01 X87.7800 Y66.7048 
G01 X87.7559 Y66.6149 
G01 X87.7104 Y66.5362 
G01 X87.6437 Y66.4686 
G01 X87.5631 Y66.4222 
G01 X87.4733 Y66.3981 
G01 X87.3803 Y66.3981 
G01 X87.3101 Y66.4169 
G01 X87.3101 Y65.6631 
G01 X87.3803 Y65.6819 
G01 X87.4733 Y65.6819 
G01 X87.5593 Y65.6589 
G01 X87.6437 Y65.6113 
G01 X87.7084 Y65.5466 
G01 X87.7559 Y65.4650 
G01 X87.7800 Y65.3752 
G01 X87.7800 Y59.0848 
G01 X87.7559 Y58.9949 
G01 X87.7104 Y58.9162 
G01 X87.6437 Y58.8486 
G01 X87.5631 Y58.8021 
G01 X87.4733 Y58.7781 
G01 X87.3803 Y58.7781 
G01 X87.3101 Y58.7969 
G01 X87.3101 Y58.0431 
G01 X87.3803 Y58.0619 
G01 X87.4733 Y58.0619 
G01 X87.5593 Y58.0389 
G01 X87.6437 Y57.9913 
G01 X87.7084 Y57.9266 
G01 X87.7559 Y57.8450 
G01 X87.7800 Y57.7552 
G01 X87.7800 Y56.7987 
G01 X87.7559 Y56.7089 
G01 X87.7094 Y56.6283 
G01 X87.6437 Y56.5626 
G01 X87.5631 Y56.5161 
G01 X87.4733 Y56.4920 
G01 X73.5695 Y56.4920 
G01 X73.4797 Y56.5161 
G01 X73.3991 Y56.5626 
G01 X73.3333 Y56.6283 
G01 X73.0676 Y56.8941 
G01 X72.6279 Y57.0762 
G01 X72.1521 Y57.0762 
G01 X71.7124 Y56.8941 
G01 X71.3759 Y56.5576 
G01 X71.1938 Y56.1179 
G01 X71.1938 Y55.7827 
G01 X71.1697 Y55.6929 
G01 X71.1232 Y55.6123 
G01 X71.0575 Y55.5466 
G01 X70.9769 Y55.5001 
G01 X70.8871 Y55.4760 
G01 X70.7941 Y55.4760 
G01 X65.8334 Y55.4760 
G01 X65.7408 Y55.4760 
G01 X65.6649 Y55.4763 
G01 X65.5956 Y55.4476 
G01 X65.5101 Y55.4121 
G01 X65.4398 Y55.3833 
G01 X65.3869 Y55.3304 
G01 X65.3214 Y55.2649 
G01 X65.2674 Y55.2113 
G01 X65.2387 Y55.1420 
G01 X65.2033 Y55.0564 
G01 X64.0336 Y52.2493 
G01 X64.0066 Y52.1847 
G01 X63.9643 Y52.1298 
G01 X60.1281 Y48.2936 
G01 X60.0475 Y48.2471 
G01 X59.9577 Y48.2230 
G01 X59.4548 Y48.2230 
G01 X58.9649 Y48.0201 
G01 X58.8550 Y47.9101 
G01 X58.7930 Y47.8481 
G01 X58.7125 Y47.8016 
G01 X58.6625 Y47.7882 
G01 X58.6121 Y47.7763 
G01 X58.5296 Y47.7776 
G01 X58.4398 Y47.8016 
G01 X58.3593 Y47.8481 
G01 X58.2935 Y47.9139 
G01 X58.2470 Y47.9944 
G01 X58.2336 Y48.0444 
G01 X58.2217 Y48.0948 
G01 X58.2229 Y48.1773 
G01 X58.2470 Y48.2671 
G01 X58.4268 Y48.8620 
G01 X58.4633 Y48.9467 
G01 X58.5205 Y49.0190 
G01 X61.5614 Y52.0599 
G01 X61.7979 Y52.2964 
G01 X61.9868 Y52.4853 
G01 X62.0800 Y52.7103 
G01 X62.0800 Y54.3771 
G01 X62.1041 Y54.4669 
G01 X62.1506 Y54.5475 
G01 X62.2163 Y54.6132 
G01 X62.2969 Y54.6597 
G01 X62.3867 Y54.6838 
G01 X62.4679 Y54.6838 
G01 X62.9076 Y54.8659 
G01 X63.2441 Y55.2024 
G01 X63.4262 Y55.6421 
G01 X63.4262 Y55.8569 
G01 X63.4503 Y55.9467 
G01 X63.4968 Y56.0273 
G01 X63.5625 Y56.0930 
G01 X65.2069 Y57.7374 
G01 X65.2875 Y57.7839 
G01 X65.3773 Y57.8080 
G01 X75.6363 Y57.8080 
G01 X75.7261 Y57.7839 
G01 X75.8066 Y57.7374 
G01 X75.8724 Y57.6717 
G01 X76.0736 Y57.4705 
G01 X76.4852 Y57.3000 
G01 X78.4548 Y57.3000 
G01 X78.8664 Y57.4705 
G01 X79.1333 Y57.7374 
G01 X79.2139 Y57.7839 
G01 X79.3037 Y57.8080 
G01 X82.6944 Y57.8080 
G01 X82.7842 Y57.7839 
G01 X82.8648 Y57.7374 
G01 X82.9305 Y57.6717 
G01 X83.1640 Y57.4382 
G01 X83.5896 Y57.2619 
G01 X84.0504 Y57.2619 
G01 X84.4760 Y57.4382 
G01 X84.8018 Y57.7640 
G01 X84.8647 Y57.9158 
G01 X84.8913 Y57.9802 
G01 X84.9337 Y58.0354 
G01 X85.0032 Y58.0964 
G01 X85.0635 Y58.1312 
G01 X85.1308 Y58.1492 
G01 X85.1999 Y58.1583 
G01 X85.2689 Y58.1492 
G01 X85.3362 Y58.1312 
G01 X85.3965 Y58.0964 
G01 X85.4099 Y58.7514 
G01 X85.3564 Y58.7205 
G01 X85.2921 Y58.6938 
G01 X85.2230 Y58.6847 
G01 X85.1534 Y58.6847 
G01 X85.0861 Y58.7028 
G01 X85.0217 Y58.7294 
G01 X84.9665 Y58.7718 
G01 X84.9055 Y58.8413 
G01 X84.8707 Y58.9016 
G01 X84.8018 Y59.0760 
G01 X84.4760 Y59.4018 
G01 X84.0504 Y59.5781 
G01 X83.5896 Y59.5781 
G01 X83.1640 Y59.4018 
G01 X82.8648 Y59.1026 
G01 X82.7842 Y59.0561 
G01 X82.6944 Y59.0320 
G01 X79.3037 Y59.0320 
G01 X79.2139 Y59.0561 
G01 X79.1333 Y59.1026 
G01 X79.0676 Y59.1683 
G01 X78.8664 Y59.3695 
G01 X78.5821 Y59.4873 
G01 X78.5092 Y59.5175 
G01 X78.4354 Y59.5741 
G01 X78.3788 Y59.6479 
G01 X78.3557 Y59.7037 
G01 X78.3370 Y59.7611 
G01 X78.3310 Y59.8260 
G01 X78.3389 Y59.8859 
G01 X78.3515 Y59.9450 
G01 X78.3788 Y60.0041 
G01 X78.4288 Y60.0693 
G01 X78.3218 Y60.0480 
G01 X76.6182 Y60.0480 
G01 X76.5112 Y60.0693 
G01 X76.5527 Y60.0153 
G01 X76.5885 Y59.9450 
G01 X76.6011 Y59.8859 
G01 X76.6090 Y59.8260 
G01 X76.6030 Y59.7611 
G01 X76.5843 Y59.7037 
G01 X76.5612 Y59.6479 
G01 X76.5236 Y59.5947 
G01 X76.4545 Y59.5324 
G01 X76.4007 Y59.5050 
G01 X76.0736 Y59.3695 
G01 X75.8066 Y59.1026 
G01 X75.7261 Y59.0561 
G01 X75.6363 Y59.0320 
G01 X64.9023 Y59.0320 
G01 X64.6773 Y58.9388 
G01 X64.4628 Y58.7243 
G01 X62.8964 Y57.1579 
G01 X62.8269 Y57.0969 
G01 X62.7666 Y57.0621 
G01 X62.6993 Y57.0441 
G01 X62.6303 Y57.0350 
G01 X62.5612 Y57.0441 
G01 X62.4939 Y57.0621 
G01 X61.9921 Y57.0762 
G01 X61.5524 Y56.8941 
G01 X61.2159 Y56.5576 
G01 X61.0338 Y56.1179 
G01 X61.0338 Y55.6421 
G01 X61.0628 Y55.5719 
G01 X61.0719 Y55.5029 
G01 X61.0719 Y55.4332 
G01 X61.0539 Y55.3660 
G01 X61.0273 Y55.3016 
G01 X60.9849 Y55.2463 
G01 X60.8560 Y54.9857 
G01 X60.8560 Y54.0997 
G01 X60.8319 Y54.0099 
G01 X60.7854 Y53.9293 
G01 X60.7197 Y53.8636 
G01 X60.6391 Y53.8171 
G01 X60.5493 Y53.7930 
G01 X60.4563 Y53.7930 
G01 X60.3665 Y53.8171 
G01 X60.2859 Y53.8636 
G01 X60.2202 Y53.9293 
G01 X60.0374 Y54.1121 
G01 X59.7827 Y54.3668 
G01 X59.5577 Y54.4600 
G01 X56.2663 Y54.4600 
G01 X56.0413 Y54.3668 
G01 X47.3924 Y45.7179 
G01 X47.3229 Y45.6570 
G01 X47.2626 Y45.6222 
G01 X47.1954 Y45.6041 
G01 X47.1263 Y45.5951 
G01 X47.0572 Y45.6041 
G01 X46.9900 Y45.6222 
G01 X46.9297 Y45.6570 
G01 X46.8744 Y45.6994 
G01 X46.8320 Y45.7546 
G01 X46.7972 Y45.8150 
G01 X46.7791 Y45.8822 
G01 X46.7701 Y45.9513 
G01 X46.7791 Y46.0203 
G01 X46.7972 Y46.0876 
G01 X47.0230 Y46.6248 
G01 X47.0230 Y47.1551 
G01 X46.9680 Y47.2879 
G01 X46.9413 Y47.3523 
G01 X46.9323 Y47.4213 
G01 X46.9323 Y47.4910 
G01 X46.9503 Y47.5582 
G01 X46.9769 Y47.6226 
G01 X47.0193 Y47.6778 
G01 X53.5229 Y54.1814 
G01 X53.6035 Y54.2279 
G01 X53.6933 Y54.2520 
G01 X53.9697 Y54.2520 
G01 X54.1947 Y54.3452 
G01 X54.3970 Y54.5475 
G01 X54.4600 Y54.6105 
G01 X54.5433 Y54.6597 
G01 X54.6317 Y54.6834 
G01 X54.8479 Y54.6838 
G01 X55.2876 Y54.8659 
G01 X55.6241 Y55.2024 
G01 X55.8062 Y55.6421 
G01 X55.8062 Y55.8569 
G01 X55.8303 Y55.9467 
G01 X55.8768 Y56.0273 
G01 X55.9425 Y56.0930 
G01 X60.7819 Y60.9324 
G01 X60.9708 Y61.1213 
G01 X61.0640 Y61.3463 
G01 X61.0640 Y61.4036 
G01 X61.0881 Y61.4934 
G01 X61.1346 Y61.5739 
G01 X61.2003 Y61.6397 
G01 X61.3688 Y62.0274 
G01 X61.3688 Y62.4326 
G01 X61.2138 Y62.8069 
G01 X60.9273 Y63.0934 
G01 X60.7954 Y63.1480 
G01 X60.7311 Y63.1746 
G01 X60.6758 Y63.2170 
G01 X60.6149 Y63.2865 
G01 X60.5801 Y63.3468 
G01 X60.5620 Y63.4141 
G01 X60.5530 Y63.4831 
G01 X60.5560 Y63.5400 
G01 X60.5651 Y63.6091 
G01 X60.5917 Y63.6734 
G01 X60.6266 Y63.7337 
G01 X60.6923 Y63.7995 
G01 X60.7527 Y63.8343 
G01 X60.9273 Y63.9066 
G01 X61.2138 Y64.1931 
G01 X61.3688 Y64.5674 
G01 X61.3688 Y64.9726 
G01 X61.2138 Y65.3469 
G01 X60.9296 Y65.6311 
G01 X60.8743 Y65.6553 
G01 X60.8191 Y65.6977 
G01 X60.7582 Y65.7671 
G01 X60.7233 Y65.8275 
G01 X60.7053 Y65.8947 
G01 X60.6962 Y65.9638 
G01 X60.7053 Y66.0328 
G01 X60.7233 Y66.1001 
G01 X60.7582 Y66.1604 
G01 X60.8006 Y66.2157 
G01 X60.8558 Y66.2581 
G01 X60.9161 Y66.2929 
G01 X60.9834 Y66.3110 
G01 X61.0525 Y66.3200 
G01 X66.1617 Y66.3170 
G01 X66.3867 Y66.4102 
G01 X66.5588 Y66.5823 
G01 X66.6520 Y66.8073 
G01 X66.6520 Y69.7385 
G01 X66.6520 Y69.8081 
G01 X66.6700 Y69.8754 
G01 X66.6967 Y69.9398 
G01 X66.7391 Y69.9950 
G01 X66.8085 Y70.0559 
G01 X66.8689 Y70.0908 
G01 X67.2773 Y70.2566 
G01 X67.5638 Y70.5431 
G01 X67.7188 Y70.9174 
G01 X67.7188 Y71.3226 
G01 X67.5638 Y71.6969 
G01 X67.2773 Y71.9834 
G01 X67.1263 Y72.0459 
G01 X67.0404 Y72.0815 
G01 X66.9848 Y72.1241 
G01 X66.9100 Y72.2119 
G01 X66.8744 Y72.2978 
G01 X66.8623 Y72.3900 
G01 X66.8744 Y72.4822 
G01 X66.9100 Y72.5681 
G01 X66.9526 Y72.6237 
G01 X67.0404 Y72.6985 
G01 X67.0933 Y72.7204 
G01 X67.2773 Y72.7966 
G01 X67.5638 Y73.0831 
G01 X67.7188 Y73.4574 
G01 X67.7188 Y73.8626 
G01 X67.5638 Y74.2369 
G01 X67.2773 Y74.5234 
G01 X66.9030 Y74.6784 
G01 X65.1770 Y74.6784 
G01 X64.8027 Y74.5234 
G01 X64.5162 Y74.2369 
G01 X64.3612 Y73.8626 
G01 X64.3612 Y73.4574 
G01 X64.5162 Y73.0831 
G01 X64.8027 Y72.7966 
G01 X64.9537 Y72.7341 
G01 X65.0396 Y72.6985 
G01 X65.1134 Y72.6419 
G01 X65.1700 Y72.5681 
G01 X65.2056 Y72.4822 
G01 X65.2177 Y72.3900 
G01 X65.2056 Y72.2978 
G01 X65.1700 Y72.2119 
G01 X65.1134 Y72.1381 
G01 X65.0396 Y72.0815 
G01 X64.9537 Y72.0459 
G01 X64.8027 Y71.9834 
G01 X64.5162 Y71.6969 
G01 X64.3612 Y71.3226 
G01 X64.3612 Y70.9174 
G01 X64.5162 Y70.5431 
G01 X64.8027 Y70.2566 
G01 X65.1886 Y70.0968 
G01 X65.2529 Y70.0702 
G01 X65.3082 Y70.0278 
G01 X65.3691 Y69.9583 
G01 X65.4039 Y69.8980 
G01 X65.4220 Y69.8307 
G01 X65.4310 Y69.7616 
G01 X65.4280 Y67.8477 
G01 X65.4039 Y67.7579 
G01 X65.3574 Y67.6773 
G01 X65.2917 Y67.6116 
G01 X65.2111 Y67.5651 
G01 X65.1213 Y67.5410 
G01 X57.6633 Y67.5410 
G01 X57.4383 Y67.4478 
G01 X55.0421 Y65.0516 
G01 X54.8532 Y64.8627 
G01 X54.7600 Y64.6377 
G01 X54.7600 Y60.8627 
G01 X54.7359 Y60.7729 
G01 X54.6894 Y60.6923 
G01 X54.6237 Y60.6266 
G01 X54.5431 Y60.5801 
G01 X54.4533 Y60.5560 
G01 X36.9293 Y60.5560 
G01 X36.8395 Y60.5801 
G01 X36.7589 Y60.6266 
G01 X36.6932 Y60.6923 
G01 X35.5876 Y61.7979 
G01 X35.3987 Y61.9868 
G01 X35.1737 Y62.0800 
G01 X24.2293 Y62.0800 
G01 X24.1395 Y62.1041 
G01 X24.0589 Y62.1506 
G01 X23.9932 Y62.2163 
G01 X20.3476 Y65.8619 
G01 X20.1643 Y66.0452 
G01 X20.0986 Y66.1109 
G01 X20.0521 Y66.1915 
G01 X20.0284 Y66.2799 
G01 X20.0280 Y66.3743 
G01 X20.0510 Y66.4603 
G01 X20.0986 Y66.5447 
G01 X20.1643 Y66.6104 
G01 X20.2449 Y66.6569 
G01 X20.3333 Y66.6806 
G01 X20.9026 Y66.6810 
G01 X21.0404 Y66.7381 
G01 X24.4688 Y70.1664 
G01 X24.5493 Y70.2129 
G01 X24.6391 Y70.2370 
G01 X39.3689 Y70.2370 
G01 X39.4587 Y70.2129 
G01 X39.5392 Y70.1664 
G01 X39.6050 Y70.1007 
G01 X39.7973 Y69.9084 
G01 X39.9196 Y69.7861 
G01 X40.0574 Y69.7290 
G01 X40.1093 Y69.7290 
G01 X40.1789 Y69.7290 
G01 X40.2462 Y69.7110 
G01 X40.3105 Y69.6843 
G01 X40.3658 Y69.6419 
G01 X40.4267 Y69.5724 
G01 X40.4616 Y69.5121 
G01 X40.5202 Y69.3626 
G01 X40.7622 Y69.1206 
G01 X41.0784 Y68.9896 
G01 X41.2141 Y68.9655 
G01 X41.2946 Y68.9190 
G01 X41.3604 Y68.8533 
G01 X42.9676 Y67.2461 
G01 X43.1054 Y67.1890 
G01 X50.8746 Y67.1890 
G01 X51.0124 Y67.2461 
G01 X51.2005 Y67.4341 
G01 X52.5358 Y68.7694 
G01 X52.6163 Y68.8159 
G01 X52.7061 Y68.8400 
G01 X61.5426 Y68.8400 
G01 X61.6804 Y68.8971 
G01 X61.7859 Y69.0026 
G01 X61.8430 Y69.1404 
G01 X61.8430 Y72.8969 
G01 X61.8671 Y72.9867 
G01 X61.9136 Y73.0672 
G01 X61.9793 Y73.1330 
G01 X64.6008 Y75.7544 
G01 X64.6813 Y75.8009 
G01 X64.7711 Y75.8250 
G01 X68.4063 Y75.8250 
G01 X68.4961 Y75.8009 
G01 X68.5767 Y75.7544 
G01 X68.6424 Y75.6887 
G01 X68.6889 Y75.6081 
G01 X68.7130 Y75.5183 
G01 X68.7130 Y73.0774 
G01 X68.7701 Y72.9396 
G01 X68.9581 Y72.7515 
G01 X72.4316 Y69.2781 
G01 X72.5694 Y69.2210 
G01 X74.4209 Y69.2210 
G01 X74.5107 Y69.1969 
G01 X74.5912 Y69.1504 
G01 X74.6521 Y69.0895 
G01 X78.4350 Y65.3066 
G01 X78.5008 Y65.2409 
G01 X78.5473 Y65.1603 
G01 X78.5714 Y65.0705 
G01 X78.5714 Y64.9775 
G01 X78.5473 Y64.8877 
G01 X78.5008 Y64.8071 
G01 X78.4350 Y64.7414 
G01 X78.2262 Y64.5326 
G01 X78.1457 Y64.4861 
G01 X78.0559 Y64.4620 
G01 X76.5166 Y64.4620 
G01 X76.1631 Y64.3155 
G01 X75.8925 Y64.0449 
G01 X75.7460 Y63.6914 
G01 X75.7460 Y63.3086 
G01 X75.8925 Y62.9551 
G01 X76.1631 Y62.6845 
G01 X76.5166 Y62.5380 
G01 X78.4234 Y62.5380 
G01 X78.7769 Y62.6845 
G01 X79.0475 Y62.9551 
G01 X79.1940 Y63.3086 
G01 X79.1940 Y63.6913 
G01 X79.0740 Y63.9811 
G01 X79.0473 Y64.0454 
G01 X79.0382 Y64.1145 
G01 X79.0382 Y64.1841 
G01 X79.0563 Y64.2514 
G01 X79.0829 Y64.3157 
G01 X79.1253 Y64.3710 
G01 X79.3328 Y64.5784 
G01 X79.4133 Y64.6249 
G01 X79.5031 Y64.6490 
G01 X81.8626 Y64.6490 
G01 X82.0004 Y64.7061 
G01 X82.1227 Y64.8284 
G01 X82.1885 Y64.8941 
G01 X82.6531 Y65.3588 
G01 X82.7337 Y65.4053 
G01 X82.8235 Y65.4294 
G01 X82.9165 Y65.4294 
G01 X83.0063 Y65.4053 
G01 X83.0869 Y65.3588 
G01 X83.1526 Y65.2930 
G01 X83.2535 Y65.1922 
G01 X83.6211 Y65.0399 
G01 X84.0189 Y65.0399 
G01 X84.3865 Y65.1922 
G01 X84.6678 Y65.4735 
G01 X84.7675 Y65.7142 
G01 X84.7942 Y65.7785 
G01 X84.8366 Y65.8338 
G01 X84.9061 Y65.8947 
G01 X84.9664 Y65.9295 
G01 X85.0336 Y65.9475 
G01 X85.1027 Y65.9566 
G01 X85.1718 Y65.9475 
G01 X85.2390 Y65.9295 
G01 X85.2993 Y65.8947 
G01 X85.3546 Y65.8523 
G01 X85.3970 Y65.7970 
G01 X85.4099 Y66.2998 
G01 X85.3688 Y66.2462 
G01 X85.2993 Y66.1853 
G01 X85.2390 Y66.1505 
G01 X85.1718 Y66.1325 
G01 X85.1027 Y66.1234 
G01 X85.0336 Y66.1325 
G01 X84.9664 Y66.1505 
G01 X84.9061 Y66.1853 
G01 X84.8508 Y66.2277 
G01 X84.8084 Y66.2830 
G01 X84.7736 Y66.3433 
G01 X84.6678 Y66.6065 
G01 X84.3865 Y66.8878 
G01 X84.0189 Y67.0401 
G01 X83.6211 Y67.0401 
G01 X83.2535 Y66.8878 
G01 X82.9722 Y66.6065 
G01 X82.9206 Y66.5313 
G01 X82.8345 Y66.4585 
G01 X82.5916 Y66.3579 
G01 X82.4693 Y66.2356 
G01 X82.4035 Y66.1699 
G01 X81.7032 Y65.4696 
G01 X81.6227 Y65.4231 
G01 X81.5329 Y65.3990 
G01 X79.5031 Y65.3990 
G01 X79.4133 Y65.4231 
G01 X79.3328 Y65.4696 
G01 X79.2670 Y65.5353 
G01 X75.0107 Y69.7916 
G01 X74.8884 Y69.9139 
G01 X74.7506 Y69.9710 
G01 X72.8991 Y69.9710 
G01 X72.8093 Y69.9951 
G01 X72.7288 Y70.0416 
G01 X72.6630 Y70.1073 
G01 X69.5336 Y73.2368 
G01 X69.4871 Y73.3173 
G01 X69.4630 Y73.4071 
G01 X69.4630 Y76.2746 
G01 X69.4059 Y76.4124 
G01 X69.3004 Y76.5179 
G01 X69.1626 Y76.5750 
G01 X64.4414 Y76.5750 
G01 X64.3036 Y76.5179 
G01 X61.2724 Y73.4867 
G01 X61.1501 Y73.3644 
G01 X61.0930 Y73.2266 
G01 X61.0930 Y69.8967 
G01 X61.0689 Y69.8069 
G01 X61.0224 Y69.7263 
G01 X60.9567 Y69.6606 
G01 X60.8761 Y69.6141 
G01 X60.7863 Y69.5900 
G01 X59.4338 Y69.5900 
G01 X59.3641 Y69.5900 
G01 X59.2969 Y69.6080 
G01 X59.2325 Y69.6347 
G01 X59.1772 Y69.6771 
G01 X59.1163 Y69.7465 
G01 X59.0815 Y69.8069 
G01 X59.0635 Y69.8741 
G01 X59.0544 Y69.9432 
G01 X59.0635 Y70.0122 
G01 X59.0815 Y70.0795 
G01 X59.1163 Y70.1398 
G01 X59.1587 Y70.1951 
G01 X59.2140 Y70.2375 
G01 X59.2743 Y70.2723 
G01 X59.5678 Y70.3906 
G01 X59.8098 Y70.6326 
G01 X59.9408 Y70.9488 
G01 X59.9408 Y71.2911 
G01 X59.8098 Y71.6074 
G01 X59.5678 Y71.8494 
G01 X59.2515 Y71.9804 
G01 X58.1345 Y71.9804 
G01 X58.0649 Y71.9804 
G01 X57.9976 Y71.9984 
G01 X57.1511 Y72.0030 
G01 X57.0613 Y72.0271 
G01 X56.9808 Y72.0736 
G01 X56.9150 Y72.1393 
G01 X56.3256 Y72.7288 
G01 X56.2791 Y72.8093 
G01 X56.2550 Y72.8991 
G01 X56.2550 Y77.7984 
G01 X56.2791 Y77.8882 
G01 X56.3256 Y77.9688 
G01 X56.3913 Y78.0345 
G01 X56.6512 Y78.2944 
G01 X56.7318 Y78.3409 
G01 X56.8216 Y78.3650 
G01 X58.7484 Y78.3650 
G01 X58.8382 Y78.3409 
G01 X58.9188 Y78.2944 
G01 X58.9845 Y78.2287 
G01 X59.3336 Y77.8796 
G01 X60.0464 Y77.8796 
G01 X60.5504 Y78.3836 
G01 X60.5504 Y79.0964 
G01 X60.0464 Y79.6004 
G01 X59.3336 Y79.6004 
G01 X58.9188 Y79.1856 
G01 X58.8382 Y79.1391 
G01 X58.7484 Y79.1150 
G01 X56.8216 Y79.1150 
G01 X56.7318 Y79.1391 
G01 X56.6512 Y79.1856 
G01 X56.5855 Y79.2513 
G01 X56.2364 Y79.6004 
G01 X55.5236 Y79.6004 
G01 X55.0196 Y79.0964 
G01 X55.0196 Y78.3836 
G01 X55.4344 Y77.9688 
G01 X55.4809 Y77.8882 
G01 X55.5050 Y77.7984 
G01 X55.5050 Y72.5694 
G01 X55.5621 Y72.4316 
G01 X55.7501 Y72.2435 
G01 X56.6788 Y71.3148 
G01 X56.7426 Y71.2791 
G01 X56.7979 Y71.2367 
G01 X56.8403 Y71.1814 
G01 X56.8751 Y71.1211 
G01 X56.8931 Y71.0538 
G01 X56.9022 Y70.9848 
G01 X57.0302 Y70.6326 
G01 X57.2722 Y70.3906 
G01 X57.5431 Y70.2784 
G01 X57.6075 Y70.2517 
G01 X57.6627 Y70.2093 
G01 X57.7237 Y70.1398 
G01 X57.7585 Y70.0795 
G01 X57.7765 Y70.0122 
G01 X57.7856 Y69.9432 
G01 X57.7765 Y69.8741 
G01 X57.7585 Y69.8069 
G01 X57.7237 Y69.7465 
G01 X57.6813 Y69.6913 
G01 X57.6260 Y69.6489 
G01 X57.5657 Y69.6141 
G01 X57.4984 Y69.5960 
G01 X57.4294 Y69.5870 
G01 X52.3764 Y69.5900 
G01 X52.2386 Y69.5329 
G01 X50.7152 Y68.0096 
G01 X50.6347 Y67.9631 
G01 X50.5449 Y67.9390 
G01 X43.4351 Y67.9390 
G01 X43.3453 Y67.9631 
G01 X43.2648 Y68.0096 
G01 X43.1990 Y68.0753 
G01 X42.8087 Y68.4657 
G01 X42.7477 Y68.5351 
G01 X42.7129 Y68.5954 
G01 X42.6949 Y68.6627 
G01 X42.6858 Y68.7318 
G01 X42.6949 Y68.8008 
G01 X42.7129 Y68.8681 
G01 X42.7477 Y68.9284 
G01 X42.7901 Y68.9837 
G01 X42.8454 Y69.0261 
G01 X42.9057 Y69.0609 
G01 X43.0578 Y69.1206 
G01 X43.2998 Y69.3626 
G01 X43.4308 Y69.6788 
G01 X43.4308 Y70.0211 
G01 X43.2998 Y70.3374 
G01 X43.0578 Y70.5794 
G01 X42.7415 Y70.7104 
G01 X41.0784 Y70.7104 
G01 X40.7622 Y70.5794 
G01 X40.6968 Y70.5290 
G01 X40.6107 Y70.4920 
G01 X40.3871 Y70.4790 
G01 X40.2973 Y70.5031 
G01 X40.2168 Y70.5496 
G01 X40.1510 Y70.6153 
G01 X39.8364 Y70.9299 
G01 X39.6986 Y70.9870 
G01 X24.3094 Y70.9870 
G01 X24.1716 Y70.9299 
G01 X23.9835 Y70.7419 
G01 X20.7432 Y67.5016 
G01 X20.6627 Y67.4551 
G01 X20.5729 Y67.4310 
G01 X13.1334 Y67.4310 
G01 X12.9956 Y67.3739 
G01 X12.8075 Y67.1859 
G01 X8.3565 Y62.7348 
G01 X8.2870 Y62.6739 
G01 X8.2267 Y62.6391 
G01 X8.1594 Y62.6211 
G01 X8.0904 Y62.6120 
G01 X8.0213 Y62.6211 
G01 X7.9541 Y62.6391 
G01 X7.8937 Y62.6739 
G01 X7.8385 Y62.7163 
G01 X7.7961 Y62.7716 
G01 X7.7613 Y62.8319 
G01 X7.7432 Y62.8991 
G01 X7.7341 Y62.9682 
G01 X7.7432 Y63.0373 
G01 X7.7613 Y63.1045 
G01 X7.8580 Y63.3301 
G01 X7.8580 Y63.6699 
G01 X7.7280 Y63.9838 
G01 X7.4878 Y64.2240 
G01 X7.1739 Y64.3540 
G01 X7.0317 Y64.3540 
G01 X6.9419 Y64.3781 
G01 X6.8613 Y64.4246 
G01 X6.7956 Y64.4903 
G01 X6.7491 Y64.5709 
G01 X6.7250 Y64.6607 
G01 X6.7250 Y64.8793 
G01 X6.7491 Y64.9691 
G01 X6.7956 Y65.0497 
G01 X6.8613 Y65.1154 
G01 X6.9419 Y65.1619 
G01 X7.0317 Y65.1860 
G01 X7.1739 Y65.1860 
G01 X7.4877 Y65.3160 
G01 X7.5734 Y65.4017 
G01 X7.6355 Y65.4638 
G01 X7.7197 Y65.5139 
G01 X7.7844 Y65.5313 
G01 X8.9646 Y65.5380 
G01 X9.1024 Y65.5951 
G01 X9.2079 Y65.7006 
G01 X9.2650 Y65.8384 
G01 X9.2650 Y70.6109 
G01 X9.2891 Y70.7007 
G01 X9.3356 Y70.7812 
G01 X9.4013 Y70.8470 
G01 X15.7670 Y77.2127 
G01 X15.8328 Y77.2784 
G01 X15.9133 Y77.3249 
G01 X16.0031 Y77.3490 
G01 X19.1246 Y77.3490 
G01 X19.2624 Y77.4061 
G01 X19.3847 Y77.5284 
G01 X19.4505 Y77.5941 
G01 X24.7228 Y82.8664 
G01 X24.8033 Y82.9129 
G01 X24.8931 Y82.9370 
G01 X26.7365 Y82.9370 
G01 X26.8263 Y82.9129 
G01 X26.9068 Y82.8664 
G01 X26.9726 Y82.8007 
G01 X27.0191 Y82.7201 
G01 X27.0432 Y82.6303 
G01 X27.0432 Y82.5373 
G01 X27.0191 Y82.4475 
G01 X26.9726 Y82.3669 
G01 X26.9068 Y82.3012 
G01 X25.5466 Y80.9410 
G01 X25.4661 Y80.8945 
G01 X25.3763 Y80.8704 
G01 X25.0436 Y80.8704 
G01 X24.5396 Y80.3664 
G01 X24.5396 Y79.9297 
G01 X24.5155 Y79.8399 
G01 X24.4690 Y79.7593 
G01 X24.4033 Y79.6936 
G01 X24.3227 Y79.6471 
G01 X24.2329 Y79.6230 
G01 X23.2934 Y79.6230 
G01 X23.1556 Y79.5659 
G01 X19.9837 Y76.3941 
G01 X19.9143 Y76.3331 
G01 X19.8540 Y76.2983 
G01 X19.7867 Y76.2803 
G01 X19.7176 Y76.2712 
G01 X19.6486 Y76.2803 
G01 X19.5813 Y76.2983 
G01 X19.2211 Y76.4508 
G01 X18.8788 Y76.4508 
G01 X18.5626 Y76.3198 
G01 X18.3206 Y76.0778 
G01 X18.1896 Y75.7615 
G01 X18.1896 Y74.0984 
G01 X18.3206 Y73.7822 
G01 X18.4480 Y73.6548 
G01 X18.5137 Y73.5891 
G01 X18.5602 Y73.5085 
G01 X18.5776 Y73.4438 
G01 X18.5843 Y73.3257 
G01 X18.5602 Y73.2359 
G01 X18.5137 Y73.1553 
G01 X18.4480 Y73.0896 
G01 X18.3674 Y73.0431 
G01 X18.3027 Y73.0257 
G01 X17.1947 Y73.0190 
G01 X17.1297 Y73.0190 
G01 X17.0750 Y73.0306 
G01 X17.0156 Y73.0571 
G01 X16.9593 Y73.0896 
G01 X16.9068 Y73.1421 
G01 X16.8631 Y73.2022 
G01 X16.8398 Y73.2629 
G01 X16.8230 Y73.3257 
G01 X16.8201 Y73.3815 
G01 X16.8302 Y73.4458 
G01 X16.8471 Y73.5085 
G01 X16.7464 Y73.4903 
G01 X16.5898 Y73.4592 
G01 X16.4302 Y73.4592 
G01 X16.3342 Y73.4783 
G01 X16.3750 Y73.4221 
G01 X16.4125 Y73.3379 
G01 X16.4269 Y73.2841 
G01 X16.4289 Y73.2096 
G01 X16.4173 Y73.1551 
G01 X16.4029 Y73.1012 
G01 X16.3673 Y73.0358 
G01 X16.3051 Y72.9667 
G01 X16.1921 Y72.8564 
G01 X16.1350 Y72.7186 
G01 X16.1350 Y71.4520 
G01 X16.1109 Y71.3622 
G01 X16.0644 Y71.2816 
G01 X15.9987 Y71.2159 
G01 X15.7806 Y70.9978 
G01 X15.6496 Y70.6815 
G01 X15.6496 Y69.0185 
G01 X15.7806 Y68.7022 
G01 X16.0226 Y68.4602 
G01 X16.3389 Y68.3292 
G01 X16.6811 Y68.3292 
G01 X16.9974 Y68.4602 
G01 X17.2394 Y68.7022 
G01 X17.3704 Y69.0185 
G01 X17.3704 Y70.6815 
G01 X17.2394 Y70.9978 
G01 X16.9556 Y71.2816 
G01 X16.9091 Y71.3622 
G01 X16.8850 Y71.4520 
G01 X16.8850 Y71.9623 
G01 X16.9091 Y72.0521 
G01 X16.9556 Y72.1327 
G01 X17.0213 Y72.1984 
G01 X17.1019 Y72.2449 
G01 X17.1917 Y72.2690 
G01 X19.3786 Y72.2690 
G01 X19.5164 Y72.3261 
G01 X24.0655 Y76.8752 
G01 X24.1461 Y76.9217 
G01 X24.2359 Y76.9458 
G01 X24.3289 Y76.9458 
G01 X24.4187 Y76.9217 
G01 X24.4993 Y76.8752 
G01 X24.5650 Y76.8094 
G01 X24.6115 Y76.7289 
G01 X24.6356 Y76.6391 
G01 X24.6356 Y76.5817 
G01 X25.0183 Y76.9644 
G01 X24.9609 Y76.9644 
G01 X24.8711 Y76.9885 
G01 X24.7905 Y77.0350 
G01 X24.7248 Y77.1007 
G01 X24.6783 Y77.1813 
G01 X24.6542 Y77.2711 
G01 X24.6542 Y77.3641 
G01 X24.6783 Y77.4539 
G01 X24.7248 Y77.5345 
G01 X24.7905 Y77.6002 
G01 X25.4848 Y78.2944 
G01 X25.5653 Y78.3409 
G01 X25.6551 Y78.3650 
G01 X27.5066 Y78.3650 
G01 X27.6444 Y78.4221 
G01 X28.3301 Y79.1078 
G01 X28.3959 Y79.1736 
G01 X28.4764 Y79.2201 
G01 X28.5663 Y79.2441 
G01 X28.6593 Y79.2441 
G01 X28.7491 Y79.2201 
G01 X28.8296 Y79.1736 
G01 X29.5664 Y79.1496 
G01 X29.6614 Y79.2447 
G01 X29.7272 Y79.3104 
G01 X29.8078 Y79.3569 
G01 X29.8725 Y79.3743 
G01 X32.3324 Y79.3810 
G01 X32.4222 Y79.3569 
G01 X32.5028 Y79.3104 
G01 X32.5685 Y79.2447 
G01 X32.6636 Y79.1496 
G01 X33.3764 Y79.1496 
G01 X33.8804 Y79.6536 
G01 X33.8804 Y80.3664 
G01 X33.3764 Y80.8704 
G01 X32.6636 Y80.8704 
G01 X32.1279 Y80.3347 
G01 X32.0890 Y80.2673 
G01 X32.0233 Y80.2016 
G01 X31.9427 Y80.1551 
G01 X31.8529 Y80.1310 
G01 X30.3771 Y80.1310 
G01 X30.2873 Y80.1551 
G01 X30.2067 Y80.2016 
G01 X30.1410 Y80.2673 
G01 X30.1020 Y80.3347 
G01 X29.5664 Y80.8704 
G01 X28.8536 Y80.8704 
G01 X28.3496 Y80.3664 
G01 X28.3496 Y80.2877 
G01 X28.3255 Y80.1979 
G01 X28.2790 Y80.1174 
G01 X28.2133 Y80.0516 
G01 X28.0475 Y79.8859 
G01 X27.3472 Y79.1856 
G01 X27.2667 Y79.1391 
G01 X27.1769 Y79.1150 
G01 X26.6210 Y79.1150 
G01 X26.5280 Y79.1150 
G01 X26.4382 Y79.1391 
G01 X26.3576 Y79.1856 
G01 X26.2919 Y79.2513 
G01 X26.2453 Y79.3319 
G01 X26.2213 Y79.4217 
G01 X26.2213 Y79.5147 
G01 X26.2453 Y79.6045 
G01 X26.2604 Y80.4943 
G01 X26.2845 Y80.5841 
G01 X26.3310 Y80.6646 
G01 X26.3967 Y80.7304 
G01 X27.5168 Y81.8504 
G01 X27.5973 Y81.8969 
G01 X27.6871 Y81.9210 
G01 X34.2889 Y81.9210 
G01 X34.3787 Y81.8969 
G01 X34.4592 Y81.8504 
G01 X34.5250 Y81.7847 
G01 X35.8990 Y80.4106 
G01 X35.9455 Y80.3301 
G01 X35.9696 Y80.2403 
G01 X35.9696 Y79.6536 
G01 X36.4736 Y79.1496 
G01 X37.1864 Y79.1496 
G01 X37.6904 Y79.6536 
G01 X37.6904 Y80.3664 
G01 X37.2796 Y80.7772 
G01 X37.2186 Y80.8382 
G01 X37.1673 Y80.9235 
G01 X37.1433 Y81.0133 
G01 X37.1433 Y81.1063 
G01 X37.1663 Y81.1923 
G01 X37.2139 Y81.2767 
G01 X37.2786 Y81.3414 
G01 X37.3601 Y81.3889 
G01 X37.4500 Y81.4130 
G01 X37.8449 Y81.4130 
G01 X37.9347 Y81.3889 
G01 X38.0152 Y81.3424 
G01 X38.0810 Y81.2767 
G01 X39.4116 Y79.9461 
G01 X39.5494 Y79.8890 
G01 X40.1093 Y79.8890 
G01 X40.1789 Y79.8890 
G01 X40.2462 Y79.8710 
G01 X40.3106 Y79.8443 
G01 X40.3658 Y79.8019 
G01 X40.4267 Y79.7324 
G01 X40.4616 Y79.6721 
G01 X40.5202 Y79.5226 
G01 X40.7622 Y79.2806 
G01 X41.0784 Y79.1496 
G01 X42.7415 Y79.1496 
G01 X43.0578 Y79.2806 
G01 X43.2998 Y79.5226 
G01 X43.4308 Y79.8388 
G01 X43.4308 Y80.1811 
G01 X43.2998 Y80.4974 
G01 X43.0578 Y80.7394 
G01 X42.7415 Y80.8704 
G01 X41.0784 Y80.8704 
G01 X40.7622 Y80.7394 
G01 X40.6968 Y80.6890 
G01 X40.6107 Y80.6520 
G01 X39.8791 Y80.6390 
G01 X39.7893 Y80.6631 
G01 X39.7088 Y80.7096 
G01 X38.6252 Y81.7932 
G01 X38.5594 Y81.8589 
G01 X38.5129 Y81.9395 
G01 X38.4888 Y82.0293 
G01 X38.4888 Y82.1223 
G01 X38.5129 Y82.2121 
G01 X38.5594 Y82.2927 
G01 X38.6251 Y82.3584 
G01 X38.7057 Y82.4049 
G01 X38.7955 Y82.4290 
G01 X40.1093 Y82.4290 
G01 X40.1789 Y82.4290 
G01 X40.2462 Y82.4110 
G01 X40.3105 Y82.3843 
G01 X40.3658 Y82.3419 
G01 X40.4267 Y82.2724 
G01 X40.4616 Y82.2121 
G01 X40.5202 Y82.0626 
G01 X40.7622 Y81.8206 
G01 X41.0784 Y81.6896 
G01 X42.7415 Y81.6896 
G01 X43.0578 Y81.8206 
G01 X43.2998 Y82.0626 
G01 X43.4308 Y82.3788 
G01 X43.4308 Y82.7211 
G01 X43.2998 Y83.0374 
G01 X43.0578 Y83.2794 
G01 X42.7415 Y83.4104 
G01 X41.0784 Y83.4104 
G01 X40.7622 Y83.2794 
G01 X40.6518 Y83.2031 
G01 X40.5620 Y83.1790 
G01 X37.8471 Y83.1790 
G01 X37.7573 Y83.2031 
G01 X37.6768 Y83.2496 
G01 X37.6187 Y83.3076 
G01 X34.0167 Y86.9096 
G01 X33.9510 Y86.9754 
G01 X33.9045 Y87.0559 
G01 X33.8804 Y87.1457 
G01 X33.8804 Y87.9864 
G01 X33.3764 Y88.4904 
G01 X32.6636 Y88.4904 
G01 X32.1596 Y87.9864 
G01 X32.1596 Y87.2736 
G01 X32.6636 Y86.7696 
G01 X32.9963 Y86.7696 
G01 X33.0861 Y86.7455 
G01 X33.1666 Y86.6990 
G01 X33.2324 Y86.6333 
G01 X35.6086 Y84.2571 
G01 X35.6551 Y84.1765 
G01 X35.6792 Y84.0867 
G01 X35.6792 Y83.9937 
G01 X35.6551 Y83.9039 
G01 X35.6086 Y83.8233 
G01 X35.5428 Y83.7576 
G01 X35.4623 Y83.7111 
G01 X35.3725 Y83.6870 
G01 X24.5634 Y83.6870 
G01 X24.4256 Y83.6299 
G01 X18.9652 Y78.1696 
G01 X18.8847 Y78.1231 
G01 X18.7949 Y78.0990 
G01 X15.6734 Y78.0990 
G01 X15.5356 Y78.0419 
G01 X8.6944 Y71.2007 
G01 X8.5721 Y71.0784 
G01 X8.5150 Y70.9406 
G01 X8.5150 Y66.5947 
G01 X8.4909 Y66.5049 
G01 X8.4444 Y66.4243 
G01 X8.3787 Y66.3586 
G01 X8.2981 Y66.3121 
G01 X8.2083 Y66.2880 
G01 X8.0848 Y66.2880 
G01 X8.0151 Y66.2880 
G01 X7.9479 Y66.3060 
G01 X7.8835 Y66.3327 
G01 X7.8282 Y66.3751 
G01 X7.7673 Y66.4446 
G01 X7.7325 Y66.5049 
G01 X7.4878 Y66.7640 
G01 X7.1739 Y66.8940 
G01 X5.5261 Y66.8940 
G01 X5.2122 Y66.7640 
G01 X5.0578 Y66.6096 
G01 X4.9921 Y66.5438 
G01 X4.9115 Y66.4973 
G01 X4.8468 Y66.4800 
G01 X4.7287 Y66.4732 
G01 X4.6427 Y66.4963 
G01 X4.5583 Y66.5438 
G01 X4.4926 Y66.6096 
G01 X4.4461 Y66.6901 
G01 X4.4287 Y66.7548 
G01 X4.4220 Y69.9355 
G01 X4.4333 Y70.0271 
G01 X4.4678 Y70.1125 
G01 X4.5234 Y70.1862 
G01 X4.5960 Y70.2429 
G01 X7.2298 Y71.8232 
G01 X7.2919 Y71.8604 
G01 X7.3482 Y71.8826 
G01 X7.4043 Y71.9278 
G01 X7.4378 Y71.9782 
G01 X7.4873 Y72.0310 
G01 X15.7449 Y80.8391 
G01 X15.8133 Y80.9010 
G01 X15.8676 Y80.9348 
G01 X15.9223 Y80.9543 
G01 X15.9857 Y80.9627 
G01 X16.0496 Y80.9647 
G01 X16.1067 Y80.9543 
G01 X16.1658 Y80.9299 
G01 X16.3074 Y80.8712 
G01 X16.7126 Y80.8712 
G01 X17.0869 Y81.0262 
G01 X17.3734 Y81.3127 
G01 X17.4280 Y81.4446 
G01 X17.4546 Y81.5089 
G01 X17.4970 Y81.5642 
G01 X17.5665 Y81.6251 
G01 X17.6268 Y81.6599 
G01 X17.6941 Y81.6780 
G01 X17.7631 Y81.6870 
G01 X17.8200 Y81.6840 
G01 X17.8891 Y81.6749 
G01 X17.9534 Y81.6483 
G01 X18.0137 Y81.6134 
G01 X18.0795 Y81.5477 
G01 X18.1143 Y81.4873 
G01 X18.1866 Y81.3127 
G01 X18.4731 Y81.0262 
G01 X18.8474 Y80.8712 
G01 X19.2526 Y80.8712 
G01 X19.6269 Y81.0262 
G01 X19.9134 Y81.3127 
G01 X20.0684 Y81.6870 
G01 X20.0684 Y83.4130 
G01 X19.9134 Y83.7873 
G01 X19.6269 Y84.0738 
G01 X19.2526 Y84.2288 
G01 X18.8474 Y84.2288 
G01 X18.4731 Y84.0738 
G01 X18.1866 Y83.7873 
G01 X18.1241 Y83.6363 
G01 X18.0885 Y83.5504 
G01 X18.0459 Y83.4948 
G01 X17.9581 Y83.4200 
G01 X17.8722 Y83.3844 
G01 X17.7800 Y83.3723 
G01 X17.6878 Y83.3844 
G01 X17.6019 Y83.4200 
G01 X17.5463 Y83.4626 
G01 X17.4715 Y83.5504 
G01 X17.4496 Y83.6033 
G01 X17.3734 Y83.7873 
G01 X17.0869 Y84.0738 
G01 X16.7126 Y84.2288 
G01 X16.3074 Y84.2288 
G01 X15.9331 Y84.0738 
G01 X15.6466 Y83.7873 
G01 X15.4916 Y83.4130 
G01 X15.4916 Y82.5039 
G01 X15.4916 Y82.4517 
G01 X15.4718 Y82.3725 
G01 X15.4279 Y82.2905 
G01 X6.6605 Y72.9387 
G01 X6.5988 Y72.8729 
G01 X6.5198 Y72.8238 
G01 X3.5737 Y71.0569 
G01 X3.5165 Y71.0226 
G01 X3.4633 Y71.0038 
G01 X3.3908 Y70.9472 
G01 X3.3452 Y70.8857 
G01 X3.2912 Y70.8317 
G01 X3.2458 Y70.7516 
G01 X3.2350 Y70.6962 
G01 X3.2095 Y70.6346 
G01 X3.1987 Y70.5633 
G01 X3.1912 Y70.4855 
G01 X3.2010 Y70.4196 
G01 X3.1980 Y58.2983 
G01 X3.2912 Y58.0733 
G01 X5.8144 Y55.5501 
G01 X6.0033 Y55.3612 
G01 X6.2283 Y55.2680 
G01 X12.7905 Y55.2680 
G01 X12.8803 Y55.2439 
G01 X12.9609 Y55.1974 
G01 X13.0266 Y55.1317 
G01 X13.2924 Y54.8659 
G01 X13.3726 Y54.8327 
G01 X13.4369 Y54.8060 
G01 X13.4922 Y54.7636 
G01 X13.5531 Y54.6942 
G01 X13.5879 Y54.6339 
G01 X13.6060 Y54.5666 
G01 X13.6150 Y54.4975 
G01 X13.6120 Y49.8642 
G01 X13.6120 Y49.7909 
G01 X13.6023 Y49.7306 
G01 X13.6120 Y49.6623 
G01 X13.6381 Y49.6070 
G01 X13.6559 Y49.5562 
G01 X13.6701 Y49.4967 
G01 X13.7052 Y49.4373 
G01 X13.7673 Y49.3752 
G01 X15.1646 Y47.6286 
G01 X15.2204 Y47.5588 
G01 X15.2577 Y47.4736 
G01 X15.2717 Y47.3817 
G01 X15.2615 Y47.2893 
G01 X15.2276 Y47.2026 
G01 X15.2070 Y46.6248 
G01 X15.4099 Y46.1349 
G01 X15.7849 Y45.7599 
G01 X16.2748 Y45.5570 
G01 X16.8052 Y45.5570 
G01 X17.1662 Y45.7066 
G01 X17.2306 Y45.7332 
G01 X17.2997 Y45.7423 
G01 X17.3693 Y45.7423 
G01 X17.4366 Y45.7243 
G01 X17.5009 Y45.6976 
G01 X17.5562 Y45.6552 
G01 X17.6171 Y45.5858 
G01 X17.6519 Y45.5254 
G01 X17.6700 Y45.4582 
G01 X17.6790 Y45.3891 
G01 X17.6760 Y45.0903 
G01 X17.7692 Y44.8653 
G01 X20.8004 Y41.8341 
G01 X20.9893 Y41.6452 
G01 X21.2143 Y41.5520 
G01 X54.9857 Y41.5520 
G01 X55.2107 Y41.6452 
G01 X55.4892 Y41.9237 
G01 X55.5516 Y41.9861 
G01 X55.6355 Y42.0359 
G01 X55.7239 Y42.0596 
G01 X63.6217 Y42.0600 
G01 X63.8467 Y42.1532 
G01 X67.1799 Y45.4864 
G01 X67.2605 Y45.5329 
G01 X67.3503 Y45.5570 
G01 X67.5452 Y45.5570 
G01 X68.0351 Y45.7599 
G01 X68.4101 Y46.1349 
G01 X68.6130 Y46.6248 
G01 X68.6130 Y47.1551 
G01 X68.4101 Y47.6451 
G01 X68.0351 Y48.0201 
G01 X67.5452 Y48.2230 
G01 X67.0150 Y48.2230 
G01 X66.9559 Y48.2114 
G01 X66.8630 Y48.2114 
G01 X66.7734 Y48.2354 
G01 X66.6943 Y48.2812 
G01 X66.6294 Y48.3460 
G01 X66.5830 Y48.4260 
G01 X66.5591 Y48.5147 
G01 X66.5590 Y48.6077 
G01 X66.5831 Y48.6972 
G01 X67.3918 Y50.6612 
G01 X67.4270 Y50.7468 
G01 X67.4835 Y50.8207 
G01 X67.5571 Y50.8775 
G01 X67.6430 Y50.9133 
G01 X67.9876 Y51.0559 
G01 X68.0639 Y51.1322 
G01 X68.1223 Y51.1664 
G01 X68.1863 Y51.1908 
G01 X71.7827 Y51.2040 
G01 X71.8725 Y51.1799 
G01 X71.9531 Y51.1334 
G01 X72.9022 Y50.1843 
G01 X72.9631 Y50.1148 
G01 X72.9979 Y50.0545 
G01 X73.0159 Y49.9873 
G01 X73.0250 Y49.9182 
G01 X73.0159 Y49.8491 
G01 X72.9979 Y49.7819 
G01 X72.9972 Y49.2718 
G01 X73.0220 Y49.2119 
G01 X73.0401 Y49.1446 
G01 X73.0401 Y49.0750 
G01 X73.0310 Y49.0059 
G01 X73.0043 Y48.9415 
G01 X72.9695 Y48.8812 
G01 X72.9037 Y48.8155 
G01 X72.8434 Y48.7807 
G01 X72.7791 Y48.7540 
G01 X72.7100 Y48.7449 
G01 X71.5550 Y48.7449 
G01 X71.2041 Y48.5995 
G01 X70.9355 Y48.3309 
G01 X70.7901 Y47.9799 
G01 X70.7901 Y24.0150 
G01 X70.7901 Y23.9281 
G01 X70.7765 Y23.8774 
G01 X70.7612 Y23.8271 
G01 X70.7195 Y23.7577 
G01 X70.6538 Y23.6920 
G01 X70.5732 Y23.6455 
G01 X70.5225 Y23.6319 
G01 X70.4713 Y23.6200 
G01 X70.3904 Y23.6214 
G01 X70.3397 Y23.6350 
G01 X70.2894 Y23.6503 
G01 X70.2200 Y23.6920 
G01 X70.1543 Y23.7577 
G01 X70.1078 Y23.8383 
G01 X70.0942 Y23.8890 
G01 X70.0774 Y23.9486 
G01 X70.0727 Y24.0136 
G01 X70.0498 Y24.0805 
G01 X70.0378 Y24.1327 
G01 X69.9948 Y24.1927 
G01 X69.9618 Y24.2588 
G01 X69.8978 Y24.3286 
G01 X69.3833 Y25.0489 
G01 X69.3434 Y25.1047 
G01 X69.3193 Y25.1572 
G01 X69.2612 Y25.2198 
G01 X69.2107 Y25.2477 
G01 X69.1580 Y25.2916 
G01 X68.8180 Y25.5750 
G01 X68.7541 Y25.6415 
G01 X68.7096 Y25.7223 
G01 X68.6911 Y25.7726 
G01 X68.6824 Y25.8509 
G01 X68.6894 Y25.9040 
G01 X68.6985 Y25.9568 
G01 X68.8880 Y26.4101 
G01 X68.8880 Y27.0499 
G01 X68.6432 Y27.6409 
G01 X68.1909 Y28.0932 
G01 X67.5999 Y28.3380 
G01 X66.9601 Y28.3380 
G01 X66.3691 Y28.0932 
G01 X65.9168 Y27.6409 
G01 X65.6720 Y27.0499 
G01 X65.6720 Y26.4101 
G01 X65.9168 Y25.8191 
G01 X66.3691 Y25.3668 
G01 X66.9601 Y25.1220 
G01 X67.3057 Y25.1220 
G01 X67.3683 Y25.1220 
G01 X67.4277 Y25.1089 
G01 X67.4845 Y25.0827 
G01 X67.5386 Y25.0514 
G01 X67.6233 Y24.9773 
G01 X67.6823 Y24.9281 
G01 X67.7451 Y24.8730 
G01 X67.8188 Y24.8164 
G01 X68.3461 Y24.3749 
G01 X68.4087 Y24.3074 
G01 X68.7886 Y23.7756 
G01 X68.8401 Y23.7036 
G01 X68.8727 Y23.6165 
G01 X68.8776 Y23.5657 
G01 X68.9000 Y23.2523 
G01 X68.9057 Y23.1722 
G01 X68.8945 Y23.1142 
G01 X68.8792 Y23.0571 
G01 X68.8475 Y22.9973 
G01 X68.7866 Y22.9270 
G01 X68.7095 Y22.8749 
G01 X68.6537 Y22.8556 
G01 X68.5966 Y22.8403 
G01 X68.5289 Y22.8378 
G01 X68.4708 Y22.8490 
G01 X68.4138 Y22.8643 
G01 X68.3539 Y22.8961 
G01 X68.2836 Y22.9570 
G01 X68.1909 Y23.0532 
G01 X67.5999 Y23.2980 
G01 X66.9601 Y23.2980 
G01 X66.3691 Y23.0532 
G01 X65.9168 Y22.6009 
G01 X65.6720 Y22.0099 
G01 X65.6720 Y21.3701 
G01 X65.9225 Y20.7654 
G01 X65.9581 Y20.6795 
G01 X65.9702 Y20.5873 
G01 X65.9581 Y20.4951 
G01 X65.9319 Y20.4317 
G01 X65.9344 Y20.3560 
G01 X65.9374 Y20.2691 
G01 X65.9360 Y13.0533 
G01 X65.9119 Y12.9635 
G01 X65.8654 Y12.8829 
G01 X65.7997 Y12.8172 
G01 X64.3331 Y11.3506 
G01 X64.2525 Y11.3041 
G01 X64.1627 Y11.2800 
G01 X62.3293 Y11.2800 
G01 X62.2395 Y11.3041 
G01 X62.1589 Y11.3506 
G01 X62.0932 Y11.4163 
G01 X57.2427 Y16.2668 
G01 X57.1751 Y16.2948 
G01 X57.1198 Y16.3372 
G01 X57.0589 Y16.4067 
G01 X57.0241 Y16.4670 
G01 X57.0060 Y16.5343 
G01 X56.9969 Y16.6033 
G01 X57.0000 Y28.0947 
G01 X57.0241 Y28.1845 
G01 X57.0706 Y28.2651 
G01 X58.9110 Y30.1055 
G01 X58.9804 Y30.1664 
G01 X59.0408 Y30.2012 
G01 X59.1080 Y30.2192 
G01 X59.1771 Y30.2283 
G01 X59.2461 Y30.2192 
G01 X59.3134 Y30.2012 
G01 X59.4001 Y30.1620 
G01 X60.0399 Y30.1620 
G01 X60.6309 Y30.4068 
G01 X61.0832 Y30.8591 
G01 X61.3280 Y31.4501 
G01 X61.3280 Y32.0898 
G01 X61.1532 Y32.5118 
G01 X61.1266 Y32.5761 
G01 X61.1175 Y32.6452 
G01 X61.1175 Y32.7148 
G01 X61.1355 Y32.7821 
G01 X61.1622 Y32.8464 
G01 X61.2046 Y32.9017 
G01 X61.2740 Y32.9626 
G01 X61.3344 Y32.9974 
G01 X61.4016 Y33.0155 
G01 X61.4707 Y33.0246 
G01 X61.5397 Y33.0155 
G01 X61.6070 Y32.9974 
G01 X61.6673 Y32.9626 
G01 X61.7226 Y32.9202 
G01 X62.3094 Y32.3291 
G01 X62.3559 Y32.2485 
G01 X62.3800 Y32.1587 
G01 X62.3800 Y30.5841 
G01 X62.3800 Y30.5181 
G01 X62.3690 Y30.4654 
G01 X62.3425 Y30.4049 
G01 X62.3094 Y30.3477 
G01 X61.5482 Y29.4009 
G01 X61.5025 Y29.3437 
G01 X60.5432 Y28.3887 
G01 X60.4737 Y28.3277 
G01 X60.4134 Y28.2929 
G01 X60.3461 Y28.2749 
G01 X60.2770 Y28.2658 
G01 X60.2080 Y28.2749 
G01 X60.1407 Y28.2929 
G01 X60.0398 Y28.3380 
G01 X59.4001 Y28.3380 
G01 X58.8091 Y28.0932 
G01 X58.3568 Y27.6409 
G01 X58.1120 Y27.0499 
G01 X58.1120 Y26.4101 
G01 X58.3568 Y25.8191 
G01 X58.8091 Y25.3668 
G01 X59.4001 Y25.1220 
G01 X60.0399 Y25.1220 
G01 X60.6309 Y25.3668 
G01 X61.0832 Y25.8191 
G01 X61.3280 Y26.4101 
G01 X61.3280 Y27.0498 
G01 X61.3005 Y27.1083 
G01 X61.2825 Y27.1756 
G01 X61.2734 Y27.2446 
G01 X61.2825 Y27.3137 
G01 X61.3005 Y27.3809 
G01 X61.3353 Y27.4413 
G01 X61.3777 Y27.4965 
G01 X61.7733 Y27.8878 
G01 X61.8427 Y27.9487 
G01 X61.9031 Y27.9835 
G01 X61.9704 Y28.0016 
G01 X62.0394 Y28.0106 
G01 X62.1084 Y28.0016 
G01 X62.1757 Y27.9835 
G01 X62.2360 Y27.9487 
G01 X62.2913 Y27.9063 
G01 X62.3337 Y27.8511 
G01 X62.3685 Y27.7907 
G01 X62.3866 Y27.7234 
G01 X62.3956 Y27.6544 
G01 X62.3865 Y27.5854 
G01 X62.3800 Y25.2453 
G01 X62.3559 Y25.1555 
G01 X62.3094 Y25.0749 
G01 X60.5714 Y23.3369 
G01 X60.5020 Y23.2760 
G01 X60.4417 Y23.2412 
G01 X60.3744 Y23.2232 
G01 X60.3053 Y23.2141 
G01 X60.2363 Y23.2232 
G01 X60.1690 Y23.2412 
G01 X60.0398 Y23.2980 
G01 X59.4001 Y23.2980 
G01 X58.8091 Y23.0532 
G01 X58.3568 Y22.6009 
G01 X58.1120 Y22.0099 
G01 X58.1120 Y21.3701 
G01 X58.3568 Y20.7791 
G01 X58.8091 Y20.3268 
G01 X59.4001 Y20.0820 
G01 X59.5333 Y20.0820 
G01 X59.6231 Y20.0579 
G01 X59.7037 Y20.0114 
G01 X59.7694 Y19.9457 
G01 X59.8159 Y19.8651 
G01 X59.8400 Y19.7753 
G01 X59.8400 Y16.6423 
G01 X59.9332 Y16.4173 
G01 X60.1879 Y16.1626 
G01 X61.9974 Y14.3531 
G01 X62.0439 Y14.2725 
G01 X62.0680 Y14.1827 
G01 X62.0680 Y12.8848 
G01 X62.2373 Y12.4761 
G01 X62.5501 Y12.1633 
G01 X62.9588 Y11.9940 
G01 X63.4012 Y11.9940 
G01 X63.8099 Y12.1633 
G01 X64.1227 Y12.4761 
G01 X64.2920 Y12.8848 
G01 X64.2920 Y14.8352 
G01 X64.1227 Y15.2439 
G01 X63.8099 Y15.5567 
G01 X63.4012 Y15.7260 
G01 X62.9588 Y15.7260 
G01 X62.7716 Y15.6485 
G01 X62.7073 Y15.6218 
G01 X62.6382 Y15.6127 
G01 X62.5686 Y15.6127 
G01 X62.5013 Y15.6307 
G01 X62.4370 Y15.6574 
G01 X62.3817 Y15.6998 
G01 X61.1346 Y16.9469 
G01 X61.0881 Y17.0275 
G01 X61.0640 Y17.1173 
G01 X61.0640 Y20.4417 
G01 X61.0419 Y20.4951 
G01 X61.0331 Y20.5620 
G01 X61.0419 Y20.6795 
G01 X61.0726 Y20.7535 
G01 X61.3280 Y21.3701 
G01 X61.3280 Y22.0098 
G01 X61.3062 Y22.0626 
G01 X61.2881 Y22.1298 
G01 X61.2881 Y22.1995 
G01 X61.2972 Y22.2685 
G01 X61.3239 Y22.3329 
G01 X61.3587 Y22.3932 
G01 X63.5108 Y24.5453 
G01 X63.6040 Y24.7703 
G01 X63.6040 Y27.0787 
G01 X63.6281 Y27.1685 
G01 X63.6746 Y27.2491 
G01 X66.5134 Y30.0879 
G01 X66.5829 Y30.1488 
G01 X66.6432 Y30.1837 
G01 X66.7105 Y30.2017 
G01 X66.7795 Y30.2108 
G01 X66.8486 Y30.2017 
G01 X66.9158 Y30.1837 
G01 X67.5999 Y30.1620 
G01 X68.1909 Y30.4068 
G01 X68.6432 Y30.8591 
G01 X68.8880 Y31.4501 
G01 X68.8880 Y32.0899 
G01 X68.6432 Y32.6809 
G01 X68.1909 Y33.1332 
G01 X67.5999 Y33.3780 
G01 X66.9601 Y33.3780 
G01 X66.3691 Y33.1332 
G01 X65.9168 Y32.6809 
G01 X65.6720 Y32.0899 
G01 X65.6720 Y31.4501 
G01 X65.7113 Y31.3554 
G01 X65.7379 Y31.2910 
G01 X65.7470 Y31.2220 
G01 X65.7470 Y31.1523 
G01 X65.7290 Y31.0850 
G01 X65.7023 Y31.0207 
G01 X65.6599 Y30.9654 
G01 X63.7198 Y29.0253 
G01 X63.6498 Y28.9652 
G01 X63.5926 Y28.9321 
G01 X63.5415 Y28.9154 
G01 X63.4758 Y28.9081 
G01 X63.4098 Y28.9081 
G01 X63.3571 Y28.9191 
G01 X63.2966 Y28.9456 
G01 X63.2394 Y28.9786 
G01 X63.1876 Y29.0304 
G01 X63.1442 Y29.0894 
G01 X63.1202 Y29.1510 
G01 X63.1031 Y29.2148 
G01 X63.1001 Y29.2685 
G01 X63.1100 Y29.3338 
G01 X63.1271 Y29.3976 
G01 X63.1638 Y29.4610 
G01 X63.4198 Y29.7811 
G01 X63.4655 Y29.8383 
G01 X63.5228 Y29.9082 
G01 X63.5575 Y29.9786 
G01 X63.5779 Y30.0490 
G01 X63.6040 Y30.1043 
G01 X63.6137 Y30.1726 
G01 X63.6040 Y30.2329 
G01 X63.6010 Y30.2867 
G01 X63.6040 Y32.6337 
G01 X63.5108 Y32.8587 
G01 X63.2561 Y33.1134 
G01 X60.7987 Y35.5708 
G01 X60.5737 Y35.6640 
G01 X53.7263 Y35.6640 
G01 X53.5013 Y35.5708 
G01 X53.3292 Y35.3987 
G01 X53.2360 Y35.1737 
G01 X53.2360 Y15.0686 
G01 X53.2360 Y14.9990 
G01 X53.2180 Y14.9317 
G01 X53.1780 Y14.8352 
G01 X53.1780 Y12.8848 
G01 X53.3473 Y12.4761 
G01 X53.6601 Y12.1633 
G01 X54.0688 Y11.9940 
G01 X54.5112 Y11.9940 
G01 X54.9199 Y12.1633 
G01 X55.2327 Y12.4761 
G01 X55.4020 Y12.8848 
G01 X55.4020 Y14.8352 
G01 X55.3597 Y14.9373 
G01 X55.3331 Y15.0016 
G01 X55.3240 Y15.0707 
G01 X55.3240 Y15.1403 
G01 X55.3420 Y15.2076 
G01 X55.3686 Y15.2720 
G01 X55.4110 Y15.3272 
G01 X55.4805 Y15.3881 
G01 X55.5408 Y15.4230 
G01 X55.6081 Y15.4410 
G01 X55.6772 Y15.4501 
G01 X55.7462 Y15.4410 
G01 X55.8135 Y15.4230 
G01 X55.8738 Y15.3881 
G01 X55.9291 Y15.3457 
G01 X56.0413 Y15.2292 
G01 X56.2663 Y15.1360 
G01 X56.5427 Y15.1360 
G01 X56.6325 Y15.1119 
G01 X56.7131 Y15.0654 
G01 X56.7788 Y14.9997 
G01 X60.5947 Y11.1838 
G01 X60.6556 Y11.1144 
G01 X60.6904 Y11.0540 
G01 X60.7084 Y10.9868 
G01 X60.7175 Y10.9177 
G01 X60.7084 Y10.8487 
G01 X60.6904 Y10.7814 
G01 X60.6556 Y10.7211 
G01 X60.6132 Y10.6658 
G01 X60.5579 Y10.6234 
G01 X60.4976 Y10.5886 
G01 X60.4303 Y10.5706 
G01 X60.3613 Y10.5615 
G01 X60.2922 Y10.5706 
G01 X60.2249 Y10.5886 
G01 X59.9012 Y10.7260 
G01 X59.4588 Y10.7260 
G01 X59.0501 Y10.5567 
G01 X58.7373 Y10.2439 
G01 X58.5680 Y9.8352 
G01 X58.5680 Y7.8848 
G01 X58.7373 Y7.4761 
G01 X59.0501 Y7.1633 
G01 X59.4588 Y6.9940 
G01 X59.9012 Y6.9940 
G01 X60.3099 Y7.1633 
G01 X60.6227 Y7.4761 
G01 X60.7920 Y7.8848 
G01 X60.7920 Y8.7262 
G01 X60.7920 Y8.7898 
G01 X60.8044 Y8.8472 
G01 X60.8308 Y8.9051 
G01 X60.8626 Y8.9602 
G01 X60.9161 Y9.0137 
G01 X61.7291 Y9.5944 
G01 X61.8097 Y9.6391 
G01 X61.8649 Y9.6914 
G01 X61.9228 Y9.7327 
G01 X61.9830 Y9.8095 
G01 X62.1589 Y9.9854 
G01 X62.2395 Y10.0319 
G01 X62.3293 Y10.0560 
G01 X64.6377 Y10.0560 
G01 X64.8627 Y10.1492 
G01 X66.8779 Y12.1644 
G01 X67.0668 Y12.3533 
G01 X67.1600 Y12.5783 
G01 X67.1600 Y19.7753 
G01 X67.1841 Y19.8651 
G01 X67.2306 Y19.9457 
G01 X67.2963 Y20.0114 
G01 X67.3769 Y20.0579 
G01 X67.4667 Y20.0820 
G01 X67.5999 Y20.0820 
G01 X68.1909 Y20.3268 
G01 X68.4919 Y20.6278 
G01 X68.5630 Y20.6866 
G01 X68.6142 Y20.7161 
G01 X68.6790 Y20.7360 
G01 X68.7380 Y20.7402 
G01 X68.7971 Y20.7402 
G01 X68.8631 Y20.7250 
G01 X68.9163 Y20.6992 
G01 X68.9674 Y20.6696 
G01 X69.0242 Y20.6129 
G01 X69.0691 Y20.5464 
G01 X69.0885 Y20.4906 
G01 X69.1038 Y20.4335 
G01 X69.1077 Y20.3444 
G01 X69.1134 Y20.2643 
G01 X69.1110 Y12.9096 
G01 X69.1110 Y12.8245 
G01 X69.0969 Y12.7721 
G01 X69.0806 Y12.7203 
G01 X69.0404 Y12.6542 
G01 X68.9747 Y12.5884 
G01 X62.0992 Y6.2979 
G01 X62.0248 Y6.2434 
G01 X61.9389 Y6.2100 
G01 X61.8858 Y6.1983 
G01 X54.2013 Y6.2000 
G01 X54.1115 Y6.2241 
G01 X54.0309 Y6.2706 
G01 X53.9652 Y6.3363 
G01 X51.9726 Y8.3289 
G01 X51.9261 Y8.4095 
G01 X51.9020 Y8.4993 
G01 X51.9020 Y9.8352 
G01 X51.7327 Y10.2439 
G01 X51.4199 Y10.5567 
G01 X51.0112 Y10.7260 
G01 X50.5688 Y10.7260 
G01 X50.1601 Y10.5567 
G01 X49.8473 Y10.2439 
G01 X49.6780 Y9.8352 
G01 X49.6780 Y7.8848 
G01 X49.8473 Y7.4761 
G01 X50.1601 Y7.1633 
G01 X50.5688 Y6.9940 
G01 X51.0112 Y6.9940 
G01 X51.1715 Y7.0604 
G01 X51.2358 Y7.0871 
G01 X51.3049 Y7.0961 
G01 X51.3746 Y7.0961 
G01 X51.4418 Y7.0781 
G01 X51.5062 Y7.0515 
G01 X51.5614 Y7.0091 
G01 X53.3124 Y5.2581 
G01 X53.5013 Y5.0692 
G01 X53.7263 Y4.9760 
G01 X62.1701 Y4.9760 
G01 X62.2552 Y4.9760 
G01 X62.3279 Y4.9711 
G01 X62.4089 Y4.9997 
G01 X62.4874 Y5.0322 
G01 X62.5565 Y5.0555 
G01 X62.6204 Y5.1129 
G01 X62.6805 Y5.1730 
G01 X69.9880 Y11.8589 
G01 X70.0452 Y11.9112 
G01 X70.1134 Y11.9709 
G01 X70.1735 Y12.0310 
G01 X70.2284 Y12.0790 
G01 X70.2655 Y12.1564 
G01 X70.2980 Y12.2350 
G01 X70.3304 Y12.3003 
G01 X70.3350 Y12.3861 
G01 X70.3350 Y12.4711 
G01 X70.3399 Y12.5438 
G01 X70.3350 Y12.6006 
G01 X70.3350 Y17.0434 
G01 X70.3591 Y17.1332 
G01 X70.4056 Y17.2137 
G01 X70.4713 Y17.2795 
G01 X70.5519 Y17.3260 
G01 X70.6417 Y17.3501 
G01 X70.7347 Y17.3501 
G01 X70.8245 Y17.3260 
G01 X70.9051 Y17.2795 
G01 X70.9708 Y17.2137 
G01 X71.2041 Y16.9805 
G01 X71.5551 Y16.8351 
G01 X75.6154 Y16.8351 
G01 X75.7052 Y16.8110 
G01 X75.7858 Y16.7645 
G01 X75.8515 Y16.6988 
G01 X75.8980 Y16.6182 
G01 X75.9221 Y16.5284 
G01 X75.9221 Y16.4354 
G01 X75.8980 Y16.3456 
G01 X75.8515 Y16.2650 
G01 X75.7858 Y16.1993 
G01 X75.6246 Y16.0381 
G01 X75.3548 Y15.7683 
G01 X75.2853 Y15.7073 
G01 X75.2250 Y15.6725 
G01 X75.1577 Y15.6545 
G01 X75.0887 Y15.6454 
G01 X75.0196 Y15.6545 
G01 X74.9523 Y15.6725 
G01 X74.8312 Y15.7260 
G01 X74.3888 Y15.7260 
G01 X73.9801 Y15.5567 
G01 X73.6673 Y15.2439 
G01 X73.4980 Y14.8352 
G01 X73.4980 Y12.8848 
G01 X73.6673 Y12.4761 
G01 X73.9801 Y12.1633 
G01 X74.3888 Y11.9940 
G01 X74.8312 Y11.9940 
G01 X75.2399 Y12.1633 
G01 X75.5527 Y12.4761 
G01 X75.7220 Y12.8848 
G01 X75.7220 Y14.3047 
G01 X75.7461 Y14.3945 
G01 X75.7926 Y14.4751 
G01 X75.8583 Y14.5408 
G01 X76.3829 Y15.0654 
G01 X76.4635 Y15.1119 
G01 X76.5533 Y15.1360 
G01 X83.9417 Y15.1360 
G01 X84.1665 Y15.2291 
G01 X84.2357 Y15.2897 
G01 X84.2960 Y15.3245 
G01 X84.3633 Y15.3425 
G01 X84.4324 Y15.3516 
G01 X84.5014 Y15.3425 
G01 X84.5687 Y15.3245 
G01 X84.8318 Y15.2122 
G01 X85.3482 Y15.2122 
G01 X85.8251 Y15.4098 
G01 X86.1902 Y15.7749 
G01 X86.3878 Y16.2518 
G01 X86.3878 Y16.5284 
G01 X86.4119 Y16.6182 
G01 X86.4584 Y16.6988 
G01 X86.5241 Y16.7645 
G01 X86.6047 Y16.8110 
G01 X86.6945 Y16.8351 
G01 X87.8074 Y16.8351 
G01 X87.8972 Y16.8110 
G01 X87.9778 Y16.7645 
G01 X88.0435 Y16.6988 
G01 X88.0900 Y16.6182 
G01 X88.1141 Y16.5284 
G01 X88.1141 Y16.4354 
G01 X88.0900 Y16.3456 
G01 X88.0435 Y16.2650 
G01 X87.9778 Y16.1993 
G01 X85.1611 Y13.3826 
G01 X85.0805 Y13.3361 
G01 X84.9907 Y13.3120 
G01 X81.1583 Y13.3120 
G01 X80.9333 Y13.2188 
G01 X80.7444 Y13.0299 
G01 X80.6786 Y12.9641 
G01 X79.0651 Y11.3506 
G01 X78.9845 Y11.3041 
G01 X78.8947 Y11.2800 
G01 X72.5223 Y11.2800 
G01 X72.2973 Y11.1868 
G01 X72.1084 Y10.9979 
G01 X72.0426 Y10.9321 
G01 X71.8717 Y10.7612 
G01 X71.8023 Y10.7003 
G01 X71.7420 Y10.6655 
G01 X71.6747 Y10.6475 
G01 X71.6056 Y10.6384 
G01 X71.5366 Y10.6475 
G01 X71.4693 Y10.6655 
G01 X71.3312 Y10.7260 
G01 X70.8888 Y10.7260 
G01 X70.4801 Y10.5567 
G01 X70.1673 Y10.2439 
G01 X69.9980 Y9.8352 
G01 X69.9980 Y7.8848 
G01 X70.1673 Y7.4761 
G01 X70.4801 Y7.1633 
G01 X70.8888 Y6.9940 
G01 X71.3312 Y6.9940 
G01 X71.7399 Y7.1633 
G01 X72.0527 Y7.4761 
G01 X72.2220 Y7.8848 
G01 X72.2220 Y9.2807 
G01 X72.2461 Y9.3705 
G01 X72.2926 Y9.4511 
G01 X72.3583 Y9.5168 
G01 X72.8269 Y9.9854 
G01 X72.9075 Y10.0319 
G01 X72.9973 Y10.0560 
G01 X79.3697 Y10.0560 
G01 X79.5947 Y10.1492 
G01 X79.6580 Y10.2125 
G01 X79.7183 Y10.2474 
G01 X79.7827 Y10.2740 
G01 X79.8517 Y10.2831 
G01 X79.9214 Y10.2831 
G01 X79.9887 Y10.2651 
G01 X80.0530 Y10.2384 
G01 X80.1083 Y10.1960 
G01 X80.1692 Y10.1265 
G01 X80.2040 Y10.0662 
G01 X80.2220 Y9.9990 
G01 X80.2311 Y9.9299 
G01 X80.2220 Y9.8609 
G01 X80.2040 Y9.7936 
G01 X80.0340 Y9.3911 
G01 X80.0340 Y8.6089 
G01 X80.3333 Y7.8863 
G01 X80.8863 Y7.3333 
G01 X81.6089 Y7.0340 
G01 X82.2555 Y7.0340 
G01 X82.3189 Y7.0340 
G01 X82.3767 Y7.0214 
G01 X82.4344 Y6.9951 
G01 X82.4893 Y6.9634 
G01 X82.5429 Y6.9098 
G01 X82.5870 Y6.8480 
G01 X82.6092 Y6.7885 
G01 X82.6256 Y6.7273 
G01 X82.6284 Y6.6683 
G01 X82.6180 Y6.6057 
G01 X82.6015 Y6.5445 
G01 X82.5745 Y6.4919 
G01 X78.4045 Y1.4360 
G01 X78.3562 Y1.3775 
G01 X78.3045 Y1.3407 
G01 X78.2496 Y1.3090 
G01 X78.1933 Y1.2910 
G01 X78.1302 Y1.2849 
G01 X77.7706 Y1.2849 
G01 X77.6808 Y1.3090 
G01 X77.6002 Y1.3555 
G01 X77.5345 Y1.4212 
G01 X77.4880 Y1.5018 
G01 X77.4639 Y1.5916 
G01 X77.4639 Y1.6846 
G01 X77.4880 Y1.7744 
G01 X77.5345 Y1.8550 
G01 X77.5951 Y1.9156 
G01 X77.6700 Y2.0965 
G01 X77.6700 Y5.5208 
G01 X77.5951 Y5.7016 
G01 X77.4566 Y5.8401 
G01 X77.2758 Y5.9150 
G01 X74.9276 Y5.9150 
G01 X74.7468 Y5.8401 
G01 X74.6302 Y5.7236 
G01 X74.5645 Y5.6578 
G01 X74.4839 Y5.6113 
G01 X74.4192 Y5.5939 
G01 X74.3011 Y5.5872 
G01 X74.2113 Y5.6113 
G01 X74.1307 Y5.6578 
G01 X73.9485 Y5.8401 
G01 X73.7676 Y5.9150 
G01 X73.5718 Y5.9150 
G01 X73.3909 Y5.8401 
G01 X73.2525 Y5.7016 
G01 X73.1776 Y5.5208 
G01 X73.1776 Y4.9975 
G01 X73.1776 Y4.9397 
G01 X73.1616 Y4.8713 
G01 X73.1360 Y4.8194 
G01 X73.1070 Y4.7693 
G01 X73.0590 Y4.7181 
G01 X72.9816 Y4.6665 
G01 X72.9268 Y4.6479 
G01 X72.8709 Y4.6330 
G01 X72.8007 Y4.6307 
G01 X72.7440 Y4.6421 
G01 X72.6881 Y4.6570 
G01 X72.6262 Y4.6902 
G01 X72.5563 Y4.7516 
G01 X71.9792 Y5.6172 
G01 X71.9358 Y5.6986 
G01 X71.8740 Y5.7750 
G01 X71.8213 Y5.8116 
G01 X71.7602 Y5.8525 
G01 X71.7098 Y5.8862 
G01 X71.6494 Y5.8983 
G01 X71.5773 Y5.9127 
G01 X71.5206 Y5.9241 
G01 X71.4691 Y5.9150 
G01 X71.4168 Y5.9139 
G01 X71.3634 Y5.8918 
G01 X71.2955 Y5.8636 
G01 X71.2417 Y5.8414 
G01 X71.1652 Y5.7796 
G01 X71.1287 Y5.7269 
G01 X71.0877 Y5.6658 
G01 X71.0540 Y5.6154 
G01 X71.0419 Y5.5550 
G01 X71.0275 Y5.4829 
G01 X71.0161 Y5.4262 
G01 X71.0252 Y5.3747 
G01 X71.0252 Y2.0965 
G01 X71.1001 Y1.9156 
G01 X71.1608 Y1.8550 
G01 X71.2073 Y1.7744 
G01 X71.2313 Y1.6846 
G01 X71.2313 Y1.5916 
G01 X71.2163 Y1.5355 
G01 X71.1608 Y1.4212 
G01 X71.0950 Y1.3555 
G01 X71.0145 Y1.3090 
G01 X70.9246 Y1.2849 
G01 X63.2614 Y1.2849 
G01 X63.1716 Y1.3090 
G01 X63.0911 Y1.3555 
G01 X63.0253 Y1.4212 
G01 X62.9788 Y1.5018 
G01 X62.9547 Y1.5916 
G01 X62.9547 Y1.6846 
G01 X62.9788 Y1.7744 
G01 X63.0253 Y1.8550 
G01 X63.0911 Y1.9207 
G01 X63.6483 Y2.4780 
G01 X63.7000 Y2.6028 
G01 X63.7000 Y2.7380 
G01 X63.6483 Y2.8628 
G01 X63.5956 Y2.9155 
G01 X63.5457 Y2.9740 
G01 X63.5111 Y3.0340 
G01 X63.4870 Y3.1238 
G01 X63.4870 Y3.2168 
G01 X63.5061 Y3.2880 
G01 X63.5446 Y3.3646 
G01 X63.5944 Y3.4240 
G01 X63.6483 Y3.4779 
G01 X63.7000 Y3.6027 
G01 X63.7000 Y3.7379 
G01 X63.6483 Y3.8627 
G01 X63.5527 Y3.9583 
G01 X63.4279 Y4.0100 
G01 X62.2928 Y4.0100 
G01 X62.1680 Y3.9583 
G01 X62.0915 Y3.8996 
G01 X62.0151 Y3.8673 
G01 X61.9633 Y3.8534 
G01 X61.8703 Y3.8534 
G01 X61.8190 Y3.8671 
G01 X61.7441 Y3.8984 
G01 X61.6656 Y3.9583 
G01 X61.5407 Y4.0100 
G01 X60.9056 Y4.0100 
G01 X60.7808 Y3.9583 
G01 X60.5476 Y3.7251 
G01 X60.4352 Y3.6127 
G01 X60.3835 Y3.4879 
G01 X60.3835 Y2.8528 
G01 X60.4352 Y2.7279 
G01 X60.6684 Y2.4948 
G01 X60.7808 Y2.3824 
G01 X60.9056 Y2.3307 
G01 X61.5407 Y2.3307 
G01 X61.6656 Y2.3824 
G01 X61.8848 Y2.6016 
G01 X61.9506 Y2.6674 
G01 X62.0311 Y2.7139 
G01 X62.1028 Y2.7331 
G01 X62.2139 Y2.7380 
G01 X62.3038 Y2.7139 
G01 X62.3843 Y2.6674 
G01 X62.4501 Y2.6016 
G01 X62.4966 Y2.5211 
G01 X62.5158 Y2.4494 
G01 X62.5206 Y2.1028 
G01 X62.5724 Y1.9780 
G01 X62.6296 Y1.9207 
G01 X62.6943 Y1.8560 
G01 X62.7419 Y1.7744 
G01 X62.7660 Y1.6846 
G01 X62.7660 Y1.5916 
G01 X62.7509 Y1.5355 
G01 X62.6954 Y1.4212 
G01 X62.6307 Y1.3565 
G01 X62.5491 Y1.3090 
G01 X62.4593 Y1.2849 
G01 X54.3714 Y1.2849 
G01 X54.2816 Y1.3090 
G01 X54.2011 Y1.3555 
G01 X54.1353 Y1.4212 
G01 X54.0888 Y1.5018 
G01 X54.0658 Y1.5878 
G01 X54.0647 Y1.6846 
G01 X54.0888 Y1.7744 
G01 X54.1353 Y1.8550 
G01 X54.7583 Y2.4780 
G01 X54.8100 Y2.6028 
G01 X54.8100 Y2.7380 
G01 X54.7583 Y2.8628 
G01 X54.7056 Y2.9155 
G01 X54.6557 Y2.9740 
G01 X54.6211 Y3.0340 
G01 X54.5970 Y3.1238 
G01 X54.5970 Y3.2168 
G01 X54.6161 Y3.2880 
G01 X54.6546 Y3.3646 
G01 X54.7044 Y3.4240 
G01 X54.7583 Y3.4779 
G01 X54.8100 Y3.6027 
G01 X54.8100 Y3.7379 
G01 X54.7583 Y3.8627 
G01 X54.6627 Y3.9583 
G01 X54.5379 Y4.0100 
G01 X53.4028 Y4.0100 
G01 X53.2440 Y3.9442 
G01 X53.1518 Y3.9321 
G01 X53.0596 Y3.9442 
G01 X53.0032 Y3.9675 
G01 X52.9007 Y4.0100 
G01 X52.2656 Y4.0100 
G01 X52.1408 Y3.9583 
G01 X52.0452 Y3.8627 
G01 X51.9935 Y3.7379 
G01 X51.9935 Y3.6027 
G01 X52.0452 Y3.4779 
G01 X52.1729 Y3.3502 
G01 X52.2194 Y3.2696 
G01 X52.2435 Y3.1798 
G01 X52.2435 Y2.6028 
G01 X52.2808 Y2.5126 
G01 X52.2930 Y2.4204 
G01 X52.2808 Y2.3282 
G01 X52.2435 Y2.2380 
G01 X52.2435 Y1.8529 
G01 X52.2676 Y1.7947 
G01 X52.2942 Y1.7303 
G01 X52.3033 Y1.6612 
G01 X52.3033 Y1.5916 
G01 X52.2853 Y1.5243 
G01 X52.2586 Y1.4600 
G01 X52.2162 Y1.4047 
G01 X52.1468 Y1.3438 
G01 X52.0865 Y1.3090 
G01 X52.0192 Y1.2909 
G01 X51.9501 Y1.2818 
G01 X45.7314 Y1.2849 
G01 X45.6416 Y1.3090 
G01 X45.5610 Y1.3555 
G01 X45.4953 Y1.4212 
G01 X45.4488 Y1.5018 
G01 X45.4247 Y1.5916 
G01 X45.4247 Y1.6846 
G01 X45.4488 Y1.7744 
G01 X45.4953 Y1.8550 
G01 X45.5610 Y1.9207 
G01 X45.6351 Y1.9948 
G01 X45.7009 Y2.0606 
G01 X45.8683 Y2.2280 
G01 X45.9200 Y2.3528 
G01 X45.9200 Y2.4880 
G01 X45.8683 Y2.6128 
G01 X45.7764 Y2.7047 
G01 X45.7231 Y2.7355 
G01 X45.6678 Y2.7779 
G01 X45.6254 Y2.8331 
G01 X45.5906 Y2.8935 
G01 X45.5725 Y2.9607 
G01 X45.5635 Y3.0298 
G01 X45.5725 Y3.0988 
G01 X45.5906 Y3.1661 
G01 X45.6254 Y3.2264 
G01 X45.6678 Y3.2817 
G01 X45.8683 Y3.4779 
G01 X45.9200 Y3.6027 
G01 X45.9200 Y3.7379 
G01 X45.8683 Y3.8627 
G01 X45.7727 Y3.9583 
G01 X45.6479 Y4.0100 
G01 X44.5128 Y4.0100 
G01 X44.3880 Y3.9583 
G01 X44.3115 Y3.8996 
G01 X44.2351 Y3.8673 
G01 X44.1833 Y3.8534 
G01 X44.0903 Y3.8534 
G01 X44.0390 Y3.8671 
G01 X43.9641 Y3.8984 
G01 X43.8856 Y3.9583 
G01 X43.7607 Y4.0100 
G01 X43.1256 Y4.0100 
G01 X43.0008 Y3.9583 
G01 X42.7676 Y3.7251 
G01 X42.6552 Y3.6127 
G01 X42.6035 Y3.4879 
G01 X42.6035 Y2.8528 
G01 X42.6552 Y2.7279 
G01 X42.8884 Y2.4948 
G01 X43.0008 Y2.3824 
G01 X43.1256 Y2.3307 
G01 X43.7607 Y2.3307 
G01 X43.8489 Y2.3672 
G01 X43.9385 Y2.3920 
G01 X44.0366 Y2.3919 
G01 X44.1244 Y2.3676 
G01 X44.2007 Y2.3234 
G01 X44.2650 Y2.2601 
G01 X44.5256 Y1.9948 
G01 X44.5996 Y1.9207 
G01 X44.6622 Y1.8582 
G01 X44.7119 Y1.7744 
G01 X44.7292 Y1.7097 
G01 X44.7360 Y1.5916 
G01 X44.7119 Y1.5018 
G01 X44.6654 Y1.4212 
G01 X44.5996 Y1.3555 
G01 X44.5191 Y1.3090 
G01 X44.4544 Y1.2916 
G01 X36.8414 Y1.2849 
G01 X36.7516 Y1.3090 
G01 X36.6710 Y1.3555 
G01 X36.6053 Y1.4212 
G01 X36.5588 Y1.5018 
G01 X36.5347 Y1.5916 
G01 X36.5347 Y1.6846 
G01 X36.5588 Y1.7744 
G01 X36.6053 Y1.8550 
G01 X36.6710 Y1.9207 
G01 X36.7451 Y1.9948 
G01 X36.8109 Y2.0606 
G01 X36.9783 Y2.2280 
G01 X37.0300 Y2.3528 
G01 X37.0300 Y2.4880 
G01 X36.9783 Y2.6128 
G01 X36.8864 Y2.7047 
G01 X36.8331 Y2.7355 
G01 X36.7778 Y2.7779 
G01 X36.7354 Y2.8331 
G01 X36.7006 Y2.8935 
G01 X36.6825 Y2.9607 
G01 X36.6735 Y3.0298 
G01 X36.6825 Y3.0988 
G01 X36.7006 Y3.1661 
G01 X36.7354 Y3.2264 
G01 X36.7778 Y3.2817 
G01 X36.9783 Y3.4779 
G01 X37.0300 Y3.6027 
G01 X37.0300 Y3.7379 
G01 X36.9783 Y3.8627 
G01 X36.8827 Y3.9583 
G01 X36.7579 Y4.0100 
G01 X35.6228 Y4.0100 
G01 X35.4640 Y3.9442 
G01 X35.3718 Y3.9321 
G01 X35.2796 Y3.9442 
G01 X35.2232 Y3.9675 
G01 X35.1207 Y4.0100 
G01 X34.4856 Y4.0100 
G01 X34.3608 Y3.9583 
G01 X34.2652 Y3.8627 
G01 X34.2135 Y3.7379 
G01 X34.2135 Y3.6027 
G01 X34.2652 Y3.4779 
G01 X34.3929 Y3.3502 
G01 X34.4394 Y3.2696 
G01 X34.4635 Y3.1798 
G01 X34.4635 Y2.6028 
G01 X34.5008 Y2.5126 
G01 X34.5130 Y2.4204 
G01 X34.5008 Y2.3282 
G01 X34.4652 Y2.2423 
G01 X34.4635 Y1.8529 
G01 X34.4876 Y1.7947 
G01 X34.5142 Y1.7303 
G01 X34.5233 Y1.6612 
G01 X34.5233 Y1.5916 
G01 X34.5053 Y1.5243 
G01 X34.4786 Y1.4600 
G01 X34.4362 Y1.4047 
G01 X34.3668 Y1.3438 
G01 X34.3065 Y1.3090 
G01 X34.2392 Y1.2909 
G01 X34.1701 Y1.2818 
G01 X27.9514 Y1.2849 
G01 X27.8616 Y1.3090 
G01 X27.7810 Y1.3555 
G01 X27.7153 Y1.4212 
G01 X27.6688 Y1.5018 
G01 X27.6447 Y1.5916 
G01 X27.6447 Y1.6846 
G01 X27.6688 Y1.7744 
G01 X27.7153 Y1.8550 
G01 X27.7810 Y1.9207 
G01 X27.8551 Y1.9948 
G01 X27.9209 Y2.0606 
G01 X28.0883 Y2.2280 
G01 X28.1400 Y2.3528 
G01 X28.1400 Y2.4880 
G01 X28.0883 Y2.6128 
G01 X28.0356 Y2.6655 
G01 X27.9857 Y2.7240 
G01 X27.9511 Y2.7840 
G01 X27.9270 Y2.8739 
G01 X27.9270 Y2.9669 
G01 X27.9461 Y3.0380 
G01 X27.9846 Y3.1146 
G01 X28.0344 Y3.1740 
G01 X28.0883 Y3.2279 
G01 X28.1400 Y3.3527 
G01 X28.1400 Y3.4879 
G01 X28.0883 Y3.6127 
G01 X27.7427 Y3.9583 
G01 X27.6179 Y4.0100 
G01 X26.9828 Y4.0100 
G01 X26.8579 Y3.9583 
G01 X26.7644 Y3.8647 
G01 X26.7024 Y3.8027 
G01 X26.6181 Y3.7525 
G01 X26.5534 Y3.7351 
G01 X26.4353 Y3.7284 
G01 X26.3454 Y3.7525 
G01 X26.2649 Y3.7990 
G01 X26.1991 Y3.8647 
G01 X26.1056 Y3.9583 
G01 X25.9807 Y4.0100 
G01 X25.3456 Y4.0100 
G01 X25.2208 Y3.9583 
G01 X24.9876 Y3.7251 
G01 X24.8752 Y3.6127 
G01 X24.8235 Y3.4879 
G01 X24.8235 Y2.8528 
G01 X24.8752 Y2.7279 
G01 X25.1084 Y2.4948 
G01 X25.2208 Y2.3824 
G01 X25.3456 Y2.3307 
G01 X25.9807 Y2.3307 
G01 X26.0689 Y2.3672 
G01 X26.1585 Y2.3920 
G01 X26.2566 Y2.3919 
G01 X26.3444 Y2.3676 
G01 X26.4207 Y2.3234 
G01 X26.4850 Y2.2601 
G01 X26.6798 Y2.0606 
G01 X26.7456 Y1.9948 
G01 X26.8196 Y1.9207 
G01 X26.8822 Y1.8582 
G01 X26.9319 Y1.7744 
G01 X26.9492 Y1.7097 
G01 X26.9560 Y1.5916 
G01 X26.9319 Y1.5018 
G01 X26.8854 Y1.4212 
G01 X26.8196 Y1.3555 
G01 X26.7391 Y1.3090 
G01 X26.6744 Y1.2916 
G01 X19.0614 Y1.2849 
G01 X18.9716 Y1.3090 
G01 X18.8910 Y1.3555 
G01 X18.8253 Y1.4212 
G01 X18.7788 Y1.5018 
G01 X18.7547 Y1.5916 
G01 X18.7547 Y1.6846 
G01 X18.7788 Y1.7744 
G01 X18.8253 Y1.8550 
G01 X18.8910 Y1.9207 
G01 X18.9651 Y1.9948 
G01 X19.0309 Y2.0606 
G01 X19.1983 Y2.2280 
G01 X19.2500 Y2.3528 
G01 X19.2500 Y2.4880 
G01 X19.1983 Y2.6128 
G01 X19.1456 Y2.6655 
G01 X19.0957 Y2.7240 
G01 X19.0611 Y2.7840 
G01 X19.0370 Y2.8739 
G01 X19.0370 Y2.9669 
G01 X19.0561 Y3.0380 
G01 X19.0946 Y3.1146 
G01 X19.1444 Y3.1740 
G01 X19.1983 Y3.2279 
G01 X19.2500 Y3.3527 
G01 X19.2500 Y3.4879 
G01 X19.1983 Y3.6127 
G01 X18.8527 Y3.9583 
G01 X18.7279 Y4.0100 
G01 X18.0928 Y4.0100 
G01 X17.9679 Y3.9583 
G01 X17.8915 Y3.8996 
G01 X17.8151 Y3.8673 
G01 X17.7633 Y3.8534 
G01 X17.6702 Y3.8534 
G01 X17.6190 Y3.8671 
G01 X17.5441 Y3.8984 
G01 X17.4656 Y3.9583 
G01 X17.3407 Y4.0100 
G01 X16.7056 Y4.0100 
G01 X16.5808 Y3.9583 
G01 X16.4852 Y3.8627 
G01 X16.4335 Y3.7379 
G01 X16.4335 Y3.6027 
G01 X16.4852 Y3.4779 
G01 X16.6129 Y3.3502 
G01 X16.6594 Y3.2696 
G01 X16.6835 Y3.1798 
G01 X16.6835 Y2.6028 
G01 X16.7208 Y2.5126 
G01 X16.7330 Y2.4204 
G01 X16.7208 Y2.3282 
G01 X16.6852 Y2.2423 
G01 X16.6835 Y1.8529 
G01 X16.7076 Y1.7947 
G01 X16.7342 Y1.7303 
G01 X16.7433 Y1.6612 
G01 X16.7433 Y1.5916 
G01 X16.7253 Y1.5243 
G01 X16.6986 Y1.4600 
G01 X16.6562 Y1.4047 
G01 X16.5868 Y1.3438 
G01 X16.5265 Y1.3090 
G01 X16.4592 Y1.2909 
G01 X16.3901 Y1.2818 
G01 X15.4153 Y1.2849 
G01 X15.3255 Y1.3090 
G01 X15.2450 Y1.3555 
G01 X15.1792 Y1.4212 
G01 X10.1365 Y6.4639 
G00 Z2.0000 
G00 X14.2873 Y7.4761 
G01 Z-0.2540 F150.00 
G01 X14.6001 Y7.1633 F150.00 
G01 X15.0088 Y6.9940 
G01 X15.4512 Y6.9940 
G01 X15.8599 Y7.1633 
G01 X16.1727 Y7.4761 
G01 X16.3420 Y7.8848 
G01 X16.3420 Y8.7333 
G01 X16.3661 Y8.8231 
G01 X16.4126 Y8.9037 
G01 X16.4783 Y8.9694 
G01 X16.5589 Y9.0159 
G01 X16.6487 Y9.0400 
G01 X20.4417 Y9.0400 
G01 X20.6667 Y9.1332 
G01 X23.0429 Y11.5094 
G01 X23.1235 Y11.5559 
G01 X23.2133 Y11.5800 
G01 X24.5387 Y11.5800 
G01 X24.6285 Y11.5559 
G01 X24.7091 Y11.5094 
G01 X24.7748 Y11.4437 
G01 X25.0139 Y11.2046 
G01 X25.0767 Y11.1418 
G01 X25.1261 Y11.0583 
G01 X25.1402 Y11.0058 
G01 X25.1502 Y10.9299 
G01 X25.1502 Y10.8755 
G01 X25.1341 Y10.8153 
G01 X25.1108 Y10.7591 
G01 X25.0796 Y10.7051 
G01 X25.0286 Y10.6541 
G01 X24.9734 Y10.6117 
G01 X24.9090 Y10.5851 
G01 X24.8417 Y10.5670 
G01 X24.7721 Y10.5670 
G01 X24.7030 Y10.5761 
G01 X24.6387 Y10.6028 
G01 X24.3412 Y10.7260 
G01 X23.8988 Y10.7260 
G01 X23.4901 Y10.5567 
G01 X23.1773 Y10.2439 
G01 X23.0080 Y9.8352 
G01 X23.0080 Y7.8848 
G01 X23.1773 Y7.4761 
G01 X23.4901 Y7.1633 
G01 X23.8988 Y6.9940 
G01 X24.3412 Y6.9940 
G01 X24.7499 Y7.1633 
G01 X25.0627 Y7.4761 
G01 X25.2320 Y7.8848 
G01 X25.2320 Y9.0267 
G01 X25.2561 Y9.1165 
G01 X25.3026 Y9.1971 
G01 X25.3683 Y9.2628 
G01 X25.5829 Y9.4774 
G01 X25.6635 Y9.5239 
G01 X25.7533 Y9.5480 
G01 X28.5697 Y9.5480 
G01 X28.7947 Y9.6412 
G01 X28.9836 Y9.8301 
G01 X29.0494 Y9.8959 
G01 X30.8099 Y11.6564 
G01 X30.9988 Y11.8453 
G01 X31.0920 Y12.0703 
G01 X31.0920 Y21.4577 
G01 X30.9988 Y21.6827 
G01 X30.8267 Y21.8548 
G01 X30.6017 Y21.9480 
G01 X28.3507 Y21.9480 
G01 X28.2609 Y21.9721 
G01 X28.1803 Y22.0186 
G01 X28.1146 Y22.0843 
G01 X28.0681 Y22.1649 
G01 X28.0440 Y22.2547 
G01 X28.0440 Y32.6337 
G01 X27.9508 Y32.8587 
G01 X27.6961 Y33.1134 
G01 X25.2387 Y35.5708 
G01 X25.0137 Y35.6640 
G01 X19.6903 Y35.6640 
G01 X19.4653 Y35.5708 
G01 X19.2454 Y35.3509 
G01 X17.3349 Y33.4404 
G01 X17.2654 Y33.3794 
G01 X17.2051 Y33.3446 
G01 X17.1378 Y33.3266 
G01 X17.0688 Y33.3175 
G01 X16.9997 Y33.3266 
G01 X16.9324 Y33.3446 
G01 X16.8599 Y33.3780 
G01 X16.2201 Y33.3780 
G01 X15.6291 Y33.1332 
G01 X15.1768 Y32.6809 
G01 X14.9320 Y32.0899 
G01 X14.9320 Y31.4501 
G01 X15.1768 Y30.8591 
G01 X15.6291 Y30.4068 
G01 X16.2201 Y30.1620 
G01 X16.8599 Y30.1620 
G01 X17.4509 Y30.4068 
G01 X17.9032 Y30.8591 
G01 X18.1480 Y31.4501 
G01 X18.1480 Y32.0898 
G01 X18.1205 Y32.1564 
G01 X18.0938 Y32.2207 
G01 X18.0847 Y32.2898 
G01 X18.0847 Y32.3594 
G01 X18.1027 Y32.4267 
G01 X18.1294 Y32.4910 
G01 X18.1718 Y32.5463 
G01 X19.9949 Y34.3694 
G01 X20.0755 Y34.4159 
G01 X20.1653 Y34.4400 
G01 X24.5387 Y34.4400 
G01 X24.6285 Y34.4159 
G01 X24.7091 Y34.3694 
G01 X24.7748 Y34.3037 
G01 X25.3341 Y33.7444 
G01 X25.3950 Y33.6749 
G01 X25.4299 Y33.6146 
G01 X25.4479 Y33.5473 
G01 X25.4570 Y33.4783 
G01 X25.4479 Y33.4092 
G01 X25.4299 Y33.3419 
G01 X25.3950 Y33.2816 
G01 X25.3526 Y33.2264 
G01 X25.2974 Y33.1840 
G01 X25.2371 Y33.1491 
G01 X25.1698 Y33.1311 
G01 X25.1007 Y33.1220 
G01 X25.0317 Y33.1311 
G01 X24.9644 Y33.1491 
G01 X24.4198 Y33.3780 
G01 X23.7801 Y33.3780 
G01 X23.1891 Y33.1332 
G01 X22.7368 Y32.6809 
G01 X22.4920 Y32.0899 
G01 X22.4920 Y31.4501 
G01 X22.5313 Y31.3554 
G01 X22.5579 Y31.2910 
G01 X22.5670 Y31.2220 
G01 X22.5670 Y31.1523 
G01 X22.5490 Y31.0850 
G01 X22.5223 Y31.0207 
G01 X22.4799 Y30.9654 
G01 X19.5109 Y27.9964 
G01 X19.4502 Y27.9357 
G01 X19.3893 Y27.8807 
G01 X19.3401 Y27.8217 
G01 X19.2850 Y27.7589 
G01 X19.2284 Y27.6852 
G01 X18.7660 Y27.1328 
G01 X18.7237 Y27.0820 
G01 X18.6532 Y27.0235 
G01 X18.5750 Y26.9746 
G01 X18.5205 Y26.9520 
G01 X18.4535 Y26.9408 
G01 X18.3946 Y26.9443 
G01 X18.3361 Y26.9520 
G01 X18.2725 Y26.9757 
G01 X18.1949 Y27.0270 
G01 X18.1332 Y27.0966 
G01 X18.1068 Y27.1494 
G01 X17.9032 Y27.6409 
G01 X17.4509 Y28.0932 
G01 X16.8599 Y28.3380 
G01 X16.2201 Y28.3380 
G01 X15.6291 Y28.0932 
G01 X15.1768 Y27.6409 
G01 X15.0221 Y27.2674 
G01 X14.9955 Y27.2031 
G01 X14.9531 Y27.1478 
G01 X14.8836 Y27.0869 
G01 X14.8233 Y27.0521 
G01 X14.7560 Y27.0340 
G01 X14.6869 Y27.0250 
G01 X13.0863 Y27.0280 
G01 X12.8613 Y26.9348 
G01 X12.6892 Y26.7627 
G01 X12.5960 Y26.5377 
G01 X12.5960 Y19.1823 
G01 X12.6892 Y18.9573 
G01 X12.9439 Y18.7026 
G01 X17.5474 Y14.0991 
G01 X17.5939 Y14.0185 
G01 X17.6180 Y13.9287 
G01 X17.6180 Y12.8848 
G01 X17.7873 Y12.4761 
G01 X18.1001 Y12.1633 
G01 X18.5088 Y11.9940 
G01 X18.9512 Y11.9940 
G01 X19.3599 Y12.1633 
G01 X19.6727 Y12.4761 
G01 X19.8420 Y12.8848 
G01 X19.8420 Y14.8352 
G01 X19.6727 Y15.2439 
G01 X19.3599 Y15.5567 
G01 X18.9512 Y15.7260 
G01 X18.5088 Y15.7260 
G01 X18.1420 Y15.5741 
G01 X18.0777 Y15.5474 
G01 X18.0086 Y15.5383 
G01 X17.9390 Y15.5383 
G01 X17.8717 Y15.5563 
G01 X17.8073 Y15.5830 
G01 X17.7521 Y15.6254 
G01 X13.8906 Y19.4869 
G01 X13.8441 Y19.5675 
G01 X13.8200 Y19.6573 
G01 X13.8200 Y25.4973 
G01 X13.8441 Y25.5871 
G01 X13.8906 Y25.6677 
G01 X13.9563 Y25.7334 
G01 X14.0369 Y25.7799 
G01 X14.1267 Y25.8040 
G01 X15.0921 Y25.8040 
G01 X15.1820 Y25.7799 
G01 X15.2625 Y25.7334 
G01 X15.3283 Y25.6677 
G01 X15.6291 Y25.3668 
G01 X16.2201 Y25.1220 
G01 X16.8599 Y25.1220 
G01 X17.4509 Y25.3668 
G01 X17.8684 Y25.7844 
G01 X17.9266 Y25.8425 
G01 X18.0071 Y25.8890 
G01 X18.0622 Y25.9038 
G01 X18.1182 Y25.9153 
G01 X18.1900 Y25.9131 
G01 X18.2451 Y25.8983 
G01 X18.2993 Y25.8803 
G01 X18.3603 Y25.8425 
G01 X18.4261 Y25.7768 
G01 X18.4726 Y25.6962 
G01 X18.4874 Y25.6411 
G01 X18.4988 Y25.5852 
G01 X18.4967 Y25.5134 
G01 X18.3438 Y23.0023 
G01 X18.3404 Y22.9453 
G01 X18.3198 Y22.8766 
G01 X18.2733 Y22.7960 
G01 X18.2075 Y22.7303 
G01 X18.1270 Y22.6838 
G01 X18.0719 Y22.6690 
G01 X18.0159 Y22.6576 
G01 X17.9441 Y22.6597 
G01 X17.8890 Y22.6745 
G01 X17.8348 Y22.6925 
G01 X17.7738 Y22.7303 
G01 X17.4509 Y23.0532 
G01 X16.8599 Y23.2980 
G01 X16.2201 Y23.2980 
G01 X15.6291 Y23.0532 
G01 X15.1768 Y22.6009 
G01 X14.9320 Y22.0099 
G01 X14.9320 Y21.3701 
G01 X15.1768 Y20.7791 
G01 X15.6291 Y20.3268 
G01 X16.2201 Y20.0820 
G01 X16.8599 Y20.0820 
G01 X17.4508 Y20.3268 
G01 X17.5050 Y20.3663 
G01 X17.6092 Y20.4085 
G01 X17.6867 Y20.4169 
G01 X17.7570 Y20.4107 
G01 X17.8236 Y20.3929 
G01 X17.9041 Y20.3464 
G01 X17.9699 Y20.2806 
G01 X18.1974 Y20.0531 
G01 X18.3175 Y19.9330 
G01 X18.3757 Y19.8748 
G01 X18.4189 Y19.8229 
G01 X18.4690 Y19.7815 
G01 X23.1761 Y15.0744 
G01 X23.2319 Y15.0186 
G01 X23.2932 Y14.9539 
G01 X23.3553 Y14.8980 
G01 X23.4046 Y14.8472 
G01 X23.4859 Y14.8109 
G01 X23.5647 Y14.7830 
G01 X23.6273 Y14.7550 
G01 X23.7188 Y14.7526 
G01 X23.8022 Y14.7570 
G01 X23.8707 Y14.7550 
G01 X23.9329 Y14.7638 
G01 X25.7047 Y14.8571 
G01 X25.7781 Y14.8609 
G01 X25.8425 Y14.8473 
G01 X25.9050 Y14.8266 
G01 X25.9664 Y14.7864 
G01 X26.0210 Y14.7372 
G01 X26.4116 Y14.2950 
G01 X26.4657 Y14.2203 
G01 X26.4911 Y14.1697 
G01 X26.5080 Y14.0988 
G01 X26.5080 Y14.0423 
G01 X26.5080 Y12.8848 
G01 X26.6773 Y12.4761 
G01 X26.7296 Y12.4238 
G01 X26.7922 Y12.3612 
G01 X26.8418 Y12.2775 
G01 X26.8592 Y12.2128 
G01 X26.8659 Y12.0947 
G01 X26.8418 Y12.0049 
G01 X26.7953 Y11.9243 
G01 X26.7296 Y11.8586 
G01 X26.6490 Y11.8121 
G01 X26.5843 Y11.7947 
G01 X26.2613 Y11.7880 
G01 X26.1715 Y11.8121 
G01 X26.0909 Y11.8586 
G01 X26.0252 Y11.9243 
G01 X25.2387 Y12.7108 
G01 X25.0137 Y12.8040 
G01 X22.7383 Y12.8040 
G01 X22.5133 Y12.7108 
G01 X22.2586 Y12.4561 
G01 X20.1371 Y10.3346 
G01 X20.0565 Y10.2881 
G01 X19.9667 Y10.2640 
G01 X16.2524 Y10.2640 
G01 X16.1626 Y10.2881 
G01 X16.0820 Y10.3346 
G01 X16.0163 Y10.4003 
G01 X15.8599 Y10.5567 
G01 X15.4512 Y10.7260 
G01 X15.0088 Y10.7260 
G01 X14.6001 Y10.5567 
G01 X14.2873 Y10.2439 
G01 X14.1180 Y9.8352 
G01 X14.1180 Y7.8848 
G01 X14.2873 Y7.4761 
G00 Z2.0000 
G00 X14.5278 Y7.5297 
G01 Z-0.2540 F150.00 
G01 X14.4289 Y7.6778 F150.00 
G01 X14.3607 Y7.8423 
G01 X14.3260 Y8.0170 
G01 X14.3260 Y9.7030 
G01 X14.3607 Y9.8777 
G01 X14.4289 Y10.0422 
G01 X14.5278 Y10.1903 
G01 X14.6537 Y10.3162 
G01 X14.8018 Y10.4151 
G01 X14.9663 Y10.4833 
G01 X15.1410 Y10.5180 
G01 X15.3190 Y10.5180 
G01 X15.4937 Y10.4833 
G01 X15.6582 Y10.4151 
G01 X15.8063 Y10.3162 
G01 X15.9322 Y10.1903 
G01 X16.0219 Y10.0560 
G01 X20.1527 Y10.0560 
G01 X22.5367 Y12.4401 
G01 X22.6119 Y12.5153 
G01 X22.7041 Y12.5685 
G01 X22.8068 Y12.5960 
G01 X24.9452 Y12.5960 
G01 X25.0479 Y12.5685 
G01 X25.1401 Y12.5153 
G01 X26.0753 Y11.5800 
G01 X27.7727 Y11.5800 
G01 X29.0600 Y12.8673 
G01 X29.0600 Y17.8840 
G01 X23.8228 Y17.8840 
G01 X23.7201 Y17.9115 
G01 X23.6279 Y17.9647 
G01 X21.2149 Y20.3777 
G01 X21.1397 Y20.4529 
G01 X21.0865 Y20.5451 
G01 X21.0590 Y20.6478 
G01 X21.0590 Y23.2136 
G01 X21.0590 Y23.2665 
G01 X21.0657 Y23.3191 
G01 X21.0794 Y23.3702 
G01 X21.1092 Y23.4431 
G01 X21.1579 Y23.5073 
G01 X22.9744 Y25.8974 
G01 X22.9026 Y25.9962 
G01 X22.8026 Y26.1926 
G01 X22.7345 Y26.4022 
G01 X22.7000 Y26.6198 
G01 X22.7000 Y26.8402 
G01 X22.7345 Y27.0578 
G01 X22.8026 Y27.2674 
G01 X22.9026 Y27.4638 
G01 X23.0321 Y27.6420 
G01 X23.1880 Y27.7979 
G01 X23.3662 Y27.9274 
G01 X23.5626 Y28.0274 
G01 X23.7722 Y28.0955 
G01 X23.9898 Y28.1300 
G01 X24.2102 Y28.1300 
G01 X24.4278 Y28.0955 
G01 X24.6374 Y28.0274 
G01 X24.8338 Y27.9274 
G01 X25.0120 Y27.7979 
G01 X25.1679 Y27.6420 
G01 X25.2974 Y27.4638 
G01 X25.3974 Y27.2674 
G01 X25.4655 Y27.0578 
G01 X25.5000 Y26.8402 
G01 X25.5000 Y26.6198 
G01 X25.4655 Y26.4022 
G01 X25.3974 Y26.1926 
G01 X25.2974 Y25.9962 
G01 X25.1679 Y25.8180 
G01 X25.0120 Y25.6621 
G01 X24.8338 Y25.5326 
G01 X24.6374 Y25.4326 
G01 X24.4278 Y25.3645 
G01 X24.2102 Y25.3300 
G01 X23.9898 Y25.3300 
G01 X23.7722 Y25.3645 
G01 X23.6215 Y25.4134 
G01 X21.8670 Y23.1049 
G01 X21.8670 Y20.8683 
G01 X24.0433 Y18.6920 
G01 X29.5172 Y18.6920 
G01 X29.6199 Y18.6645 
G01 X29.7121 Y18.6113 
G01 X29.7873 Y18.5361 
G01 X29.8405 Y18.4439 
G01 X29.8680 Y18.3412 
G01 X29.8680 Y12.6468 
G01 X29.8405 Y12.5441 
G01 X29.7873 Y12.4519 
G01 X29.7121 Y12.3767 
G01 X28.1881 Y10.8527 
G01 X28.0959 Y10.7995 
G01 X27.9932 Y10.7720 
G01 X25.8548 Y10.7720 
G01 X25.7521 Y10.7995 
G01 X25.6599 Y10.8527 
G01 X25.5847 Y10.9279 
G01 X24.7247 Y11.7880 
G01 X23.0273 Y11.7880 
G01 X20.5681 Y9.3287 
G01 X20.4759 Y9.2755 
G01 X20.3732 Y9.2480 
G01 X16.1340 Y9.2480 
G01 X16.1340 Y8.0170 
G01 X16.0993 Y7.8423 
G01 X16.0311 Y7.6778 
G01 X15.9322 Y7.5297 
G01 X15.8063 Y7.4038 
G01 X15.6582 Y7.3049 
G01 X15.4937 Y7.2367 
G01 X15.3190 Y7.2020 
G01 X15.1410 Y7.2020 
G01 X14.9663 Y7.2367 
G01 X14.8018 Y7.3049 
G01 X14.6537 Y7.4038 
G01 X14.5278 Y7.5297 
G00 Z2.0000 
G00 X16.5414 Y3.8482 
G01 Z-0.2540 F150.00 
G01 X16.5953 Y3.9021 F150.00 
G01 X16.6614 Y3.9403 
G01 X16.7350 Y3.9600 
G01 X17.3113 Y3.9600 
G01 X17.3850 Y3.9403 
G01 X17.4510 Y3.9021 
G01 X17.5050 Y3.8482 
G01 X17.5431 Y3.7821 
G01 X17.5628 Y3.7084 
G01 X17.5628 Y3.6322 
G01 X17.5431 Y3.5585 
G01 X17.5050 Y3.4924 
G01 X17.4510 Y3.4385 
G01 X17.3850 Y3.4003 
G01 X17.3129 Y3.3810 
G01 X17.3129 Y2.9597 
G01 X17.3850 Y2.9403 
G01 X17.4510 Y2.9022 
G01 X17.5050 Y2.8483 
G01 X17.5431 Y2.7822 
G01 X17.5628 Y2.7085 
G01 X17.5628 Y2.6322 
G01 X17.5431 Y2.5586 
G01 X17.5050 Y2.4925 
G01 X17.4510 Y2.4386 
G01 X17.3850 Y2.4004 
G01 X17.3113 Y2.3807 
G01 X17.2226 Y2.3807 
G01 X17.2931 Y2.2822 
G01 X17.3129 Y2.2086 
G01 X17.3129 Y1.8823 
G01 X17.2931 Y1.8086 
G01 X17.2550 Y1.7426 
G01 X17.2010 Y1.6886 
G01 X17.1350 Y1.6505 
G01 X17.0613 Y1.6307 
G01 X16.9850 Y1.6307 
G01 X16.9113 Y1.6505 
G01 X16.8453 Y1.6886 
G01 X16.7913 Y1.7426 
G01 X16.7532 Y1.8086 
G01 X16.7335 Y1.8823 
G01 X16.7335 Y2.2086 
G01 X16.7532 Y2.2822 
G01 X16.7913 Y2.3483 
G01 X16.8453 Y2.4022 
G01 X16.7913 Y2.4925 
G01 X16.7532 Y2.5586 
G01 X16.7335 Y2.6322 
G01 X16.7335 Y3.3810 
G01 X16.6614 Y3.4003 
G01 X16.5953 Y3.4385 
G01 X16.5414 Y3.4924 
G01 X16.5032 Y3.5585 
G01 X16.4835 Y3.6322 
G01 X16.4835 Y3.7084 
G01 X16.5032 Y3.7821 
G01 X16.5414 Y3.8482 
G00 Z2.0000 
G00 X17.6786 Y3.5982 
G01 Z-0.2540 F150.00 
G01 X17.9285 Y3.8482 F150.00 
G01 X17.9825 Y3.9021 
G01 X18.0485 Y3.9403 
G01 X18.1222 Y3.9600 
G01 X18.6985 Y3.9600 
G01 X18.7721 Y3.9403 
G01 X18.8382 Y3.9021 
G01 X19.1421 Y3.5982 
G01 X19.1803 Y3.5321 
G01 X19.2000 Y3.4585 
G01 X19.2000 Y3.3822 
G01 X19.1803 Y3.3085 
G01 X19.1421 Y3.2424 
G01 X19.0882 Y3.1885 
G01 X19.0221 Y3.1504 
G01 X18.9484 Y3.1306 
G01 X18.8722 Y3.1306 
G01 X18.7985 Y3.1504 
G01 X18.7324 Y3.1885 
G01 X18.5403 Y3.3806 
G01 X18.2804 Y3.3806 
G01 X18.2001 Y3.3003 
G01 X18.2804 Y3.2101 
G01 X18.4485 Y3.2101 
G01 X18.5222 Y3.1903 
G01 X18.5882 Y3.1522 
G01 X18.6422 Y3.0982 
G01 X18.6803 Y3.0322 
G01 X18.7000 Y2.9585 
G01 X18.7000 Y2.8822 
G01 X18.6803 Y2.8085 
G01 X18.6422 Y2.7425 
G01 X18.5882 Y2.6885 
G01 X18.5222 Y2.6504 
G01 X18.4485 Y2.6307 
G01 X18.2804 Y2.6307 
G01 X18.2001 Y2.5504 
G01 X18.2804 Y2.4601 
G01 X18.5403 Y2.4601 
G01 X18.7324 Y2.6522 
G01 X18.7985 Y2.6904 
G01 X18.8722 Y2.7101 
G01 X18.9484 Y2.7101 
G01 X19.0221 Y2.6904 
G01 X19.0882 Y2.6522 
G01 X19.1421 Y2.5983 
G01 X19.1803 Y2.5322 
G01 X19.2000 Y2.4585 
G01 X19.2000 Y2.3823 
G01 X19.1803 Y2.3086 
G01 X19.1421 Y2.2425 
G01 X18.8921 Y1.9925 
G01 X18.8382 Y1.9386 
G01 X18.7721 Y1.9005 
G01 X18.7016 Y1.8816 
G01 X18.1222 Y1.8807 
G01 X18.0485 Y1.9005 
G01 X17.9825 Y1.9386 
G01 X17.9285 Y1.9925 
G01 X17.6833 Y2.2378 
G01 X17.6404 Y2.3086 
G01 X17.6262 Y2.3617 
G01 X17.6207 Y2.7085 
G01 X17.6404 Y2.7822 
G01 X17.6786 Y2.8483 
G01 X17.7507 Y2.9204 
G01 X17.6833 Y2.9877 
G01 X17.6404 Y3.0585 
G01 X17.6262 Y3.1116 
G01 X17.6207 Y3.4585 
G01 X17.6404 Y3.5321 
G01 X17.6786 Y3.5982 
G00 Z2.0000 
G00 X24.9314 Y3.5982 
G01 Z-0.2540 F150.00 
G01 X24.9853 Y3.6521 F150.00 
G01 X25.2353 Y3.9021 
G01 X25.3014 Y3.9403 
G01 X25.3751 Y3.9600 
G01 X25.9513 Y3.9600 
G01 X26.0250 Y3.9403 
G01 X26.0910 Y3.9021 
G01 X26.3950 Y3.5982 
G01 X26.4331 Y3.5321 
G01 X26.4528 Y3.4585 
G01 X26.4528 Y3.3822 
G01 X26.4528 Y2.8822 
G01 X26.4331 Y2.8085 
G01 X26.3950 Y2.7425 
G01 X26.3410 Y2.6885 
G01 X26.0910 Y2.4386 
G01 X26.0250 Y2.4004 
G01 X25.9513 Y2.3807 
G01 X25.3751 Y2.3807 
G01 X25.3014 Y2.4004 
G01 X25.2353 Y2.4386 
G01 X25.1814 Y2.4925 
G01 X24.9314 Y2.7425 
G01 X24.8933 Y2.8085 
G01 X24.8735 Y2.8822 
G01 X24.8735 Y3.4585 
G01 X24.8933 Y3.5321 
G01 X24.9314 Y3.5982 
G00 Z2.0000 
G00 X25.5332 Y3.3806 
G01 Z-0.2540 F150.00 
G01 X25.4529 Y3.3003 F150.00 
G01 X25.4529 Y3.0404 
G01 X25.5332 Y2.9601 
G01 X25.7932 Y2.9601 
G01 X25.8734 Y3.0404 
G01 X25.8734 Y3.3003 
G01 X25.7932 Y3.3806 
G01 X25.5332 Y3.3806 
G00 Z2.0000 
G00 X26.5107 Y3.4585 
G01 Z-0.2540 F150.00 
G01 X26.5304 Y3.5321 F150.00 
G01 X26.5686 Y3.5982 
G01 X26.8185 Y3.8482 
G01 X26.8725 Y3.9021 
G01 X26.9385 Y3.9403 
G01 X27.0122 Y3.9600 
G01 X27.5885 Y3.9600 
G01 X27.6621 Y3.9403 
G01 X27.7282 Y3.9021 
G01 X28.0321 Y3.5982 
G01 X28.0703 Y3.5321 
G01 X28.0900 Y3.4585 
G01 X28.0900 Y3.3822 
G01 X28.0703 Y3.3085 
G01 X28.0321 Y3.2424 
G01 X27.9782 Y3.1885 
G01 X27.9121 Y3.1504 
G01 X27.8384 Y3.1306 
G01 X27.7622 Y3.1306 
G01 X27.6885 Y3.1504 
G01 X27.6224 Y3.1885 
G01 X27.4303 Y3.3806 
G01 X27.1704 Y3.3806 
G01 X27.0901 Y3.3003 
G01 X27.1704 Y3.2101 
G01 X27.3385 Y3.2101 
G01 X27.4122 Y3.1903 
G01 X27.4782 Y3.1522 
G01 X27.5322 Y3.0982 
G01 X27.5703 Y3.0322 
G01 X27.5900 Y2.9585 
G01 X27.5900 Y2.8822 
G01 X27.5703 Y2.8085 
G01 X27.5322 Y2.7425 
G01 X27.4782 Y2.6885 
G01 X27.4122 Y2.6504 
G01 X27.3385 Y2.6307 
G01 X27.1704 Y2.6307 
G01 X27.0901 Y2.5504 
G01 X27.1704 Y2.4601 
G01 X27.4303 Y2.4601 
G01 X27.6224 Y2.6522 
G01 X27.6885 Y2.6904 
G01 X27.7622 Y2.7101 
G01 X27.8384 Y2.7101 
G01 X27.9121 Y2.6904 
G01 X27.9782 Y2.6522 
G01 X28.0321 Y2.5983 
G01 X28.0703 Y2.5322 
G01 X28.0900 Y2.4585 
G01 X28.0900 Y2.3823 
G01 X28.0703 Y2.3086 
G01 X28.0321 Y2.2425 
G01 X27.7821 Y1.9925 
G01 X27.7282 Y1.9386 
G01 X27.6621 Y1.9005 
G01 X27.5916 Y1.8816 
G01 X27.0122 Y1.8807 
G01 X26.9385 Y1.9005 
G01 X26.8725 Y1.9386 
G01 X26.8185 Y1.9925 
G01 X26.5733 Y2.2378 
G01 X26.5304 Y2.3086 
G01 X26.5162 Y2.3617 
G01 X26.5107 Y2.7085 
G01 X26.5304 Y2.7822 
G01 X26.5686 Y2.8483 
G01 X26.6407 Y2.9204 
G01 X26.5686 Y2.9925 
G01 X26.5304 Y3.0585 
G01 X26.5107 Y3.1322 
G01 X26.5107 Y3.4585 
G00 Z2.0000 
G00 X24.8222 Y7.5297 
G01 Z-0.2540 F150.00 
G01 X24.6963 Y7.4038 F150.00 
G01 X24.5482 Y7.3049 
G01 X24.3837 Y7.2367 
G01 X24.2090 Y7.2020 
G01 X24.0310 Y7.2020 
G01 X23.8563 Y7.2367 
G01 X23.6918 Y7.3049 
G01 X23.5437 Y7.4038 
G01 X23.4178 Y7.5297 
G01 X23.3189 Y7.6778 
G01 X23.2507 Y7.8423 
G01 X23.2160 Y8.0170 
G01 X23.2160 Y9.7030 
G01 X23.2507 Y9.8777 
G01 X23.3189 Y10.0422 
G01 X23.4178 Y10.1903 
G01 X23.5437 Y10.3162 
G01 X23.6918 Y10.4151 
G01 X23.8563 Y10.4833 
G01 X24.0310 Y10.5180 
G01 X24.2090 Y10.5180 
G01 X24.3837 Y10.4833 
G01 X24.5482 Y10.4151 
G01 X24.6963 Y10.3162 
G01 X24.8222 Y10.1903 
G01 X25.0767 Y10.4081 
G01 X25.1519 Y10.4833 
G01 X25.2441 Y10.5365 
G01 X25.3468 Y10.5640 
G01 X28.2807 Y10.5640 
G01 X30.0760 Y12.3593 
G01 X30.0760 Y20.9320 
G01 X25.2798 Y20.9320 
G01 X25.1679 Y20.7780 
G01 X25.0120 Y20.6221 
G01 X24.8338 Y20.4926 
G01 X24.6374 Y20.3926 
G01 X24.4278 Y20.3245 
G01 X24.2102 Y20.2900 
G01 X23.9898 Y20.2900 
G01 X23.7722 Y20.3245 
G01 X23.5626 Y20.3926 
G01 X23.3662 Y20.4926 
G01 X23.1880 Y20.6221 
G01 X23.0321 Y20.7780 
G01 X22.9026 Y20.9562 
G01 X22.8026 Y21.1526 
G01 X22.7345 Y21.3622 
G01 X22.7000 Y21.5798 
G01 X22.7000 Y21.8002 
G01 X22.7345 Y22.0178 
G01 X22.8026 Y22.2274 
G01 X22.9026 Y22.4238 
G01 X23.0321 Y22.6020 
G01 X23.1880 Y22.7579 
G01 X23.3662 Y22.8874 
G01 X23.5626 Y22.9874 
G01 X23.7722 Y23.0555 
G01 X23.9898 Y23.0900 
G01 X24.2102 Y23.0900 
G01 X24.4278 Y23.0555 
G01 X24.6374 Y22.9874 
G01 X24.8338 Y22.8874 
G01 X25.0120 Y22.7579 
G01 X25.1679 Y22.6020 
G01 X25.2974 Y22.4238 
G01 X25.3974 Y22.2274 
G01 X25.4655 Y22.0178 
G01 X25.5000 Y21.8002 
G01 X25.5000 Y21.7400 
G01 X27.0280 Y21.7400 
G01 X27.0280 Y32.3447 
G01 X24.7247 Y34.6480 
G01 X19.9793 Y34.6480 
G01 X17.7704 Y32.4390 
G01 X17.8374 Y32.3074 
G01 X17.9055 Y32.0978 
G01 X17.9400 Y31.8802 
G01 X17.9400 Y31.6598 
G01 X17.9055 Y31.4422 
G01 X17.8374 Y31.2326 
G01 X17.7374 Y31.0362 
G01 X17.6079 Y30.8580 
G01 X17.4520 Y30.7021 
G01 X17.2738 Y30.5726 
G01 X17.0774 Y30.4726 
G01 X16.8678 Y30.4045 
G01 X16.6502 Y30.3700 
G01 X16.4298 Y30.3700 
G01 X16.2122 Y30.4045 
G01 X16.0026 Y30.4726 
G01 X15.8062 Y30.5726 
G01 X15.6280 Y30.7021 
G01 X15.4721 Y30.8580 
G01 X15.3426 Y31.0362 
G01 X15.2426 Y31.2326 
G01 X15.1745 Y31.4422 
G01 X15.1400 Y31.6598 
G01 X15.1400 Y31.8802 
G01 X15.1745 Y32.0978 
G01 X15.2426 Y32.3074 
G01 X15.3426 Y32.5038 
G01 X15.4721 Y32.6820 
G01 X15.6280 Y32.8379 
G01 X15.8062 Y32.9674 
G01 X16.0026 Y33.0674 
G01 X16.2122 Y33.1355 
G01 X16.4298 Y33.1700 
G01 X16.6502 Y33.1700 
G01 X16.8678 Y33.1355 
G01 X17.0774 Y33.0674 
G01 X17.1958 Y33.0071 
G01 X19.4887 Y35.3001 
G01 X19.5639 Y35.3753 
G01 X19.6561 Y35.4285 
G01 X19.7588 Y35.4560 
G01 X24.9452 Y35.4560 
G01 X25.0479 Y35.4285 
G01 X25.1401 Y35.3753 
G01 X27.6801 Y32.8353 
G01 X27.7553 Y32.7601 
G01 X27.8085 Y32.6679 
G01 X27.8360 Y32.5652 
G01 X27.8360 Y21.7400 
G01 X30.5332 Y21.7400 
G01 X30.6359 Y21.7125 
G01 X30.7281 Y21.6593 
G01 X30.8033 Y21.5841 
G01 X30.8565 Y21.4919 
G01 X30.8840 Y21.3892 
G01 X30.8840 Y12.1388 
G01 X30.8565 Y12.0361 
G01 X30.8033 Y11.9439 
G01 X30.7281 Y11.8687 
G01 X28.6961 Y9.8367 
G01 X28.6039 Y9.7835 
G01 X28.5012 Y9.7560 
G01 X25.5673 Y9.7560 
G01 X25.0240 Y9.2127 
G01 X25.0240 Y8.0170 
G01 X24.9893 Y7.8423 
G01 X24.9211 Y7.6778 
G01 X24.8222 Y7.5297 
G00 Z2.0000 
G00 X27.0437 Y12.4038 
G01 Z-0.2540 F150.00 
G01 X26.9178 Y12.5297 F150.00 
G01 X26.8189 Y12.6778 
G01 X26.7507 Y12.8423 
G01 X26.7160 Y13.0170 
G01 X26.7160 Y14.2663 
G01 X25.9896 Y15.0804 
G01 X23.8126 Y14.9658 
G01 X23.7596 Y14.9630 
G01 X23.7066 Y14.9630 
G01 X23.6547 Y14.9740 
G01 X23.6035 Y14.9877 
G01 X23.5183 Y15.0311 
G01 X23.4392 Y15.1023 
G01 X18.5393 Y20.0054 
G01 X18.4727 Y20.0719 
G01 X17.6747 Y20.8700 
G01 X17.6079 Y20.7780 
G01 X17.4520 Y20.6221 
G01 X17.2738 Y20.4926 
G01 X17.0774 Y20.3926 
G01 X16.8678 Y20.3245 
G01 X16.6502 Y20.2900 
G01 X16.4298 Y20.2900 
G01 X16.2122 Y20.3245 
G01 X16.0026 Y20.3926 
G01 X15.8062 Y20.4926 
G01 X15.6280 Y20.6221 
G01 X15.4721 Y20.7780 
G01 X15.3426 Y20.9562 
G01 X15.2426 Y21.1526 
G01 X15.1745 Y21.3622 
G01 X15.1400 Y21.5798 
G01 X15.1400 Y21.8002 
G01 X15.1745 Y22.0178 
G01 X15.2426 Y22.2274 
G01 X15.3426 Y22.4238 
G01 X15.4721 Y22.6020 
G01 X15.6280 Y22.7579 
G01 X15.8062 Y22.8874 
G01 X16.0026 Y22.9874 
G01 X16.2122 Y23.0555 
G01 X16.4298 Y23.0900 
G01 X16.6502 Y23.0900 
G01 X16.8678 Y23.0555 
G01 X17.0774 Y22.9874 
G01 X17.2738 Y22.8874 
G01 X17.4520 Y22.7579 
G01 X17.6079 Y22.6020 
G01 X17.7374 Y22.4238 
G01 X17.8374 Y22.2274 
G01 X17.9055 Y22.0178 
G01 X17.9400 Y21.8002 
G01 X17.9400 Y21.7101 
G01 X18.0281 Y21.6593 
G01 X18.1033 Y21.5841 
G01 X18.4465 Y21.2408 
G01 X18.7719 Y26.6638 
G01 X18.7751 Y26.7166 
G01 X18.7841 Y26.7688 
G01 X18.8008 Y26.8191 
G01 X18.8326 Y26.8878 
G01 X18.8861 Y26.9520 
G01 X19.4794 Y27.6640 
G01 X19.5357 Y27.7315 
G01 X22.8831 Y31.0745 
G01 X22.8026 Y31.2326 
G01 X22.7345 Y31.4422 
G01 X22.7000 Y31.6598 
G01 X22.7000 Y31.8802 
G01 X22.7345 Y32.0978 
G01 X22.8026 Y32.3074 
G01 X22.9026 Y32.5038 
G01 X23.0321 Y32.6820 
G01 X23.1880 Y32.8379 
G01 X23.3662 Y32.9674 
G01 X23.5626 Y33.0674 
G01 X23.7722 Y33.1355 
G01 X23.9898 Y33.1700 
G01 X24.2102 Y33.1700 
G01 X24.4278 Y33.1355 
G01 X24.6374 Y33.0674 
G01 X24.8338 Y32.9674 
G01 X25.0120 Y32.8379 
G01 X25.1679 Y32.6820 
G01 X25.2974 Y32.5038 
G01 X25.3974 Y32.3074 
G01 X25.4655 Y32.0978 
G01 X25.5000 Y31.8802 
G01 X25.5000 Y31.6598 
G01 X25.4655 Y31.4422 
G01 X25.3974 Y31.2326 
G01 X25.2974 Y31.0362 
G01 X25.1679 Y30.8580 
G01 X25.0120 Y30.7021 
G01 X24.8338 Y30.5726 
G01 X24.6374 Y30.4726 
G01 X24.4278 Y30.4045 
G01 X24.2102 Y30.3700 
G01 X23.9898 Y30.3700 
G01 X23.7722 Y30.4045 
G01 X23.5626 Y30.4726 
G01 X23.4707 Y30.5194 
G01 X20.1106 Y27.1593 
G01 X19.5723 Y26.5133 
G01 X19.2102 Y20.4772 
G01 X23.9074 Y15.7799 
G01 X26.1100 Y15.8958 
G01 X26.1629 Y15.8986 
G01 X26.2157 Y15.8956 
G01 X26.2675 Y15.8846 
G01 X26.3179 Y15.8680 
G01 X26.3927 Y15.8299 
G01 X26.4487 Y15.7795 
G01 X26.9477 Y15.2202 
G01 X27.0437 Y15.3162 
G01 X27.1918 Y15.4151 
G01 X27.3563 Y15.4833 
G01 X27.5310 Y15.5180 
G01 X27.7090 Y15.5180 
G01 X27.8837 Y15.4833 
G01 X28.0482 Y15.4151 
G01 X28.1963 Y15.3162 
G01 X28.3222 Y15.1903 
G01 X28.4211 Y15.0422 
G01 X28.4893 Y14.8777 
G01 X28.5240 Y14.7030 
G01 X28.5240 Y13.0170 
G01 X28.4893 Y12.8423 
G01 X28.4211 Y12.6778 
G01 X28.3222 Y12.5297 
G01 X28.1963 Y12.4038 
G01 X28.0482 Y12.3049 
G01 X27.8837 Y12.2367 
G01 X27.7090 Y12.2020 
G01 X27.5310 Y12.2020 
G01 X27.3563 Y12.2367 
G01 X27.1918 Y12.3049 
G01 X27.0437 Y12.4038 
G00 Z2.0000 
G00 X32.3801 Y10.5567 
G01 Z-0.2540 F150.00 
G01 X32.0673 Y10.2439 F150.00 
G01 X31.8980 Y9.8352 
G01 X31.8980 Y7.8848 
G01 X32.0673 Y7.4761 
G01 X32.3801 Y7.1633 
G01 X32.7888 Y6.9940 
G01 X33.2312 Y6.9940 
G01 X33.6399 Y7.1633 
G01 X33.9527 Y7.4761 
G01 X34.1220 Y7.8848 
G01 X34.1220 Y9.2807 
G01 X34.1461 Y9.3705 
G01 X34.1926 Y9.4511 
G01 X34.2583 Y9.5168 
G01 X35.2349 Y10.4934 
G01 X35.3155 Y10.5399 
G01 X35.4053 Y10.5640 
G01 X40.5381 Y10.5640 
G01 X40.6078 Y10.5640 
G01 X40.6750 Y10.5460 
G01 X40.7394 Y10.5193 
G01 X40.7947 Y10.4769 
G01 X40.8556 Y10.4074 
G01 X40.8904 Y10.3471 
G01 X40.9084 Y10.2799 
G01 X40.9175 Y10.2108 
G01 X40.9084 Y10.1417 
G01 X40.8904 Y10.0745 
G01 X40.7880 Y9.8352 
G01 X40.7880 Y7.8848 
G01 X40.9573 Y7.4761 
G01 X41.2701 Y7.1633 
G01 X41.6788 Y6.9940 
G01 X42.1212 Y6.9940 
G01 X42.5299 Y7.1633 
G01 X42.8427 Y7.4761 
G01 X43.0120 Y7.8848 
G01 X43.0120 Y9.0267 
G01 X43.0361 Y9.1165 
G01 X43.0826 Y9.1971 
G01 X43.1483 Y9.2628 
G01 X43.3629 Y9.4774 
G01 X43.4435 Y9.5239 
G01 X43.5333 Y9.5480 
G01 X46.3497 Y9.5480 
G01 X46.5747 Y9.6412 
G01 X49.0979 Y12.1644 
G01 X49.2868 Y12.3533 
G01 X49.3800 Y12.5783 
G01 X49.3800 Y34.1577 
G01 X49.2868 Y34.3827 
G01 X49.1147 Y34.5548 
G01 X48.8897 Y34.6480 
G01 X40.5183 Y34.6480 
G01 X40.2933 Y34.5548 
G01 X39.1045 Y33.3660 
G01 X39.0350 Y33.3051 
G01 X38.9747 Y33.2702 
G01 X38.9074 Y33.2522 
G01 X38.8384 Y33.2431 
G01 X38.7693 Y33.2522 
G01 X38.7020 Y33.2702 
G01 X38.4498 Y33.3780 
G01 X37.8101 Y33.3780 
G01 X37.2191 Y33.1332 
G01 X36.7668 Y32.6809 
G01 X36.5220 Y32.0899 
G01 X36.5220 Y31.4501 
G01 X36.7668 Y30.8591 
G01 X37.2191 Y30.4068 
G01 X37.8101 Y30.1620 
G01 X38.4499 Y30.1620 
G01 X39.0409 Y30.4068 
G01 X39.4932 Y30.8591 
G01 X39.7380 Y31.4501 
G01 X39.7380 Y32.1687 
G01 X39.7621 Y32.2585 
G01 X39.8086 Y32.3391 
G01 X39.8743 Y32.4048 
G01 X40.8229 Y33.3534 
G01 X40.9035 Y33.3999 
G01 X40.9933 Y33.4240 
G01 X44.2638 Y33.4240 
G01 X44.3536 Y33.3999 
G01 X44.4341 Y33.3534 
G01 X44.4999 Y33.2877 
G01 X44.5464 Y33.2071 
G01 X44.5704 Y33.1173 
G01 X44.5704 Y33.0243 
G01 X44.5464 Y32.9345 
G01 X44.4999 Y32.8539 
G01 X44.4341 Y32.7882 
G01 X44.3268 Y32.6809 
G01 X44.0820 Y32.0899 
G01 X44.0820 Y31.4272 
G01 X44.0826 Y31.3555 
G01 X44.0736 Y31.2866 
G01 X44.0470 Y31.2220 
G01 X44.0120 Y31.1615 
G01 X40.3101 Y27.4596 
G01 X40.1757 Y27.3252 
G01 X40.1062 Y27.2643 
G01 X40.0459 Y27.2294 
G01 X39.9786 Y27.2114 
G01 X39.9096 Y27.2023 
G01 X39.8405 Y27.2114 
G01 X39.7732 Y27.2294 
G01 X39.7129 Y27.2643 
G01 X39.6577 Y27.3067 
G01 X39.6153 Y27.3619 
G01 X39.5804 Y27.4222 
G01 X39.4932 Y27.6409 
G01 X39.0409 Y28.0932 
G01 X38.4499 Y28.3380 
G01 X37.8101 Y28.3380 
G01 X37.2191 Y28.0932 
G01 X36.7668 Y27.6409 
G01 X36.6121 Y27.2674 
G01 X36.5855 Y27.2031 
G01 X36.5431 Y27.1478 
G01 X36.4736 Y27.0869 
G01 X36.4133 Y27.0521 
G01 X36.3460 Y27.0340 
G01 X36.2769 Y27.0250 
G01 X35.9463 Y27.0280 
G01 X35.7213 Y26.9348 
G01 X35.5492 Y26.7627 
G01 X35.4560 Y26.5377 
G01 X35.4560 Y15.0686 
G01 X35.4560 Y14.9990 
G01 X35.4380 Y14.9317 
G01 X35.3980 Y14.8352 
G01 X35.3980 Y12.8848 
G01 X35.5673 Y12.4761 
G01 X35.6196 Y12.4238 
G01 X35.6822 Y12.3612 
G01 X35.7318 Y12.2775 
G01 X35.7492 Y12.2128 
G01 X35.7559 Y12.0947 
G01 X35.7318 Y12.0049 
G01 X35.6853 Y11.9243 
G01 X35.6196 Y11.8586 
G01 X35.5390 Y11.8121 
G01 X35.4743 Y11.7947 
G01 X34.9303 Y11.7880 
G01 X34.7053 Y11.6948 
G01 X34.5040 Y11.4935 
G01 X33.7717 Y10.7612 
G01 X33.7023 Y10.7003 
G01 X33.6420 Y10.6655 
G01 X33.5747 Y10.6475 
G01 X33.5056 Y10.6384 
G01 X33.4366 Y10.6475 
G01 X33.3693 Y10.6655 
G01 X33.2312 Y10.7260 
G01 X32.7888 Y10.7260 
G01 X32.3801 Y10.5567 
G00 Z2.0000 
G00 X32.4337 Y10.3162 
G01 Z-0.2540 F150.00 
G01 X32.5818 Y10.4151 F150.00 
G01 X32.7463 Y10.4833 
G01 X32.9210 Y10.5180 
G01 X33.0990 Y10.5180 
G01 X33.2737 Y10.4833 
G01 X33.4382 Y10.4151 
G01 X33.5863 Y10.3162 
G01 X34.7287 Y11.4241 
G01 X34.8039 Y11.4993 
G01 X34.8961 Y11.5525 
G01 X34.9988 Y11.5800 
G01 X45.5527 Y11.5800 
G01 X47.3480 Y13.3753 
G01 X47.3480 Y26.0120 
G01 X46.8954 Y26.0120 
G01 X46.7579 Y25.8180 
G01 X46.6020 Y25.6621 
G01 X46.4238 Y25.5326 
G01 X46.2274 Y25.4326 
G01 X46.0178 Y25.3645 
G01 X45.8002 Y25.3300 
G01 X45.5798 Y25.3300 
G01 X45.3622 Y25.3645 
G01 X45.1526 Y25.4326 
G01 X44.9562 Y25.5326 
G01 X44.7780 Y25.6621 
G01 X44.6221 Y25.8180 
G01 X44.4926 Y25.9962 
G01 X44.3926 Y26.1926 
G01 X44.3245 Y26.4022 
G01 X44.2900 Y26.6198 
G01 X44.2900 Y26.8402 
G01 X44.3245 Y27.0578 
G01 X44.3926 Y27.2674 
G01 X44.4926 Y27.4638 
G01 X44.6221 Y27.6420 
G01 X44.7780 Y27.7979 
G01 X44.9562 Y27.9274 
G01 X45.1526 Y28.0274 
G01 X45.3622 Y28.0955 
G01 X45.5798 Y28.1300 
G01 X45.8002 Y28.1300 
G01 X46.0178 Y28.0955 
G01 X46.2274 Y28.0274 
G01 X46.4238 Y27.9274 
G01 X46.6020 Y27.7979 
G01 X46.7579 Y27.6420 
G01 X46.8874 Y27.4638 
G01 X46.9874 Y27.2674 
G01 X47.0555 Y27.0578 
G01 X47.0900 Y26.8402 
G01 X47.8052 Y26.8200 
G01 X47.9079 Y26.7925 
G01 X48.0001 Y26.7393 
G01 X48.0753 Y26.6641 
G01 X48.1285 Y26.5719 
G01 X48.1560 Y26.4692 
G01 X48.1560 Y13.1548 
G01 X48.1285 Y13.0521 
G01 X48.0753 Y12.9599 
G01 X48.0001 Y12.8847 
G01 X45.9681 Y10.8527 
G01 X45.8759 Y10.7995 
G01 X45.7732 Y10.7720 
G01 X35.2193 Y10.7720 
G01 X33.9140 Y9.4667 
G01 X33.9140 Y8.0170 
G01 X33.8793 Y7.8423 
G01 X33.8111 Y7.6778 
G01 X33.7122 Y7.5297 
G01 X33.5863 Y7.4038 
G01 X33.4382 Y7.3049 
G01 X33.2737 Y7.2367 
G01 X33.0990 Y7.2020 
G01 X32.9210 Y7.2020 
G01 X32.7463 Y7.2367 
G01 X32.5818 Y7.3049 
G01 X32.4337 Y7.4038 
G01 X32.3078 Y7.5297 
G01 X32.2089 Y7.6778 
G01 X32.1407 Y7.8423 
G01 X32.1060 Y8.0170 
G01 X32.1060 Y9.7030 
G01 X32.1407 Y9.8777 
G01 X32.2089 Y10.0422 
G01 X32.3078 Y10.1903 
G01 X32.4337 Y10.3162 
G00 Z2.0000 
G00 X35.9337 Y12.4038 
G01 Z-0.2540 F150.00 
G01 X35.8078 Y12.5297 F150.00 
G01 X35.7089 Y12.6778 
G01 X35.6407 Y12.8423 
G01 X35.6060 Y13.0170 
G01 X35.6060 Y14.7030 
G01 X35.6407 Y14.8777 
G01 X35.6640 Y14.9338 
G01 X35.6640 Y26.4692 
G01 X35.6915 Y26.5719 
G01 X35.7447 Y26.6641 
G01 X35.8199 Y26.7393 
G01 X35.9121 Y26.7925 
G01 X36.0148 Y26.8200 
G01 X36.7300 Y26.8200 
G01 X36.7645 Y27.0578 
G01 X36.8326 Y27.2674 
G01 X36.9326 Y27.4638 
G01 X37.0621 Y27.6420 
G01 X37.2180 Y27.7979 
G01 X37.3962 Y27.9274 
G01 X37.5926 Y28.0274 
G01 X37.8022 Y28.0955 
G01 X38.0198 Y28.1300 
G01 X38.2402 Y28.1300 
G01 X38.4578 Y28.0955 
G01 X38.6674 Y28.0274 
G01 X38.8638 Y27.9274 
G01 X39.0420 Y27.7979 
G01 X39.1979 Y27.6420 
G01 X39.3274 Y27.4638 
G01 X39.4274 Y27.2674 
G01 X39.4955 Y27.0578 
G01 X39.5300 Y26.8402 
G01 X39.5300 Y26.6198 
G01 X39.4955 Y26.4022 
G01 X39.4274 Y26.1926 
G01 X39.3274 Y25.9962 
G01 X39.1979 Y25.8180 
G01 X39.0420 Y25.6621 
G01 X38.8638 Y25.5326 
G01 X38.6674 Y25.4326 
G01 X38.4578 Y25.3645 
G01 X38.2402 Y25.3300 
G01 X38.0198 Y25.3300 
G01 X37.8022 Y25.3645 
G01 X37.5926 Y25.4326 
G01 X37.3962 Y25.5326 
G01 X37.2180 Y25.6621 
G01 X37.0621 Y25.8180 
G01 X36.9326 Y25.9962 
G01 X36.4720 Y26.0120 
G01 X36.4720 Y15.5180 
G01 X36.5990 Y15.5180 
G01 X36.7737 Y15.4833 
G01 X36.9382 Y15.4151 
G01 X37.0863 Y15.3162 
G01 X37.2122 Y15.1903 
G01 X37.3111 Y15.0422 
G01 X37.3793 Y14.8777 
G01 X37.4140 Y14.7030 
G01 X37.4140 Y13.0170 
G01 X37.3793 Y12.8423 
G01 X37.3111 Y12.6778 
G01 X37.2122 Y12.5297 
G01 X37.0863 Y12.4038 
G01 X36.9382 Y12.3049 
G01 X36.7737 Y12.2367 
G01 X36.5990 Y12.2020 
G01 X36.4210 Y12.2020 
G01 X36.2463 Y12.2367 
G01 X36.0818 Y12.3049 
G01 X35.9337 Y12.4038 
G00 Z2.0000 
G00 X41.1978 Y10.1903 
G01 Z-0.2540 F150.00 
G01 X41.3237 Y10.3162 F150.00 
G01 X41.4718 Y10.4151 
G01 X41.6363 Y10.4833 
G01 X41.8110 Y10.5180 
G01 X41.9890 Y10.5180 
G01 X42.1637 Y10.4833 
G01 X42.3282 Y10.4151 
G01 X42.4763 Y10.3162 
G01 X42.6022 Y10.1903 
G01 X42.8567 Y10.4081 
G01 X42.9319 Y10.4833 
G01 X43.0241 Y10.5365 
G01 X43.1268 Y10.5640 
G01 X46.0607 Y10.5640 
G01 X48.3640 Y12.8673 
G01 X48.3640 Y28.5520 
G01 X44.8713 Y28.5520 
G01 X43.4281 Y27.1087 
G01 X43.3359 Y27.0555 
G01 X43.2332 Y27.0280 
G01 X43.0760 Y27.0280 
G01 X43.0760 Y24.5513 
G01 X44.8310 Y22.7964 
G01 X44.9562 Y22.8874 
G01 X45.1526 Y22.9874 
G01 X45.3622 Y23.0555 
G01 X45.5798 Y23.0900 
G01 X45.8002 Y23.0900 
G01 X46.0178 Y23.0555 
G01 X46.2274 Y22.9874 
G01 X46.4238 Y22.8874 
G01 X46.6020 Y22.7579 
G01 X46.7579 Y22.6020 
G01 X46.8874 Y22.4238 
G01 X46.9874 Y22.2274 
G01 X47.0555 Y22.0178 
G01 X47.0900 Y21.8002 
G01 X47.0900 Y21.5798 
G01 X47.0555 Y21.3622 
G01 X46.9874 Y21.1526 
G01 X46.8874 Y20.9562 
G01 X46.7579 Y20.7780 
G01 X46.6020 Y20.6221 
G01 X46.4238 Y20.4926 
G01 X46.2274 Y20.3926 
G01 X46.0178 Y20.3245 
G01 X45.8002 Y20.2900 
G01 X45.5798 Y20.2900 
G01 X45.3622 Y20.3245 
G01 X45.1526 Y20.3926 
G01 X44.9562 Y20.4926 
G01 X44.7780 Y20.6221 
G01 X44.6221 Y20.7780 
G01 X44.4926 Y20.9562 
G01 X44.3926 Y21.1526 
G01 X44.3245 Y21.3622 
G01 X44.2900 Y21.5798 
G01 X44.2900 Y21.8002 
G01 X44.3245 Y22.0178 
G01 X44.3594 Y22.1253 
G01 X42.4239 Y24.0607 
G01 X42.3487 Y24.1359 
G01 X42.2955 Y24.2281 
G01 X42.2680 Y24.3308 
G01 X42.2680 Y27.4852 
G01 X42.2955 Y27.5879 
G01 X42.3487 Y27.6801 
G01 X42.4239 Y27.7553 
G01 X42.5161 Y27.8085 
G01 X42.6188 Y27.8360 
G01 X43.0127 Y27.8360 
G01 X44.3807 Y29.2041 
G01 X44.4559 Y29.2793 
G01 X44.5481 Y29.3325 
G01 X44.6508 Y29.3600 
G01 X48.3640 Y29.3600 
G01 X48.3640 Y33.6320 
G01 X40.8073 Y33.6320 
G01 X39.4410 Y32.2657 
G01 X39.4955 Y32.0978 
G01 X39.5300 Y31.8802 
G01 X39.5300 Y31.6598 
G01 X39.4955 Y31.4422 
G01 X39.4274 Y31.2326 
G01 X39.3274 Y31.0362 
G01 X39.1979 Y30.8580 
G01 X39.0420 Y30.7021 
G01 X38.8638 Y30.5726 
G01 X38.6674 Y30.4726 
G01 X38.4578 Y30.4045 
G01 X38.2402 Y30.3700 
G01 X38.0198 Y30.3700 
G01 X37.8022 Y30.4045 
G01 X37.5926 Y30.4726 
G01 X37.3962 Y30.5726 
G01 X37.2180 Y30.7021 
G01 X37.0621 Y30.8580 
G01 X36.9326 Y31.0362 
G01 X36.8326 Y31.2326 
G01 X36.7645 Y31.4422 
G01 X36.7300 Y31.6598 
G01 X36.7300 Y31.8802 
G01 X36.7645 Y32.0978 
G01 X36.8326 Y32.3074 
G01 X36.9326 Y32.5038 
G01 X37.0621 Y32.6820 
G01 X37.2180 Y32.8379 
G01 X37.3962 Y32.9674 
G01 X37.5926 Y33.0674 
G01 X37.8022 Y33.1355 
G01 X38.0198 Y33.1700 
G01 X38.2402 Y33.1700 
G01 X38.4578 Y33.1355 
G01 X38.6674 Y33.0674 
G01 X38.8638 Y32.9674 
G01 X38.9427 Y32.9100 
G01 X40.3919 Y34.3593 
G01 X40.4841 Y34.4125 
G01 X40.5868 Y34.4400 
G01 X48.8212 Y34.4400 
G01 X48.9239 Y34.4125 
G01 X49.0161 Y34.3593 
G01 X49.0913 Y34.2841 
G01 X49.1445 Y34.1919 
G01 X49.1720 Y34.0892 
G01 X49.1720 Y12.6468 
G01 X49.1445 Y12.5441 
G01 X49.0913 Y12.4519 
G01 X49.0161 Y12.3767 
G01 X46.4761 Y9.8367 
G01 X46.3839 Y9.7835 
G01 X46.2812 Y9.7560 
G01 X43.3473 Y9.7560 
G01 X42.8040 Y9.2127 
G01 X42.8040 Y8.0170 
G01 X42.7693 Y7.8423 
G01 X42.7011 Y7.6778 
G01 X42.6022 Y7.5297 
G01 X42.4763 Y7.4038 
G01 X42.3282 Y7.3049 
G01 X42.1637 Y7.2367 
G01 X41.9890 Y7.2020 
G01 X41.8110 Y7.2020 
G01 X41.6363 Y7.2367 
G01 X41.4718 Y7.3049 
G01 X41.3237 Y7.4038 
G01 X41.1978 Y7.5297 
G01 X41.0989 Y7.6778 
G01 X41.0307 Y7.8423 
G01 X40.9960 Y8.0170 
G01 X40.9960 Y9.7030 
G01 X41.0307 Y9.8777 
G01 X41.0989 Y10.0422 
G01 X41.1978 Y10.1903 
G00 Z2.0000 
G00 X44.8237 Y12.4038 
G01 Z-0.2540 F150.00 
G01 X44.6978 Y12.5297 F150.00 
G01 X44.5989 Y12.6778 
G01 X44.5307 Y12.8423 
G01 X44.4960 Y13.0170 
G01 X44.4960 Y14.3687 
G01 X38.5200 Y20.3447 
G01 X38.4578 Y20.3245 
G01 X38.2402 Y20.2900 
G01 X38.0198 Y20.2900 
G01 X37.8022 Y20.3245 
G01 X37.5926 Y20.3926 
G01 X37.3962 Y20.4926 
G01 X37.2180 Y20.6221 
G01 X37.0621 Y20.7780 
G01 X36.9326 Y20.9562 
G01 X36.8326 Y21.1526 
G01 X36.7645 Y21.3622 
G01 X36.7300 Y21.5798 
G01 X36.7300 Y21.8002 
G01 X36.7645 Y22.0178 
G01 X36.8326 Y22.2274 
G01 X36.9326 Y22.4238 
G01 X37.0621 Y22.6020 
G01 X37.2180 Y22.7579 
G01 X37.3962 Y22.8874 
G01 X37.5926 Y22.9874 
G01 X37.8022 Y23.0555 
G01 X38.0198 Y23.0900 
G01 X38.2402 Y23.0900 
G01 X38.4578 Y23.0555 
G01 X38.6674 Y22.9874 
G01 X38.8638 Y22.8874 
G01 X39.0420 Y22.7579 
G01 X39.1979 Y22.6020 
G01 X39.3274 Y22.4238 
G01 X39.4169 Y22.2480 
G01 X40.2360 Y22.2480 
G01 X40.2360 Y26.9772 
G01 X40.2635 Y27.0799 
G01 X40.3167 Y27.1721 
G01 X40.3919 Y27.2473 
G01 X44.3888 Y31.2442 
G01 X44.3245 Y31.4422 
G01 X44.2900 Y31.6598 
G01 X44.2900 Y31.8802 
G01 X44.3245 Y32.0978 
G01 X44.3926 Y32.3074 
G01 X44.4926 Y32.5038 
G01 X44.6221 Y32.6820 
G01 X44.7780 Y32.8379 
G01 X44.9562 Y32.9674 
G01 X45.1526 Y33.0674 
G01 X45.3622 Y33.1355 
G01 X45.5798 Y33.1700 
G01 X45.8002 Y33.1700 
G01 X46.0178 Y33.1355 
G01 X46.2274 Y33.0674 
G01 X46.4238 Y32.9674 
G01 X46.6020 Y32.8379 
G01 X46.7579 Y32.6820 
G01 X46.8874 Y32.5038 
G01 X46.9874 Y32.3074 
G01 X47.0555 Y32.0978 
G01 X47.0900 Y31.8802 
G01 X47.0900 Y31.6598 
G01 X47.0555 Y31.4422 
G01 X46.9874 Y31.2326 
G01 X46.8874 Y31.0362 
G01 X46.7579 Y30.8580 
G01 X46.6020 Y30.7021 
G01 X46.4238 Y30.5726 
G01 X46.2274 Y30.4726 
G01 X46.0178 Y30.4045 
G01 X45.8002 Y30.3700 
G01 X45.5798 Y30.3700 
G01 X45.3622 Y30.4045 
G01 X45.1526 Y30.4726 
G01 X44.9562 Y30.5726 
G01 X44.9005 Y30.6131 
G01 X41.0440 Y26.7567 
G01 X41.0440 Y21.7908 
G01 X41.0165 Y21.6881 
G01 X40.9633 Y21.5959 
G01 X40.8881 Y21.5207 
G01 X40.7959 Y21.4675 
G01 X40.6932 Y21.4400 
G01 X39.5079 Y21.4400 
G01 X39.4955 Y21.3622 
G01 X39.4274 Y21.1526 
G01 X39.3274 Y20.9562 
G01 X39.2111 Y20.7962 
G01 X44.7574 Y15.2499 
G01 X44.8237 Y15.3162 
G01 X44.9718 Y15.4151 
G01 X45.1363 Y15.4833 
G01 X45.3110 Y15.5180 
G01 X45.4890 Y15.5180 
G01 X45.6637 Y15.4833 
G01 X45.8282 Y15.4151 
G01 X45.9763 Y15.3162 
G01 X46.1022 Y15.1903 
G01 X46.2011 Y15.0422 
G01 X46.2693 Y14.8777 
G01 X46.3040 Y14.7030 
G01 X46.3040 Y13.0170 
G01 X46.2693 Y12.8423 
G01 X46.2011 Y12.6778 
G01 X46.1022 Y12.5297 
G01 X45.9763 Y12.4038 
