(.../pcb-gcode-3.6.2.4/pcb-gcode.ulp)
(Copyright 2005 - 2012 by John Johnson)
(See readme.txt for licensing terms.)
(This file generated from the board:)
(.../2016-05-23 - RX luster spodnji stuk/pisarnaInGarderoba-v2.brd)
(Current profile is .../pcb-gcode-3.6.2.4/profiles/generic.pp  )
(This file generated 31.5.2016 14:03:28)
(Settings from pcb-machine.h)
(spindle on time = 3.0000)
(spindle speed = 14000.0000)
(tool change at 0.0000 0.0000 5.0000 )
(feed rate xy = F0.00  )
(feed rate z  = F150.00 )
(Z Axis Settings)
(  High     Up        Down     Drill)
(3.0000 	2.0000 	-0.1700 	-2.0000 )
(Settings from pcb-defaults.h)
(isolate min = 0.0800)
(isolate max = 0.3500)
(isolate step = 0.1000)
(Generated bottom outlines, bottom drill, )
(Unit of measure: mm)
( Tool|       Size       |  Min Sub |  Max Sub |   Count )
( T01  0.800mm 0.0315in 0.0000in 0.0000in )
( T02  0.813mm 0.0320in 0.0000in 0.0000in )
( T03  1.000mm 0.0394in 0.0000in 0.0000in )
( T04  1.016mm 0.0400in 0.0000in 0.0000in )
( T05  1.118mm 0.0440in 0.0000in 0.0000in )
( T06  1.300mm 0.0512in 0.0000in 0.0000in )
( T07  2.200mm 0.0866in 0.0000in 0.0000in )
(Metric Mode)
G21
(Absolute Coordinates)
G90
S14000
G00 Z3.0000 
G00 X0.0000 Y0.0000 
M03
G04 P3.000000
M05
G00 Z3.0000 
M06 T01  ; 0.8000 
G01 Z0.0000 F150.00 
M06 
G00 Z2.0000 
M03
G04 P3.000000
G00 X6.3500 Y60.9600 
G01 Z-2.0000 F150.00 
G00 Z2.0000 
G00 X6.3500 Y63.5000 
G01 Z-2.0000 F150.00 
G00 Z2.0000 
G00 X6.3500 Y66.0400 
G01 Z-2.0000 F150.00 
G00 Z2.0000 
G00 X6.3500 Y68.5800 
G01 Z-2.0000 F150.00 
G00 Z2.0000 
G00 X74.5750 Y45.9900 
G01 Z-2.0000 F150.00 
G00 Z2.0000 
G00 X84.5750 Y45.9900 
G01 Z-2.0000 F150.00 
G00 Z2.0000 
G00 X85.0750 Y19.9900 
G01 Z-2.0000 F150.00 
G00 Z2.0000 
G00 X90.0750 Y19.9900 
G01 Z-2.0000 F150.00 
G00 Z2.0000 
M05
G00 Z3.0000 
G00 X0.0000 Y0.0000 
M06 T02  ; 0.8128 
G01 Z0.0000 F150.00 
M06 
G00 Z2.0000 
M03
G04 P3.000000
G00 X16.5100 Y62.2300 
G01 Z-2.0000 F150.00 
G00 Z2.0000 
G00 X19.0500 Y62.2300 
G01 Z-2.0000 F150.00 
G00 Z2.0000 
G00 X19.0500 Y69.8500 
G01 Z-2.0000 F150.00 
G00 Z2.0000 
G00 X16.5100 Y69.8500 
G01 Z-2.0000 F150.00 
G00 Z2.0000 
G00 X16.5100 Y74.9300 
G01 Z-2.0000 F150.00 
G00 Z2.0000 
G00 X19.0500 Y74.9300 
G01 Z-2.0000 F150.00 
G00 Z2.0000 
G00 X25.4000 Y76.2000 
G01 Z-2.0000 F150.00 
G00 Z2.0000 
G00 X25.4000 Y80.0100 
G01 Z-2.0000 F150.00 
G00 Z2.0000 
G00 X29.2100 Y80.0100 
G01 Z-2.0000 F150.00 
G00 Z2.0000 
G00 X29.2100 Y76.2000 
G01 Z-2.0000 F150.00 
G00 Z2.0000 
G00 X33.0200 Y76.2000 
G01 Z-2.0000 F150.00 
G00 Z2.0000 
G00 X36.8300 Y76.2000 
G01 Z-2.0000 F150.00 
G00 Z2.0000 
G00 X36.8300 Y80.0100 
G01 Z-2.0000 F150.00 
G00 Z2.0000 
G00 X33.0200 Y80.0100 
G01 Z-2.0000 F150.00 
G00 Z2.0000 
G00 X33.0200 Y87.6300 
G01 Z-2.0000 F150.00 
G00 Z2.0000 
G00 X36.8300 Y87.6300 
G01 Z-2.0000 F150.00 
G00 Z2.0000 
G00 X41.9100 Y85.0900 
G01 Z-2.0000 F150.00 
G00 Z2.0000 
G00 X41.9100 Y82.5500 
G01 Z-2.0000 F150.00 
G00 Z2.0000 
G00 X41.9100 Y80.0100 
G01 Z-2.0000 F150.00 
G00 Z2.0000 
G00 X41.9100 Y77.4700 
G01 Z-2.0000 F150.00 
G00 Z2.0000 
G00 X41.9100 Y74.9300 
G01 Z-2.0000 F150.00 
G00 Z2.0000 
G00 X41.9100 Y72.3900 
G01 Z-2.0000 F150.00 
G00 Z2.0000 
G00 X41.9100 Y69.8500 
G01 Z-2.0000 F150.00 
G00 Z2.0000 
G00 X36.8300 Y68.5800 
G01 Z-2.0000 F150.00 
G00 Z2.0000 
G00 X33.0200 Y68.5800 
G01 Z-2.0000 F150.00 
G00 Z2.0000 
G00 X29.2100 Y68.5800 
G01 Z-2.0000 F150.00 
G00 Z2.0000 
G00 X25.4000 Y68.5800 
G01 Z-2.0000 F150.00 
G00 Z2.0000 
G00 X33.0200 Y64.7700 
G01 Z-2.0000 F150.00 
G00 Z2.0000 
G00 X35.5600 Y64.7700 
G01 Z-2.0000 F150.00 
G00 Z2.0000 
G00 X35.5600 Y57.1500 
G01 Z-2.0000 F150.00 
G00 Z2.0000 
G00 X33.0200 Y57.1500 
G01 Z-2.0000 F150.00 
G00 Z2.0000 
G00 X52.0700 Y62.2300 
G01 Z-2.0000 F150.00 
G00 Z2.0000 
G00 X52.0700 Y64.7700 
G01 Z-2.0000 F150.00 
G00 Z2.0000 
G00 X49.5300 Y69.8500 
G01 Z-2.0000 F150.00 
G00 Z2.0000 
G00 X49.5300 Y72.3900 
G01 Z-2.0000 F150.00 
G00 Z2.0000 
G00 X49.5300 Y74.9300 
G01 Z-2.0000 F150.00 
G00 Z2.0000 
G00 X49.5300 Y77.4700 
G01 Z-2.0000 F150.00 
G00 Z2.0000 
G00 X49.5300 Y80.0100 
G01 Z-2.0000 F150.00 
G00 Z2.0000 
G00 X49.5300 Y82.5500 
G01 Z-2.0000 F150.00 
G00 Z2.0000 
G00 X49.5300 Y85.0900 
G01 Z-2.0000 F150.00 
G00 Z2.0000 
G00 X55.8800 Y86.3600 
G01 Z-2.0000 F150.00 
G00 Z2.0000 
G00 X59.6900 Y86.3600 
G01 Z-2.0000 F150.00 
G00 Z2.0000 
G00 X63.5000 Y86.3600 
G01 Z-2.0000 F150.00 
G00 Z2.0000 
G00 X67.3100 Y86.3600 
G01 Z-2.0000 F150.00 
G00 Z2.0000 
G00 X67.3100 Y78.7400 
G01 Z-2.0000 F150.00 
G00 Z2.0000 
G00 X63.5000 Y78.7400 
G01 Z-2.0000 F150.00 
G00 Z2.0000 
G00 X59.6900 Y78.7400 
G01 Z-2.0000 F150.00 
G00 Z2.0000 
G00 X55.8800 Y78.7400 
G01 Z-2.0000 F150.00 
G00 Z2.0000 
G00 X58.4200 Y73.6600 
G01 Z-2.0000 F150.00 
G00 Z2.0000 
G00 X58.4200 Y71.1200 
G01 Z-2.0000 F150.00 
G00 Z2.0000 
G00 X59.6900 Y64.7700 
G01 Z-2.0000 F150.00 
G00 Z2.0000 
G00 X59.6900 Y62.2300 
G01 Z-2.0000 F150.00 
G00 Z2.0000 
G00 X66.0400 Y71.1200 
G01 Z-2.0000 F150.00 
G00 Z2.0000 
G00 X66.0400 Y73.6600 
G01 Z-2.0000 F150.00 
G00 Z2.0000 
G00 X73.6600 Y72.3900 
G01 Z-2.0000 F150.00 
G00 Z2.0000 
G00 X76.2000 Y72.3900 
G01 Z-2.0000 F150.00 
G00 Z2.0000 
G00 X76.2000 Y80.0100 
G01 Z-2.0000 F150.00 
G00 Z2.0000 
G00 X73.6600 Y80.0100 
G01 Z-2.0000 F150.00 
G00 Z2.0000 
G00 X83.8200 Y66.0400 
G01 Z-2.0000 F150.00 
G00 Z2.0000 
G00 X86.3600 Y66.0400 
G01 Z-2.0000 F150.00 
G00 Z2.0000 
G00 X86.3600 Y58.4200 
G01 Z-2.0000 F150.00 
G00 Z2.0000 
G00 X83.8200 Y58.4200 
G01 Z-2.0000 F150.00 
G00 Z2.0000 
G00 X29.2100 Y87.6300 
G01 Z-2.0000 F150.00 
G00 Z2.0000 
G00 X25.4000 Y87.6300 
G01 Z-2.0000 F150.00 
G00 Z2.0000 
G00 X19.0500 Y82.5500 
G01 Z-2.0000 F150.00 
G00 Z2.0000 
G00 X16.5100 Y82.5500 
G01 Z-2.0000 F150.00 
G00 Z2.0000 
M05
G00 Z3.0000 
G00 X0.0000 Y0.0000 
M06 T03  ; 1.0000 
G01 Z0.0000 F150.00 
M06 
G00 Z2.0000 
M03
G04 P3.000000
G00 X15.2300 Y8.8600 
G01 Z-2.0000 F150.00 
G00 Z2.0000 
G00 X18.7300 Y13.8600 
G01 Z-2.0000 F150.00 
G00 Z2.0000 
G00 X24.1200 Y8.8600 
G01 Z-2.0000 F150.00 
G00 Z2.0000 
G00 X27.6200 Y13.8600 
G01 Z-2.0000 F150.00 
G00 Z2.0000 
G00 X33.0100 Y8.8600 
G01 Z-2.0000 F150.00 
G00 Z2.0000 
G00 X36.5100 Y13.8600 
G01 Z-2.0000 F150.00 
G00 Z2.0000 
G00 X41.9000 Y8.8600 
G01 Z-2.0000 F150.00 
G00 Z2.0000 
G00 X45.4000 Y13.8600 
G01 Z-2.0000 F150.00 
G00 Z2.0000 
G00 X50.7900 Y8.8600 
G01 Z-2.0000 F150.00 
G00 Z2.0000 
G00 X54.2900 Y13.8600 
G01 Z-2.0000 F150.00 
G00 Z2.0000 
G00 X59.6800 Y8.8600 
G01 Z-2.0000 F150.00 
G00 Z2.0000 
G00 X63.1800 Y13.8600 
G01 Z-2.0000 F150.00 
G00 Z2.0000 
G00 X71.1100 Y8.8600 
G01 Z-2.0000 F150.00 
G00 Z2.0000 
G00 X74.6100 Y13.8600 
G01 Z-2.0000 F150.00 
G00 Z2.0000 
M05
G00 Z3.0000 
G00 X0.0000 Y0.0000 
M06 T04  ; 1.0160 
G01 Z0.0000 F150.00 
M06 
G00 Z2.0000 
M03
G04 P3.000000
G00 X74.2950 Y49.5300 
G01 Z-2.0000 F150.00 
G00 Z2.0000 
G00 X77.4700 Y58.4200 
G01 Z-2.0000 F150.00 
G00 Z2.0000 
G00 X77.4700 Y60.9600 
G01 Z-2.0000 F150.00 
G00 Z2.0000 
G00 X77.4700 Y63.5000 
G01 Z-2.0000 F150.00 
G00 Z2.0000 
G00 X84.4550 Y49.5300 
G01 Z-2.0000 F150.00 
G00 Z2.0000 
G00 X85.0900 Y16.5100 
G01 Z-2.0000 F150.00 
G00 Z2.0000 
G00 X90.1700 Y16.5100 
G01 Z-2.0000 F150.00 
G00 Z2.0000 
M05
G00 Z3.0000 
G00 X0.0000 Y0.0000 
M06 T05  ; 1.1176 
G01 Z0.0000 F150.00 
M06 
G00 Z2.0000 
M03
G04 P3.000000
G00 X13.9700 Y55.8800 
G01 Z-2.0000 F150.00 
G00 Z2.0000 
G00 X20.3200 Y52.0700 
G01 Z-2.0000 F150.00 
G00 Z2.0000 
G00 X24.1300 Y55.8800 
G01 Z-2.0000 F150.00 
G00 Z2.0000 
G00 X30.4800 Y52.0700 
G01 Z-2.0000 F150.00 
G00 Z2.0000 
G00 X34.2900 Y52.0700 
G01 Z-2.0000 F150.00 
G00 Z2.0000 
G00 X44.4500 Y52.0700 
G01 Z-2.0000 F150.00 
G00 Z2.0000 
G00 X44.4500 Y55.8800 
G01 Z-2.0000 F150.00 
G00 Z2.0000 
G00 X54.6100 Y55.8800 
G01 Z-2.0000 F150.00 
G00 Z2.0000 
G00 X57.1500 Y52.0700 
G01 Z-2.0000 F150.00 
G00 Z2.0000 
G00 X62.2300 Y55.8800 
G01 Z-2.0000 F150.00 
G00 Z2.0000 
G00 X67.3100 Y52.0700 
G01 Z-2.0000 F150.00 
G00 Z2.0000 
G00 X72.3900 Y55.8800 
G01 Z-2.0000 F150.00 
G00 Z2.0000 
M05
G00 Z3.0000 
G00 X0.0000 Y0.0000 
M06 T06  ; 1.3000 
G01 Z0.0000 F150.00 
M06 
G00 Z2.0000 
M03
G04 P3.000000
G00 X16.5400 Y21.6900 
G01 Z-2.0000 F150.00 
G00 Z2.0000 
G00 X16.5400 Y26.7300 
G01 Z-2.0000 F150.00 
G00 Z2.0000 
G00 X16.5400 Y31.7700 
G01 Z-2.0000 F150.00 
G00 Z2.0000 
G00 X24.1000 Y31.7700 
G01 Z-2.0000 F150.00 
G00 Z2.0000 
G00 X24.1000 Y26.7300 
G01 Z-2.0000 F150.00 
G00 Z2.0000 
G00 X24.1000 Y21.6900 
G01 Z-2.0000 F150.00 
G00 Z2.0000 
G00 X38.1300 Y21.6900 
G01 Z-2.0000 F150.00 
G00 Z2.0000 
G00 X38.1300 Y26.7300 
G01 Z-2.0000 F150.00 
G00 Z2.0000 
G00 X38.1300 Y31.7700 
G01 Z-2.0000 F150.00 
G00 Z2.0000 
G00 X45.6900 Y31.7700 
G01 Z-2.0000 F150.00 
G00 Z2.0000 
G00 X45.6900 Y26.7300 
G01 Z-2.0000 F150.00 
G00 Z2.0000 
G00 X45.6900 Y21.6900 
G01 Z-2.0000 F150.00 
G00 Z2.0000 
G00 X59.7200 Y21.6900 
G01 Z-2.0000 F150.00 
G00 Z2.0000 
G00 X59.7200 Y26.7300 
G01 Z-2.0000 F150.00 
G00 Z2.0000 
G00 X59.7200 Y31.7700 
G01 Z-2.0000 F150.00 
G00 Z2.0000 
G00 X67.2800 Y31.7700 
G01 Z-2.0000 F150.00 
G00 Z2.0000 
G00 X67.2800 Y26.7300 
G01 Z-2.0000 F150.00 
G00 Z2.0000 
G00 X67.2800 Y21.6900 
G01 Z-2.0000 F150.00 
G00 Z2.0000 
G00 X67.2800 Y46.8900 
G01 Z-2.0000 F150.00 
G00 Z2.0000 
G00 X63.5000 Y46.8900 
G01 Z-2.0000 F150.00 
G00 Z2.0000 
G00 X59.7200 Y46.8900 
G01 Z-2.0000 F150.00 
G00 Z2.0000 
G00 X45.6900 Y46.8900 
G01 Z-2.0000 F150.00 
G00 Z2.0000 
G00 X41.9100 Y46.8900 
G01 Z-2.0000 F150.00 
G00 Z2.0000 
G00 X38.1300 Y46.8900 
G01 Z-2.0000 F150.00 
G00 Z2.0000 
G00 X24.1000 Y46.8900 
G01 Z-2.0000 F150.00 
G00 Z2.0000 
G00 X20.3200 Y46.8900 
G01 Z-2.0000 F150.00 
G00 Z2.0000 
G00 X16.5400 Y46.8900 
G01 Z-2.0000 F150.00 
G00 Z2.0000 
M05
G00 Z3.0000 
G00 X0.0000 Y0.0000 
M06 T07  ; 2.2000 
G01 Z0.0000 F150.00 
M06 
G00 Z2.0000 
M03
G04 P3.000000
G00 X10.0000 Y9.0000 
G01 Z-2.0000 F150.00 
G00 Z2.0000 
G00 X10.0000 Y81.0000 
G01 Z-2.0000 F150.00 
G00 Z2.0000 
G00 X82.0000 Y81.0000 
G01 Z-2.0000 F150.00 
G00 Z2.0000 
G00 X82.0000 Y9.0000 
G01 Z-2.0000 F150.00 
G00 Z2.0000 
T01 
G00 Z3.0000 
M05
M02
