(.../pcb-gcode-3.6.2.4/pcb-gcode.ulp)
(Copyright 2005 - 2012 by John Johnson)
(See readme.txt for licensing terms.)
(This file generated from the board:)
(.../2016-05-23 - RX luster spodnji stuk/pisarnaInGarderoba-v2.brd)
(Current profile is .../pcb-gcode-3.6.2.4/profiles/generic.pp  )
(This file generated 31.5.2016 14:03:13)
(Settings from pcb-machine.h)
(spindle on time = 3.0000)
(  Tool Size)
(0.1800 )
(spindle speed = 14000.0000)
(tool change at 0.0000 0.0000 5.0000 )
(feed rate xy = F200.00 )
(feed rate z  = F150.00 )
(Z Axis Settings)
(  High     Up        Down     Drill)
(3.0000 	2.0000 	-0.1700 	-2.0000 )
(Settings from pcb-defaults.h)
(isolate min = 0.0800)
(isolate max = 0.3500)
(isolate step = 0.1000)
(Generated bottom outlines, bottom drill, )
(Unit of measure: mm)
(Metric Mode)
G21
(Absolute Coordinates)
G90
S14000
G00 Z3.0000 
G00 X0.0000 Y0.0000 
M03
G04 P3.000000
G00 Z2.0000 
G00 X10.1205 Y6.4516 
G01 Z-0.1700 F150.00 
G01 X10.0714 Y6.5367 F200.00 
G01 X10.0459 Y6.6317 
G01 X10.0459 Y6.7299 
G01 X10.0714 Y6.8248 
G01 X10.1205 Y6.9099 
G01 X10.1900 Y6.9794 
G01 X10.2751 Y7.0286 
G01 X10.3700 Y7.0540 
G01 X11.1023 Y7.3503 
G01 X11.6497 Y7.8977 
G01 X11.9460 Y8.6129 
G01 X11.9460 Y9.3871 
G01 X11.6497 Y10.1023 
G01 X11.1023 Y10.6497 
G01 X10.3871 Y10.9460 
G01 X9.6129 Y10.9460 
G01 X8.8977 Y10.6497 
G01 X8.3503 Y10.1023 
G01 X8.0540 Y9.3871 
G01 X8.0286 Y9.2751 
G01 X7.9794 Y9.1900 
G01 X7.9099 Y9.1205 
G01 X7.8248 Y9.0714 
G01 X7.7299 Y9.0459 
G01 X7.6317 Y9.0459 
G01 X7.5367 Y9.0714 
G01 X7.4516 Y9.1205 
G01 X7.3822 Y9.1900 
G01 X2.3490 Y14.2232 
G01 X2.2795 Y14.2927 
G01 X2.2303 Y14.3778 
G01 X2.2049 Y14.4727 
G01 X2.2049 Y75.9052 
G01 X2.2049 Y75.9958 
G01 X2.2196 Y76.0505 
G01 X2.2365 Y76.1047 
G01 X2.2795 Y76.1758 
G01 X2.3489 Y76.2453 
G01 X7.4223 Y80.9184 
G01 X7.5008 Y80.9761 
G01 X7.5511 Y81.0024 
G01 X7.6317 Y81.0223 
G01 X7.6884 Y81.0223 
G01 X7.7451 Y81.0199 
G01 X7.8248 Y80.9968 
G01 X7.9099 Y80.9477 
G01 X7.9794 Y80.8782 
G01 X8.0286 Y80.7931 
G01 X8.0432 Y80.7383 
G01 X8.0557 Y80.6829 
G01 X8.0540 Y80.6129 
G01 X8.3503 Y79.8977 
G01 X8.8977 Y79.3503 
G01 X9.6129 Y79.0540 
G01 X10.3871 Y79.0540 
G01 X11.1023 Y79.3503 
G01 X11.6497 Y79.8977 
G01 X11.9460 Y80.6129 
G01 X11.9460 Y81.3871 
G01 X11.6497 Y82.1023 
G01 X11.1023 Y82.6497 
G01 X10.4147 Y82.9346 
G01 X10.3538 Y82.9598 
G01 X10.3008 Y82.9967 
G01 X10.2342 Y83.0690 
G01 X10.2036 Y83.1274 
G01 X10.1784 Y83.1884 
G01 X10.1671 Y83.2519 
G01 X10.1698 Y83.3178 
G01 X10.1784 Y83.3832 
G01 X10.2004 Y83.4439 
G01 X10.2356 Y83.4996 
G01 X10.2758 Y83.5520 
G01 X17.7124 Y90.4012 
G01 X17.7908 Y90.4589 
G01 X17.8411 Y90.4852 
G01 X17.9217 Y90.5051 
G01 X17.9784 Y90.5051 
G01 X73.1494 Y90.5051 
G01 X73.2121 Y90.5051 
G01 X73.2814 Y90.4892 
G01 X73.3379 Y90.4619 
G01 X73.3922 Y90.4305 
G01 X81.4404 Y83.4703 
G01 X81.5073 Y83.3994 
G01 X81.5536 Y83.3136 
G01 X81.5733 Y83.2569 
G01 X81.5810 Y83.1808 
G01 X81.5732 Y83.1213 
G01 X81.5619 Y83.0624 
G01 X81.5306 Y82.9926 
G01 X81.4708 Y82.9146 
G01 X81.3928 Y82.8548 
G01 X81.3374 Y82.8319 
G01 X80.8977 Y82.6497 
G01 X80.3503 Y82.1023 
G01 X80.0540 Y81.3871 
G01 X80.0540 Y80.6129 
G01 X80.3503 Y79.8977 
G01 X80.8977 Y79.3503 
G01 X81.6129 Y79.0540 
G01 X82.3871 Y79.0540 
G01 X83.1023 Y79.3503 
G01 X83.6497 Y79.8977 
G01 X83.9446 Y80.6094 
G01 X83.9779 Y80.6900 
G01 X84.0378 Y80.7680 
G01 X84.1157 Y80.8278 
G01 X84.1711 Y80.8508 
G01 X84.2278 Y80.8705 
G01 X84.3039 Y80.8782 
G01 X84.3634 Y80.8704 
G01 X84.4224 Y80.8591 
G01 X84.4921 Y80.8278 
G01 X84.5701 Y80.7680 
G01 X91.2892 Y74.9571 
G01 X91.3531 Y74.9019 
G01 X91.3883 Y74.8500 
G01 X91.4197 Y74.7957 
G01 X91.4406 Y74.7277 
G01 X91.4451 Y74.6652 
G01 X91.4451 Y49.0490 
G01 X91.4197 Y48.9540 
G01 X91.3705 Y48.8689 
G01 X91.3010 Y48.7995 
G01 X91.2160 Y48.7503 
G01 X91.1210 Y48.7249 
G01 X85.8228 Y48.7249 
G01 X85.7344 Y48.7249 
G01 X85.6775 Y48.7401 
G01 X85.6215 Y48.7583 
G01 X85.5544 Y48.7995 
G01 X85.4849 Y48.8689 
G01 X85.4555 Y48.9199 
G01 X85.4287 Y48.9725 
G01 X85.3015 Y48.8070 
G01 X85.1780 Y48.6835 
G01 X85.0367 Y48.5808 
G01 X84.8810 Y48.5015 
G01 X84.7149 Y48.4475 
G01 X84.5423 Y48.4202 
G01 X84.3677 Y48.4202 
G01 X84.1951 Y48.4475 
G01 X84.0290 Y48.5015 
G01 X83.8733 Y48.5808 
G01 X83.7320 Y48.6835 
G01 X83.6085 Y48.8070 
G01 X83.5058 Y48.9483 
G01 X83.4545 Y48.9199 
G01 X83.4251 Y48.8689 
G01 X83.3709 Y48.8119 
G01 X83.2885 Y48.7583 
G01 X83.2325 Y48.7401 
G01 X83.1756 Y48.7249 
G01 X83.0969 Y48.7228 
G01 X75.9276 Y48.7249 
G01 X75.8540 Y48.7249 
G01 X75.7829 Y48.7439 
G01 X75.7149 Y48.7721 
G01 X75.6565 Y48.8169 
G01 X75.6045 Y48.8689 
G01 X75.5677 Y48.9327 
G01 X75.5395 Y49.0007 
G01 X75.5299 Y49.0736 
G01 X75.5299 Y49.1472 
G01 X75.5490 Y49.2183 
G01 X75.5728 Y49.2758 
G01 X75.5728 Y49.7842 
G01 X75.3783 Y50.2538 
G01 X75.0188 Y50.6133 
G01 X74.5492 Y50.8078 
G01 X74.0869 Y50.8078 
G01 X73.9919 Y50.8332 
G01 X73.9068 Y50.8824 
G01 X73.8374 Y50.9518 
G01 X72.6556 Y52.1336 
G01 X72.4713 Y52.3179 
G01 X72.2538 Y52.4080 
G01 X68.7169 Y52.4080 
G01 X68.6433 Y52.4080 
G01 X68.5722 Y52.4270 
G01 X68.5042 Y52.4552 
G01 X68.4459 Y52.5000 
G01 X68.3938 Y52.5520 
G01 X68.3570 Y52.6158 
G01 X68.3071 Y52.7363 
G01 X67.9763 Y53.0671 
G01 X67.5440 Y53.2462 
G01 X67.0760 Y53.2462 
G01 X66.6437 Y53.0671 
G01 X66.3403 Y52.7637 
G01 X66.2885 Y52.7119 
G01 X66.2244 Y52.6749 
G01 X66.1560 Y52.6467 
G01 X66.0834 Y52.6373 
G01 X66.0102 Y52.6373 
G01 X65.9388 Y52.6565 
G01 X65.8705 Y52.6849 
G01 X65.8125 Y52.7296 
G01 X65.7607 Y52.7814 
G01 X65.7237 Y52.8455 
G01 X65.6956 Y52.9139 
G01 X65.6861 Y52.9865 
G01 X65.6861 Y53.0597 
G01 X65.7053 Y53.1311 
G01 X66.0754 Y54.0194 
G01 X66.1039 Y54.0877 
G01 X66.1485 Y54.1457 
G01 X66.2003 Y54.1974 
G01 X66.2644 Y54.2344 
G01 X66.3328 Y54.2626 
G01 X66.4054 Y54.2720 
G01 X71.7458 Y54.2720 
G01 X71.9633 Y54.3621 
G01 X72.2304 Y54.6292 
G01 X72.3155 Y54.6784 
G01 X72.3895 Y54.6982 
G01 X72.6240 Y54.7038 
G01 X73.0563 Y54.8829 
G01 X73.3868 Y55.2134 
G01 X73.4719 Y55.2626 
G01 X73.5668 Y55.2880 
G01 X88.5098 Y55.2880 
G01 X88.7273 Y55.3781 
G01 X88.8939 Y55.5446 
G01 X88.9840 Y55.7622 
G01 X88.9840 Y67.9358 
G01 X88.8939 Y68.1533 
G01 X88.6401 Y68.4071 
G01 X86.6953 Y70.3519 
G01 X86.4778 Y70.4420 
G01 X78.8367 Y70.4420 
G01 X78.7417 Y70.4674 
G01 X78.6566 Y70.5166 
G01 X77.2730 Y71.9002 
G01 X77.2238 Y71.9853 
G01 X77.1987 Y72.0792 
G01 X77.1984 Y73.2490 
G01 X77.0464 Y73.6159 
G01 X76.7656 Y73.8968 
G01 X76.3986 Y74.0488 
G01 X76.0014 Y74.0488 
G01 X75.6344 Y73.8968 
G01 X75.3536 Y73.6159 
G01 X75.2936 Y73.4711 
G01 X75.2560 Y73.3803 
G01 X75.1972 Y73.3037 
G01 X75.1182 Y73.2425 
G01 X75.0661 Y73.2209 
G01 X74.9300 Y73.1921 
G01 X74.8326 Y73.2049 
G01 X74.7418 Y73.2425 
G01 X74.6652 Y73.3013 
G01 X74.6040 Y73.3803 
G01 X74.5747 Y73.4510 
G01 X74.5064 Y73.6159 
G01 X74.2255 Y73.8968 
G01 X73.8586 Y74.0488 
G01 X73.4614 Y74.0488 
G01 X73.0944 Y73.8968 
G01 X72.8136 Y73.6159 
G01 X72.6616 Y73.2490 
G01 X72.6616 Y71.5310 
G01 X72.8136 Y71.1640 
G01 X73.0944 Y70.8832 
G01 X73.4614 Y70.7312 
G01 X73.8586 Y70.7312 
G01 X74.2255 Y70.8832 
G01 X74.5064 Y71.1640 
G01 X74.5590 Y71.2910 
G01 X74.5872 Y71.3590 
G01 X74.6320 Y71.4174 
G01 X74.6840 Y71.4694 
G01 X74.7477 Y71.5062 
G01 X74.8157 Y71.5344 
G01 X74.8887 Y71.5440 
G01 X74.9469 Y71.5472 
G01 X75.0198 Y71.5376 
G01 X75.0909 Y71.5186 
G01 X75.1546 Y71.4818 
G01 X75.2130 Y71.4370 
G01 X75.2578 Y71.3786 
G01 X75.2946 Y71.3149 
G01 X75.3536 Y71.1640 
G01 X75.6344 Y70.8832 
G01 X76.0014 Y70.7312 
G01 X76.3986 Y70.7312 
G01 X76.4517 Y70.7532 
G01 X76.5228 Y70.7723 
G01 X76.5964 Y70.7723 
G01 X76.6694 Y70.7626 
G01 X76.7374 Y70.7345 
G01 X76.8011 Y70.6977 
G01 X76.8531 Y70.6457 
G01 X77.9664 Y69.5324 
G01 X78.1506 Y69.3481 
G01 X78.3682 Y69.2580 
G01 X86.0093 Y69.2580 
G01 X86.1042 Y69.2326 
G01 X86.1893 Y69.1834 
G01 X86.2588 Y69.1139 
G01 X87.7254 Y67.6473 
G01 X87.7746 Y67.5623 
G01 X87.8000 Y67.4673 
G01 X87.8000 Y66.7021 
G01 X87.7746 Y66.6072 
G01 X87.7430 Y66.5526 
G01 X87.6570 Y66.4537 
G01 X87.5708 Y66.4035 
G01 X87.4759 Y66.3781 
G01 X87.3777 Y66.3781 
G01 X87.3301 Y65.6892 
G01 X87.4759 Y65.7019 
G01 X87.5708 Y65.6765 
G01 X87.6541 Y65.6284 
G01 X87.7254 Y65.5579 
G01 X87.7746 Y65.4728 
G01 X87.7944 Y65.3988 
G01 X87.8000 Y59.0821 
G01 X87.7746 Y58.9872 
G01 X87.7254 Y58.9021 
G01 X87.6559 Y58.8326 
G01 X87.5903 Y58.7948 
G01 X87.4759 Y58.7581 
G01 X87.3777 Y58.7581 
G01 X87.3301 Y58.0692 
G01 X87.4759 Y58.0819 
G01 X87.5708 Y58.0565 
G01 X87.6541 Y58.0084 
G01 X87.7254 Y57.9379 
G01 X87.7746 Y57.8528 
G01 X87.7944 Y57.7788 
G01 X87.8000 Y56.7961 
G01 X87.7746 Y56.7011 
G01 X87.7254 Y56.6160 
G01 X87.6559 Y56.5466 
G01 X87.5708 Y56.4974 
G01 X87.4759 Y56.4720 
G01 X73.5668 Y56.4720 
G01 X73.4719 Y56.4974 
G01 X73.3868 Y56.5466 
G01 X73.3173 Y56.6160 
G01 X73.0563 Y56.8771 
G01 X72.6240 Y57.0562 
G01 X72.1560 Y57.0562 
G01 X71.7237 Y56.8771 
G01 X71.3929 Y56.5463 
G01 X71.2138 Y56.1140 
G01 X71.2138 Y55.7801 
G01 X71.1884 Y55.6851 
G01 X71.1392 Y55.6000 
G01 X71.0697 Y55.5306 
G01 X70.9847 Y55.4814 
G01 X70.8897 Y55.4560 
G01 X65.8360 Y55.4560 
G01 X65.7381 Y55.4560 
G01 X65.6688 Y55.4562 
G01 X65.6057 Y55.4301 
G01 X65.5153 Y55.3926 
G01 X65.4511 Y55.3663 
G01 X65.3681 Y55.2833 
G01 X65.2844 Y55.1999 
G01 X65.2582 Y55.1367 
G01 X65.2207 Y55.0463 
G01 X64.0525 Y52.2429 
G01 X64.0241 Y52.1746 
G01 X63.9794 Y52.1166 
G01 X60.1403 Y48.2776 
G01 X60.0553 Y48.2284 
G01 X59.9603 Y48.2030 
G01 X59.4588 Y48.2030 
G01 X58.9762 Y48.0031 
G01 X58.8708 Y47.8976 
G01 X58.8053 Y47.8321 
G01 X58.7202 Y47.7830 
G01 X58.6674 Y47.7689 
G01 X58.6142 Y47.7563 
G01 X58.5270 Y47.7576 
G01 X58.4742 Y47.7717 
G01 X58.4218 Y47.7874 
G01 X58.3470 Y47.8321 
G01 X58.2775 Y47.9016 
G01 X58.2284 Y47.9867 
G01 X58.2142 Y48.0395 
G01 X58.2016 Y48.0927 
G01 X58.2029 Y48.1799 
G01 X58.2171 Y48.2327 
G01 X58.4075 Y48.8675 
G01 X58.4232 Y48.9199 
G01 X58.4679 Y48.9947 
G01 X61.5491 Y52.0759 
G01 X61.7856 Y52.3124 
G01 X61.9699 Y52.4967 
G01 X62.0600 Y52.7142 
G01 X62.0600 Y54.3797 
G01 X62.0854 Y54.4746 
G01 X62.1346 Y54.5597 
G01 X62.2040 Y54.6292 
G01 X62.2891 Y54.6784 
G01 X62.3841 Y54.7038 
G01 X62.4640 Y54.7038 
G01 X62.8963 Y54.8829 
G01 X63.2271 Y55.2137 
G01 X63.4062 Y55.6460 
G01 X63.4062 Y55.8595 
G01 X63.4316 Y55.9545 
G01 X63.4632 Y56.0091 
G01 X65.1946 Y57.7534 
G01 X65.2797 Y57.8026 
G01 X65.3706 Y57.8269 
G01 X75.6389 Y57.8280 
G01 X75.7338 Y57.8026 
G01 X75.8189 Y57.7534 
G01 X75.8884 Y57.6839 
G01 X76.0849 Y57.4875 
G01 X76.4892 Y57.3200 
G01 X78.4508 Y57.3200 
G01 X78.8551 Y57.4875 
G01 X79.1211 Y57.7534 
G01 X79.2062 Y57.8026 
G01 X79.3011 Y57.8280 
G01 X82.6970 Y57.8280 
G01 X82.7919 Y57.8026 
G01 X82.8770 Y57.7534 
G01 X82.9465 Y57.6839 
G01 X83.1753 Y57.4552 
G01 X83.5936 Y57.2819 
G01 X84.0464 Y57.2819 
G01 X84.4647 Y57.4552 
G01 X84.7848 Y57.7753 
G01 X84.8457 Y57.9223 
G01 X84.8739 Y57.9903 
G01 X84.9187 Y58.0486 
G01 X84.9707 Y58.1007 
G01 X85.0344 Y58.1375 
G01 X85.1024 Y58.1656 
G01 X85.1754 Y58.1753 
G01 X85.2490 Y58.1753 
G01 X85.3201 Y58.1562 
G01 X85.3881 Y58.1280 
G01 X85.3899 Y58.7134 
G01 X85.3201 Y58.6838 
G01 X85.2490 Y58.6647 
G01 X85.1754 Y58.6647 
G01 X85.1024 Y58.6743 
G01 X85.0344 Y58.7025 
G01 X84.9707 Y58.7393 
G01 X84.9187 Y58.7913 
G01 X84.8739 Y58.8497 
G01 X84.8457 Y58.9177 
G01 X84.7848 Y59.0647 
G01 X84.4647 Y59.3848 
G01 X84.0464 Y59.5581 
G01 X83.5936 Y59.5581 
G01 X83.1753 Y59.3848 
G01 X82.8770 Y59.0866 
G01 X82.7919 Y59.0374 
G01 X82.6970 Y59.0120 
G01 X79.3011 Y59.0120 
G01 X79.2062 Y59.0374 
G01 X79.1211 Y59.0866 
G01 X79.0516 Y59.1560 
G01 X78.8551 Y59.3525 
G01 X78.5761 Y59.4681 
G01 X78.4991 Y59.5000 
G01 X78.4484 Y59.5389 
G01 X78.3823 Y59.6105 
G01 X78.3475 Y59.6640 
G01 X78.3237 Y59.7286 
G01 X78.3154 Y59.7919 
G01 X78.3120 Y59.8556 
G01 X78.3237 Y59.9234 
G01 X78.3481 Y59.9824 
G01 X78.3767 Y60.0385 
G01 X78.3238 Y60.0280 
G01 X76.6162 Y60.0280 
G01 X76.5633 Y60.0385 
G01 X76.5919 Y59.9824 
G01 X76.6163 Y59.9234 
G01 X76.6280 Y59.8556 
G01 X76.6246 Y59.7919 
G01 X76.6163 Y59.7286 
G01 X76.5925 Y59.6640 
G01 X76.5577 Y59.6105 
G01 X76.5189 Y59.5598 
G01 X76.4660 Y59.5158 
G01 X76.4091 Y59.4868 
G01 X76.0849 Y59.3525 
G01 X75.8189 Y59.0866 
G01 X75.7338 Y59.0374 
G01 X75.6389 Y59.0120 
G01 X64.9062 Y59.0120 
G01 X64.6886 Y58.9219 
G01 X64.4916 Y58.7248 
G01 X62.9114 Y57.1447 
G01 X62.8594 Y57.0926 
G01 X62.7957 Y57.0558 
G01 X62.7277 Y57.0277 
G01 X62.6547 Y57.0181 
G01 X62.5811 Y57.0181 
G01 X62.5100 Y57.0371 
G01 X61.9960 Y57.0562 
G01 X61.5637 Y56.8771 
G01 X61.2329 Y56.5463 
G01 X61.0538 Y56.1140 
G01 X61.0538 Y55.6460 
G01 X61.0823 Y55.5772 
G01 X61.0919 Y55.5042 
G01 X61.0919 Y55.4306 
G01 X61.0729 Y55.3595 
G01 X61.0447 Y55.2915 
G01 X60.9999 Y55.2331 
G01 X60.8760 Y54.9818 
G01 X60.8760 Y54.0971 
G01 X60.8506 Y54.0021 
G01 X60.8190 Y53.9475 
G01 X60.7319 Y53.8476 
G01 X60.6787 Y53.8168 
G01 X60.5519 Y53.7730 
G01 X60.4537 Y53.7730 
G01 X60.3587 Y53.7984 
G01 X60.3041 Y53.8300 
G01 X59.9556 Y54.1656 
G01 X59.7713 Y54.3499 
G01 X59.5538 Y54.4400 
G01 X56.2702 Y54.4400 
G01 X56.0526 Y54.3499 
G01 X47.4075 Y45.7047 
G01 X47.3554 Y45.6527 
G01 X47.2917 Y45.6159 
G01 X47.2237 Y45.5877 
G01 X47.1507 Y45.5781 
G01 X47.0772 Y45.5781 
G01 X47.0061 Y45.5971 
G01 X46.9381 Y45.6253 
G01 X46.8797 Y45.6701 
G01 X46.8277 Y45.7221 
G01 X46.7909 Y45.7859 
G01 X46.7627 Y45.8539 
G01 X46.7531 Y45.9268 
G01 X46.7531 Y46.0004 
G01 X46.7721 Y46.0715 
G01 X47.0030 Y46.6288 
G01 X47.0030 Y47.1512 
G01 X46.9500 Y47.2790 
G01 X46.9219 Y47.3470 
G01 X46.9123 Y47.4200 
G01 X46.9123 Y47.4936 
G01 X46.9313 Y47.5647 
G01 X46.9595 Y47.6327 
G01 X47.0043 Y47.6910 
G01 X53.5106 Y54.1974 
G01 X53.5957 Y54.2466 
G01 X53.6907 Y54.2720 
G01 X53.9658 Y54.2720 
G01 X54.1833 Y54.3621 
G01 X54.4504 Y54.6292 
G01 X54.5355 Y54.6784 
G01 X54.6095 Y54.6982 
G01 X54.8440 Y54.7038 
G01 X55.2763 Y54.8829 
G01 X55.6071 Y55.2137 
G01 X55.7862 Y55.6460 
G01 X55.7862 Y55.8595 
G01 X55.8116 Y55.9545 
G01 X55.8608 Y56.0395 
G01 X55.9302 Y56.1090 
G01 X60.7696 Y60.9484 
G01 X60.9539 Y61.1326 
G01 X61.0440 Y61.3502 
G01 X61.0440 Y61.4062 
G01 X61.0694 Y61.5011 
G01 X61.1065 Y61.5653 
G01 X61.1968 Y61.6645 
G01 X61.3488 Y62.0314 
G01 X61.3488 Y62.4286 
G01 X61.1968 Y62.7955 
G01 X60.9160 Y63.0764 
G01 X60.7890 Y63.1290 
G01 X60.7210 Y63.1572 
G01 X60.6626 Y63.2019 
G01 X60.6106 Y63.2540 
G01 X60.5738 Y63.3177 
G01 X60.5456 Y63.3857 
G01 X60.5360 Y63.4587 
G01 X60.5328 Y63.5169 
G01 X60.5424 Y63.5898 
G01 X60.5614 Y63.6609 
G01 X60.5982 Y63.7246 
G01 X60.6430 Y63.7830 
G01 X60.7014 Y63.8278 
G01 X60.7651 Y63.8646 
G01 X60.9159 Y63.9236 
G01 X61.1968 Y64.2044 
G01 X61.3488 Y64.5714 
G01 X61.3488 Y64.9686 
G01 X61.1968 Y65.3355 
G01 X60.9192 Y65.6131 
G01 X60.8643 Y65.6378 
G01 X60.8059 Y65.6826 
G01 X60.7538 Y65.7347 
G01 X60.7170 Y65.7984 
G01 X60.6889 Y65.8664 
G01 X60.6793 Y65.9393 
G01 X60.6793 Y66.0129 
G01 X60.6983 Y66.0840 
G01 X60.7265 Y66.1520 
G01 X60.7713 Y66.2104 
G01 X60.8233 Y66.2624 
G01 X60.8870 Y66.2992 
G01 X60.9550 Y66.3274 
G01 X61.0280 Y66.3370 
G01 X66.1578 Y66.3370 
G01 X66.3753 Y66.4271 
G01 X66.5419 Y66.5936 
G01 X66.6320 Y66.8112 
G01 X66.6320 Y69.7372 
G01 X66.6320 Y69.8108 
G01 X66.6510 Y69.8819 
G01 X66.6792 Y69.9499 
G01 X66.7240 Y70.0082 
G01 X66.7760 Y70.0603 
G01 X66.8398 Y70.0971 
G01 X67.2659 Y70.2736 
G01 X67.5468 Y70.5544 
G01 X67.6988 Y70.9214 
G01 X67.6988 Y71.3186 
G01 X67.5468 Y71.6856 
G01 X67.2660 Y71.9664 
G01 X67.1211 Y72.0264 
G01 X67.0303 Y72.0640 
G01 X66.9523 Y72.1238 
G01 X66.8925 Y72.2018 
G01 X66.8549 Y72.2926 
G01 X66.8421 Y72.3900 
G01 X66.8549 Y72.4874 
G01 X66.8925 Y72.5782 
G01 X66.9523 Y72.6562 
G01 X67.0303 Y72.7160 
G01 X67.1211 Y72.7536 
G01 X67.2660 Y72.8136 
G01 X67.5468 Y73.0944 
G01 X67.6988 Y73.4614 
G01 X67.6988 Y73.8586 
G01 X67.5468 Y74.2255 
G01 X67.2660 Y74.5064 
G01 X66.8990 Y74.6584 
G01 X65.1810 Y74.6584 
G01 X64.8140 Y74.5064 
G01 X64.5332 Y74.2255 
G01 X64.3812 Y73.8586 
G01 X64.3812 Y73.4614 
G01 X64.5332 Y73.0944 
G01 X64.8140 Y72.8136 
G01 X64.9589 Y72.7536 
G01 X65.0497 Y72.7160 
G01 X65.1277 Y72.6562 
G01 X65.1875 Y72.5782 
G01 X65.2251 Y72.4874 
G01 X65.2379 Y72.3900 
G01 X65.2251 Y72.2926 
G01 X65.1875 Y72.2018 
G01 X65.1277 Y72.1238 
G01 X65.0497 Y72.0640 
G01 X64.8140 Y71.9664 
G01 X64.5332 Y71.6856 
G01 X64.3812 Y71.3186 
G01 X64.3812 Y70.9214 
G01 X64.5332 Y70.5544 
G01 X64.8140 Y70.2736 
G01 X65.1950 Y70.1158 
G01 X65.2630 Y70.0876 
G01 X65.3214 Y70.0428 
G01 X65.3734 Y69.9908 
G01 X65.4102 Y69.9271 
G01 X65.4384 Y69.8591 
G01 X65.4480 Y69.7861 
G01 X65.4480 Y67.8451 
G01 X65.4226 Y67.7501 
G01 X65.3734 Y67.6650 
G01 X65.3039 Y67.5956 
G01 X65.2189 Y67.5464 
G01 X65.1239 Y67.5210 
G01 X57.6672 Y67.5210 
G01 X57.4496 Y67.4309 
G01 X55.0544 Y65.0356 
G01 X54.8701 Y64.8513 
G01 X54.7800 Y64.6338 
G01 X54.7800 Y60.8601 
G01 X54.7546 Y60.7651 
G01 X54.7054 Y60.6800 
G01 X54.6359 Y60.6106 
G01 X54.5508 Y60.5614 
G01 X54.4559 Y60.5360 
G01 X36.9267 Y60.5360 
G01 X36.8317 Y60.5614 
G01 X36.7466 Y60.6106 
G01 X36.6772 Y60.6800 
G01 X35.5716 Y61.7856 
G01 X35.3873 Y61.9699 
G01 X35.1698 Y62.0600 
G01 X24.2267 Y62.0600 
G01 X24.1317 Y62.0854 
G01 X24.0466 Y62.1346 
G01 X23.9772 Y62.2040 
G01 X20.3912 Y65.7900 
G01 X20.0826 Y66.0986 
G01 X20.0334 Y66.1837 
G01 X20.0136 Y66.2578 
G01 X20.0080 Y66.3769 
G01 X20.0334 Y66.4719 
G01 X20.0826 Y66.5569 
G01 X20.1520 Y66.6264 
G01 X20.2371 Y66.6756 
G01 X20.3111 Y66.6954 
G01 X20.8986 Y66.7010 
G01 X21.0291 Y66.7550 
G01 X24.4565 Y70.1824 
G01 X24.5416 Y70.2316 
G01 X24.6365 Y70.2570 
G01 X39.3715 Y70.2570 
G01 X39.4664 Y70.2316 
G01 X39.5515 Y70.1824 
G01 X39.6210 Y70.1129 
G01 X39.8133 Y69.9207 
G01 X39.9309 Y69.8030 
G01 X40.0614 Y69.7490 
G01 X40.1324 Y69.7522 
G01 X40.2054 Y69.7426 
G01 X40.2765 Y69.7236 
G01 X40.3402 Y69.6868 
G01 X40.3986 Y69.6420 
G01 X40.4434 Y69.5836 
G01 X40.4802 Y69.5199 
G01 X40.5371 Y69.3739 
G01 X40.7735 Y69.1375 
G01 X41.0824 Y69.0096 
G01 X41.2218 Y68.9842 
G01 X41.3069 Y68.9350 
G01 X41.3764 Y68.8655 
G01 X42.9789 Y67.2630 
G01 X43.1094 Y67.2090 
G01 X50.8706 Y67.2090 
G01 X51.0011 Y67.2630 
G01 X51.1882 Y67.4501 
G01 X52.5235 Y68.7854 
G01 X52.6086 Y68.8346 
G01 X52.7035 Y68.8600 
G01 X61.5386 Y68.8600 
G01 X61.6691 Y68.9140 
G01 X61.7689 Y69.0139 
G01 X61.8230 Y69.1444 
G01 X61.8230 Y72.8995 
G01 X61.8484 Y72.9944 
G01 X61.8976 Y73.0795 
G01 X61.9670 Y73.1490 
G01 X64.5885 Y75.7704 
G01 X64.6736 Y75.8196 
G01 X64.7685 Y75.8450 
G01 X68.4089 Y75.8450 
G01 X68.5038 Y75.8196 
G01 X68.5889 Y75.7704 
G01 X68.6584 Y75.7009 
G01 X68.7076 Y75.6158 
G01 X68.7330 Y75.5209 
G01 X68.7330 Y73.0814 
G01 X68.7870 Y72.9509 
G01 X68.9741 Y72.7638 
G01 X72.4429 Y69.2950 
G01 X72.5734 Y69.2410 
G01 X74.4235 Y69.2410 
G01 X74.5184 Y69.2156 
G01 X74.6035 Y69.1664 
G01 X74.6645 Y69.1055 
G01 X78.4473 Y65.3226 
G01 X78.5168 Y65.2531 
G01 X78.5659 Y65.1680 
G01 X78.5914 Y65.0731 
G01 X78.5914 Y64.9749 
G01 X78.5659 Y64.8799 
G01 X78.5168 Y64.7948 
G01 X78.4473 Y64.7254 
G01 X78.2385 Y64.5166 
G01 X78.1534 Y64.4674 
G01 X78.0585 Y64.4420 
G01 X76.5206 Y64.4420 
G01 X76.1744 Y64.2986 
G01 X75.9094 Y64.0336 
G01 X75.7660 Y63.6874 
G01 X75.7660 Y63.3126 
G01 X75.9094 Y62.9664 
G01 X76.1744 Y62.7014 
G01 X76.5206 Y62.5580 
G01 X78.4194 Y62.5580 
G01 X78.7656 Y62.7014 
G01 X79.0306 Y62.9664 
G01 X79.1740 Y63.3126 
G01 X79.1740 Y63.6874 
G01 X79.0560 Y63.9722 
G01 X79.0279 Y64.0402 
G01 X79.0182 Y64.1132 
G01 X79.0182 Y64.1868 
G01 X79.0373 Y64.2578 
G01 X79.0655 Y64.3258 
G01 X79.1103 Y64.3842 
G01 X79.3205 Y64.5944 
G01 X79.4056 Y64.6436 
G01 X79.5005 Y64.6690 
G01 X81.8586 Y64.6690 
G01 X81.9891 Y64.7230 
G01 X82.1067 Y64.8406 
G01 X82.1762 Y64.9101 
G01 X82.6408 Y65.3748 
G01 X82.7259 Y65.4239 
G01 X82.8208 Y65.4494 
G01 X82.9191 Y65.4494 
G01 X83.0140 Y65.4239 
G01 X83.0991 Y65.3748 
G01 X83.1686 Y65.3053 
G01 X83.2648 Y65.2091 
G01 X83.6250 Y65.0599 
G01 X84.0149 Y65.0599 
G01 X84.3752 Y65.2091 
G01 X84.6509 Y65.4848 
G01 X84.7485 Y65.7206 
G01 X84.7767 Y65.7886 
G01 X84.8215 Y65.8470 
G01 X84.8735 Y65.8990 
G01 X84.9373 Y65.9358 
G01 X85.0053 Y65.9640 
G01 X85.0782 Y65.9736 
G01 X85.1518 Y65.9736 
G01 X85.2229 Y65.9545 
G01 X85.2909 Y65.9264 
G01 X85.3493 Y65.8816 
G01 X85.3899 Y66.2390 
G01 X85.3318 Y66.1810 
G01 X85.2681 Y66.1442 
G01 X85.2001 Y66.1160 
G01 X85.1272 Y66.1064 
G01 X85.0536 Y66.1064 
G01 X84.9825 Y66.1255 
G01 X84.9145 Y66.1536 
G01 X84.8561 Y66.1984 
G01 X84.8041 Y66.2505 
G01 X84.7673 Y66.3142 
G01 X84.6509 Y66.5952 
G01 X84.3752 Y66.8709 
G01 X84.0149 Y67.0201 
G01 X83.6250 Y67.0201 
G01 X83.2648 Y66.8709 
G01 X82.9891 Y66.5952 
G01 X82.9261 Y66.5055 
G01 X82.8446 Y66.4410 
G01 X82.6029 Y66.3410 
G01 X82.4853 Y66.2233 
G01 X82.4158 Y66.1539 
G01 X81.7155 Y65.4536 
G01 X81.6304 Y65.4044 
G01 X81.5355 Y65.3790 
G01 X79.5005 Y65.3790 
G01 X79.4056 Y65.4044 
G01 X79.3205 Y65.4536 
G01 X79.2510 Y65.5230 
G01 X74.9947 Y69.7793 
G01 X74.8771 Y69.8970 
G01 X74.7466 Y69.9510 
G01 X72.8965 Y69.9510 
G01 X72.8016 Y69.9764 
G01 X72.7165 Y70.0256 
G01 X72.6470 Y70.0950 
G01 X69.5176 Y73.2245 
G01 X69.4684 Y73.3096 
G01 X69.4430 Y73.4045 
G01 X69.4430 Y76.2706 
G01 X69.3889 Y76.4011 
G01 X69.2891 Y76.5010 
G01 X69.1586 Y76.5550 
G01 X64.4454 Y76.5550 
G01 X64.3149 Y76.5010 
G01 X61.2847 Y73.4707 
G01 X61.1670 Y73.3531 
G01 X61.1130 Y73.2226 
G01 X61.1130 Y69.8941 
G01 X61.0876 Y69.7991 
G01 X61.0384 Y69.7140 
G01 X60.9689 Y69.6446 
G01 X60.8839 Y69.5954 
G01 X60.7889 Y69.5700 
G01 X59.4351 Y69.5700 
G01 X59.3615 Y69.5700 
G01 X59.2904 Y69.5890 
G01 X59.2224 Y69.6172 
G01 X59.1640 Y69.6620 
G01 X59.1120 Y69.7140 
G01 X59.0752 Y69.7778 
G01 X59.0470 Y69.8458 
G01 X59.0374 Y69.9187 
G01 X59.0374 Y69.9923 
G01 X59.0565 Y70.0634 
G01 X59.0846 Y70.1314 
G01 X59.1294 Y70.1898 
G01 X59.1815 Y70.2418 
G01 X59.2452 Y70.2786 
G01 X59.5564 Y70.4075 
G01 X59.7929 Y70.6439 
G01 X59.9208 Y70.9528 
G01 X59.9208 Y71.2872 
G01 X59.7929 Y71.5961 
G01 X59.5565 Y71.8324 
G01 X59.2476 Y71.9604 
G01 X58.1359 Y71.9604 
G01 X58.0623 Y71.9604 
G01 X57.9912 Y71.9794 
G01 X57.1485 Y71.9830 
G01 X57.0536 Y72.0084 
G01 X56.9685 Y72.0576 
G01 X56.8990 Y72.1270 
G01 X56.3096 Y72.7165 
G01 X56.2604 Y72.8016 
G01 X56.2350 Y72.8965 
G01 X56.2350 Y77.8010 
G01 X56.2604 Y77.8960 
G01 X56.3096 Y77.9811 
G01 X56.3790 Y78.0505 
G01 X56.6389 Y78.3104 
G01 X56.7240 Y78.3596 
G01 X56.8190 Y78.3850 
G01 X58.7510 Y78.3850 
G01 X58.8460 Y78.3596 
G01 X58.9311 Y78.3104 
G01 X59.0005 Y78.2409 
G01 X59.3419 Y77.8996 
G01 X60.0381 Y77.8996 
G01 X60.5304 Y78.3919 
G01 X60.5304 Y79.0881 
G01 X60.0381 Y79.5804 
G01 X59.3419 Y79.5804 
G01 X58.9311 Y79.1696 
G01 X58.8460 Y79.1204 
G01 X58.7510 Y79.0950 
G01 X56.8190 Y79.0950 
G01 X56.7240 Y79.1204 
G01 X56.6389 Y79.1696 
G01 X56.5695 Y79.2390 
G01 X56.2281 Y79.5804 
G01 X55.5319 Y79.5804 
G01 X55.0396 Y79.0881 
G01 X55.0396 Y78.3919 
G01 X55.4504 Y77.9811 
G01 X55.4996 Y77.8960 
G01 X55.5250 Y77.8010 
G01 X55.5250 Y72.5734 
G01 X55.5790 Y72.4429 
G01 X55.7661 Y72.2558 
G01 X56.6892 Y71.3328 
G01 X56.7538 Y71.2957 
G01 X56.8122 Y71.2510 
G01 X56.8570 Y71.1926 
G01 X56.8938 Y71.1288 
G01 X56.9128 Y71.0577 
G01 X56.9224 Y70.9848 
G01 X57.0471 Y70.6439 
G01 X57.2835 Y70.4075 
G01 X57.5496 Y70.2973 
G01 X57.6176 Y70.2692 
G01 X57.6760 Y70.2244 
G01 X57.7280 Y70.1723 
G01 X57.7648 Y70.1086 
G01 X57.7930 Y70.0406 
G01 X57.8026 Y69.9676 
G01 X57.8026 Y69.8941 
G01 X57.7835 Y69.8230 
G01 X57.7554 Y69.7550 
G01 X57.7106 Y69.6966 
G01 X57.6585 Y69.6446 
G01 X57.5948 Y69.6078 
G01 X57.5268 Y69.5796 
G01 X57.4538 Y69.5700 
G01 X52.3804 Y69.5700 
G01 X52.2499 Y69.5160 
G01 X50.7275 Y67.9936 
G01 X50.6424 Y67.9444 
G01 X50.5475 Y67.9190 
G01 X43.4325 Y67.9190 
G01 X43.3376 Y67.9444 
G01 X43.2525 Y67.9936 
G01 X43.1830 Y68.0630 
G01 X42.7955 Y68.4506 
G01 X42.7434 Y68.5026 
G01 X42.7066 Y68.5663 
G01 X42.6785 Y68.6343 
G01 X42.6688 Y68.7073 
G01 X42.6688 Y68.7809 
G01 X42.6879 Y68.8520 
G01 X42.7161 Y68.9200 
G01 X42.7609 Y68.9784 
G01 X42.8129 Y69.0304 
G01 X42.8766 Y69.0672 
G01 X43.0464 Y69.1375 
G01 X43.2829 Y69.3739 
G01 X43.4108 Y69.6828 
G01 X43.4108 Y70.0172 
G01 X43.2829 Y70.3260 
G01 X43.0465 Y70.5625 
G01 X42.7376 Y70.6904 
G01 X41.0824 Y70.6904 
G01 X40.7736 Y70.5625 
G01 X40.6972 Y70.5061 
G01 X40.5709 Y70.4607 
G01 X40.5161 Y70.4590 
G01 X40.3845 Y70.4590 
G01 X40.2896 Y70.4844 
G01 X40.2045 Y70.5336 
G01 X40.1350 Y70.6030 
G01 X39.8251 Y70.9129 
G01 X39.6946 Y70.9670 
G01 X24.3134 Y70.9670 
G01 X24.1829 Y70.9129 
G01 X23.9958 Y70.7259 
G01 X20.7555 Y67.4856 
G01 X20.6704 Y67.4364 
G01 X20.5755 Y67.4110 
G01 X13.1374 Y67.4110 
G01 X13.0069 Y67.3569 
G01 X12.8198 Y67.1699 
G01 X8.3716 Y62.7216 
G01 X8.3195 Y62.6696 
G01 X8.2558 Y62.6328 
G01 X8.1878 Y62.6046 
G01 X8.1148 Y62.5950 
G01 X8.0412 Y62.5950 
G01 X7.9702 Y62.6141 
G01 X7.9022 Y62.6422 
G01 X7.8438 Y62.6870 
G01 X7.7918 Y62.7391 
G01 X7.7550 Y62.8028 
G01 X7.7268 Y62.8708 
G01 X7.7172 Y62.9438 
G01 X7.7172 Y63.0173 
G01 X7.7362 Y63.0884 
G01 X7.8380 Y63.3341 
G01 X7.8380 Y63.6659 
G01 X7.7110 Y63.9724 
G01 X7.4764 Y64.2070 
G01 X7.1699 Y64.3340 
G01 X7.0291 Y64.3340 
G01 X6.9341 Y64.3594 
G01 X6.8490 Y64.4086 
G01 X6.7796 Y64.4780 
G01 X6.7304 Y64.5631 
G01 X6.7050 Y64.6581 
G01 X6.7050 Y64.8819 
G01 X6.7304 Y64.9768 
G01 X6.7796 Y65.0619 
G01 X6.8490 Y65.1314 
G01 X6.9341 Y65.1806 
G01 X7.0291 Y65.2060 
G01 X7.1699 Y65.2060 
G01 X7.4764 Y65.3330 
G01 X7.6269 Y65.4834 
G01 X7.6771 Y65.5124 
G01 X7.7804 Y65.5509 
G01 X8.9606 Y65.5580 
G01 X9.0911 Y65.6120 
G01 X9.1910 Y65.7119 
G01 X9.2450 Y65.8424 
G01 X9.2450 Y70.6135 
G01 X9.2704 Y70.7084 
G01 X9.3196 Y70.7935 
G01 X9.3890 Y70.8630 
G01 X15.7510 Y77.2249 
G01 X15.8205 Y77.2944 
G01 X15.9056 Y77.3436 
G01 X16.0005 Y77.3690 
G01 X19.1206 Y77.3690 
G01 X19.2511 Y77.4230 
G01 X19.3687 Y77.5406 
G01 X19.4382 Y77.6101 
G01 X24.7105 Y82.8824 
G01 X24.7956 Y82.9316 
G01 X24.8905 Y82.9570 
G01 X26.7391 Y82.9570 
G01 X26.8340 Y82.9316 
G01 X26.8887 Y82.9000 
G01 X26.9875 Y82.8140 
G01 X27.0377 Y82.7279 
G01 X27.0632 Y82.6329 
G01 X27.0632 Y82.5347 
G01 X27.0377 Y82.4397 
G01 X27.0062 Y82.3851 
G01 X25.5589 Y80.9250 
G01 X25.4738 Y80.8758 
G01 X25.3829 Y80.8515 
G01 X25.0519 Y80.8504 
G01 X24.5596 Y80.3581 
G01 X24.5596 Y79.9271 
G01 X24.5342 Y79.8321 
G01 X24.4850 Y79.7470 
G01 X24.4155 Y79.6776 
G01 X24.3304 Y79.6284 
G01 X24.2355 Y79.6030 
G01 X23.2974 Y79.6030 
G01 X23.1669 Y79.5490 
G01 X19.9988 Y76.3809 
G01 X19.9468 Y76.3288 
G01 X19.8830 Y76.2920 
G01 X19.8150 Y76.2639 
G01 X19.7421 Y76.2542 
G01 X19.6685 Y76.2542 
G01 X19.5974 Y76.2733 
G01 X19.2172 Y76.4308 
G01 X18.8828 Y76.4308 
G01 X18.5739 Y76.3029 
G01 X18.3375 Y76.0665 
G01 X18.2096 Y75.7576 
G01 X18.2096 Y74.1024 
G01 X18.3375 Y73.7935 
G01 X18.5297 Y73.6013 
G01 X18.5789 Y73.5162 
G01 X18.5987 Y73.4422 
G01 X18.6043 Y73.3231 
G01 X18.5789 Y73.2281 
G01 X18.5297 Y73.1430 
G01 X18.4603 Y73.0736 
G01 X18.3752 Y73.0244 
G01 X18.3012 Y73.0046 
G01 X17.1958 Y72.9990 
G01 X17.1271 Y72.9990 
G01 X17.0693 Y73.0113 
G01 X17.0065 Y73.0392 
G01 X16.9471 Y73.0736 
G01 X16.8915 Y73.1291 
G01 X16.8454 Y73.1926 
G01 X16.8208 Y73.2567 
G01 X16.8030 Y73.3231 
G01 X16.7999 Y73.3821 
G01 X16.8107 Y73.4499 
G01 X16.8243 Y73.5010 
G01 X16.7522 Y73.4711 
G01 X16.5918 Y73.4392 
G01 X16.4282 Y73.4392 
G01 X16.4215 Y73.3816 
G01 X16.4439 Y73.3062 
G01 X16.4469 Y73.2473 
G01 X16.4469 Y73.1884 
G01 X16.4286 Y73.1119 
G01 X16.4018 Y73.0594 
G01 X16.3724 Y73.0084 
G01 X16.3182 Y72.9513 
G01 X16.2090 Y72.8451 
G01 X16.1550 Y72.7146 
G01 X16.1550 Y71.4494 
G01 X16.1296 Y71.3544 
G01 X16.0804 Y71.2693 
G01 X16.0109 Y71.1999 
G01 X15.7975 Y70.9865 
G01 X15.6696 Y70.6776 
G01 X15.6696 Y69.0224 
G01 X15.7975 Y68.7135 
G01 X16.0339 Y68.4771 
G01 X16.3428 Y68.3492 
G01 X16.6772 Y68.3492 
G01 X16.9860 Y68.4771 
G01 X17.2225 Y68.7135 
G01 X17.3504 Y69.0224 
G01 X17.3504 Y70.6776 
G01 X17.2225 Y70.9865 
G01 X16.9396 Y71.2693 
G01 X16.8904 Y71.3544 
G01 X16.8650 Y71.4494 
G01 X16.8650 Y71.9649 
G01 X16.8904 Y72.0598 
G01 X16.9396 Y72.1449 
G01 X17.0090 Y72.2144 
G01 X17.0941 Y72.2636 
G01 X17.1891 Y72.2890 
G01 X19.3746 Y72.2890 
G01 X19.5051 Y72.3430 
G01 X24.0532 Y76.8912 
G01 X24.1383 Y76.9403 
G01 X24.2333 Y76.9658 
G01 X24.3315 Y76.9658 
G01 X24.4264 Y76.9403 
G01 X24.5115 Y76.8912 
G01 X24.5810 Y76.8217 
G01 X24.6302 Y76.7366 
G01 X24.6556 Y76.6417 
G01 X24.9700 Y76.9444 
G01 X24.8634 Y76.9698 
G01 X24.8087 Y77.0014 
G01 X24.7099 Y77.0874 
G01 X24.6597 Y77.1735 
G01 X24.6342 Y77.2685 
G01 X24.6342 Y77.3667 
G01 X24.6597 Y77.4616 
G01 X24.6912 Y77.5163 
G01 X25.4725 Y78.3104 
G01 X25.5576 Y78.3596 
G01 X25.6485 Y78.3839 
G01 X27.5026 Y78.3850 
G01 X27.6331 Y78.4390 
G01 X28.3141 Y79.1201 
G01 X28.3836 Y79.1896 
G01 X28.4687 Y79.2387 
G01 X28.5636 Y79.2641 
G01 X28.6619 Y79.2641 
G01 X28.7568 Y79.2387 
G01 X28.8419 Y79.1896 
G01 X29.5581 Y79.1696 
G01 X29.7149 Y79.3264 
G01 X29.8000 Y79.3756 
G01 X29.8740 Y79.3954 
G01 X32.3350 Y79.4010 
G01 X32.4300 Y79.3756 
G01 X32.5151 Y79.3264 
G01 X32.5845 Y79.2569 
G01 X32.6719 Y79.1696 
G01 X33.3681 Y79.1696 
G01 X33.8604 Y79.6619 
G01 X33.8604 Y80.3581 
G01 X33.3681 Y80.8504 
G01 X32.6719 Y80.8504 
G01 X32.1440 Y80.3225 
G01 X32.1050 Y80.2550 
G01 X32.0355 Y80.1856 
G01 X31.9505 Y80.1364 
G01 X31.8555 Y80.1110 
G01 X30.3745 Y80.1110 
G01 X30.2795 Y80.1364 
G01 X30.1944 Y80.1856 
G01 X30.1250 Y80.2550 
G01 X30.0860 Y80.3225 
G01 X29.5581 Y80.8504 
G01 X28.8619 Y80.8504 
G01 X28.3696 Y80.3581 
G01 X28.3696 Y80.2851 
G01 X28.3442 Y80.1902 
G01 X28.2950 Y80.1051 
G01 X28.2255 Y80.0356 
G01 X28.0598 Y79.8699 
G01 X27.3595 Y79.1696 
G01 X27.2744 Y79.1204 
G01 X27.1795 Y79.0950 
G01 X26.6236 Y79.0950 
G01 X26.5253 Y79.0950 
G01 X26.4304 Y79.1204 
G01 X26.3453 Y79.1696 
G01 X26.2769 Y79.2380 
G01 X26.2267 Y79.3241 
G01 X26.2013 Y79.4191 
G01 X26.2013 Y79.5173 
G01 X26.2267 Y79.6122 
G01 X26.2404 Y80.4969 
G01 X26.2658 Y80.5918 
G01 X26.3150 Y80.6769 
G01 X26.3844 Y80.7464 
G01 X27.5045 Y81.8664 
G01 X27.5896 Y81.9156 
G01 X27.6845 Y81.9410 
G01 X34.2915 Y81.9410 
G01 X34.3864 Y81.9156 
G01 X34.4715 Y81.8664 
G01 X34.5410 Y81.7969 
G01 X35.9150 Y80.4229 
G01 X35.9642 Y80.3378 
G01 X35.9896 Y80.2429 
G01 X35.9896 Y79.6619 
G01 X36.4819 Y79.1696 
G01 X37.1781 Y79.1696 
G01 X37.6704 Y79.6619 
G01 X37.6704 Y80.3581 
G01 X37.1978 Y80.8306 
G01 X37.1487 Y80.9157 
G01 X37.1289 Y80.9898 
G01 X37.1233 Y81.1089 
G01 X37.1487 Y81.2039 
G01 X37.1968 Y81.2871 
G01 X37.2673 Y81.3584 
G01 X37.3524 Y81.4076 
G01 X37.4264 Y81.4274 
G01 X37.8475 Y81.4330 
G01 X37.9424 Y81.4076 
G01 X38.0275 Y81.3584 
G01 X38.0970 Y81.2889 
G01 X39.4229 Y79.9630 
G01 X39.5534 Y79.9090 
G01 X40.1080 Y79.9090 
G01 X40.1816 Y79.9090 
G01 X40.2526 Y79.8899 
G01 X40.3206 Y79.8618 
G01 X40.3790 Y79.8170 
G01 X40.4311 Y79.7649 
G01 X40.4679 Y79.7012 
G01 X40.5371 Y79.5339 
G01 X40.7735 Y79.2975 
G01 X41.0824 Y79.1696 
G01 X42.7376 Y79.1696 
G01 X43.0465 Y79.2975 
G01 X43.2829 Y79.5339 
G01 X43.4108 Y79.8428 
G01 X43.4108 Y80.1772 
G01 X43.2829 Y80.4861 
G01 X43.0465 Y80.7225 
G01 X42.7376 Y80.8504 
G01 X41.0824 Y80.8504 
G01 X40.7736 Y80.7225 
G01 X40.6972 Y80.6661 
G01 X40.5709 Y80.6207 
G01 X40.5161 Y80.6190 
G01 X39.8765 Y80.6190 
G01 X39.7816 Y80.6444 
G01 X39.6965 Y80.6936 
G01 X38.5434 Y81.8466 
G01 X38.4943 Y81.9317 
G01 X38.4744 Y82.0058 
G01 X38.4688 Y82.1249 
G01 X38.4943 Y82.2198 
G01 X38.5423 Y82.3031 
G01 X38.6129 Y82.3744 
G01 X38.6980 Y82.4236 
G01 X38.7720 Y82.4434 
G01 X40.1080 Y82.4490 
G01 X40.1816 Y82.4490 
G01 X40.2526 Y82.4300 
G01 X40.3206 Y82.4018 
G01 X40.3790 Y82.3570 
G01 X40.4311 Y82.3049 
G01 X40.4679 Y82.2412 
G01 X40.5371 Y82.0739 
G01 X40.7735 Y81.8375 
G01 X41.0824 Y81.7096 
G01 X42.7376 Y81.7096 
G01 X43.0465 Y81.8375 
G01 X43.2829 Y82.0739 
G01 X43.4108 Y82.3828 
G01 X43.4108 Y82.7172 
G01 X43.2829 Y83.0260 
G01 X43.0465 Y83.2625 
G01 X42.7376 Y83.3904 
G01 X41.0824 Y83.3904 
G01 X40.7735 Y83.2625 
G01 X40.6596 Y83.1844 
G01 X40.5646 Y83.1590 
G01 X37.8445 Y83.1590 
G01 X37.7496 Y83.1844 
G01 X37.6645 Y83.2336 
G01 X37.6064 Y83.2917 
G01 X34.0044 Y86.8936 
G01 X33.9350 Y86.9631 
G01 X33.8858 Y87.0482 
G01 X33.8604 Y87.1431 
G01 X33.8604 Y87.9781 
G01 X33.3681 Y88.4704 
G01 X32.6719 Y88.4704 
G01 X32.1796 Y87.9781 
G01 X32.1796 Y87.2819 
G01 X32.6719 Y86.7896 
G01 X32.9989 Y86.7896 
G01 X33.0938 Y86.7642 
G01 X33.1789 Y86.7150 
G01 X33.2484 Y86.6455 
G01 X35.6246 Y84.2693 
G01 X35.6737 Y84.1842 
G01 X35.6992 Y84.0893 
G01 X35.6992 Y83.9911 
G01 X35.6737 Y83.8961 
G01 X35.6246 Y83.8110 
G01 X35.5551 Y83.7416 
G01 X35.4700 Y83.6924 
G01 X35.3751 Y83.6670 
G01 X24.5674 Y83.6670 
G01 X24.4369 Y83.6129 
G01 X18.9775 Y78.1536 
G01 X18.8924 Y78.1044 
G01 X18.7975 Y78.0790 
G01 X15.6774 Y78.0790 
G01 X15.5469 Y78.0250 
G01 X8.7067 Y71.1847 
G01 X8.5890 Y71.0671 
G01 X8.5350 Y70.9366 
G01 X8.5350 Y66.5921 
G01 X8.5096 Y66.4971 
G01 X8.4604 Y66.4120 
G01 X8.3909 Y66.3426 
G01 X8.3058 Y66.2934 
G01 X8.2109 Y66.2680 
G01 X8.0861 Y66.2680 
G01 X8.0125 Y66.2680 
G01 X7.9414 Y66.2870 
G01 X7.8734 Y66.3152 
G01 X7.8150 Y66.3600 
G01 X7.7630 Y66.4120 
G01 X7.7262 Y66.4758 
G01 X7.4764 Y66.7470 
G01 X7.1699 Y66.8740 
G01 X5.5301 Y66.8740 
G01 X5.2236 Y66.7470 
G01 X5.0043 Y66.5278 
G01 X4.9192 Y66.4787 
G01 X4.8452 Y66.4588 
G01 X4.7261 Y66.4532 
G01 X4.6311 Y66.4787 
G01 X4.5460 Y66.5278 
G01 X4.4766 Y66.5973 
G01 X4.4274 Y66.6824 
G01 X4.4076 Y66.7564 
G01 X4.4020 Y69.9353 
G01 X4.4020 Y69.9876 
G01 X4.4251 Y70.0767 
G01 X4.4727 Y70.1626 
G01 X4.5411 Y70.2332 
G01 X7.2183 Y71.8396 
G01 X7.2839 Y71.8789 
G01 X7.3363 Y71.8992 
G01 X7.3906 Y71.9429 
G01 X7.4403 Y72.0101 
G01 X15.7296 Y80.8520 
G01 X15.8019 Y80.9175 
G01 X15.8593 Y80.9532 
G01 X15.9171 Y80.9738 
G01 X15.9841 Y80.9826 
G01 X16.0516 Y80.9848 
G01 X16.1119 Y80.9738 
G01 X16.1743 Y80.9480 
G01 X16.3114 Y80.8912 
G01 X16.7086 Y80.8912 
G01 X17.0755 Y81.0432 
G01 X17.3564 Y81.3240 
G01 X17.4090 Y81.4510 
G01 X17.4372 Y81.5190 
G01 X17.4819 Y81.5774 
G01 X17.5340 Y81.6294 
G01 X17.5977 Y81.6662 
G01 X17.6657 Y81.6944 
G01 X17.7387 Y81.7040 
G01 X17.7969 Y81.7072 
G01 X17.8698 Y81.6976 
G01 X17.9409 Y81.6786 
G01 X18.0046 Y81.6418 
G01 X18.0630 Y81.5970 
G01 X18.1078 Y81.5386 
G01 X18.1446 Y81.4749 
G01 X18.2036 Y81.3240 
G01 X18.4844 Y81.0432 
G01 X18.8514 Y80.8912 
G01 X19.2486 Y80.8912 
G01 X19.6155 Y81.0432 
G01 X19.8964 Y81.3240 
G01 X20.0484 Y81.6910 
G01 X20.0484 Y83.4090 
G01 X19.8964 Y83.7759 
G01 X19.6155 Y84.0568 
G01 X19.2486 Y84.2088 
G01 X18.8514 Y84.2088 
G01 X18.4844 Y84.0568 
G01 X18.2036 Y83.7759 
G01 X18.1436 Y83.6311 
G01 X18.1060 Y83.5403 
G01 X18.0462 Y83.4623 
G01 X17.9682 Y83.4025 
G01 X17.8774 Y83.3649 
G01 X17.7800 Y83.3521 
G01 X17.6826 Y83.3649 
G01 X17.5918 Y83.4025 
G01 X17.5138 Y83.4623 
G01 X17.4540 Y83.5403 
G01 X17.4164 Y83.6311 
G01 X17.3564 Y83.7759 
G01 X17.0755 Y84.0568 
G01 X16.7086 Y84.2088 
G01 X16.3114 Y84.2088 
G01 X15.9444 Y84.0568 
G01 X15.6636 Y83.7759 
G01 X15.5116 Y83.4090 
G01 X15.5116 Y82.5042 
G01 X15.5116 Y82.4491 
G01 X15.4906 Y82.3654 
G01 X15.4443 Y82.2788 
G01 X6.6768 Y72.9268 
G01 X6.6116 Y72.8573 
G01 X6.5281 Y72.8054 
G01 X3.5849 Y71.0403 
G01 X3.5245 Y71.0041 
G01 X3.4457 Y70.9568 
G01 X3.3895 Y70.9119 
G01 X3.3476 Y70.8553 
G01 X3.2928 Y70.7814 
G01 X3.2582 Y70.7185 
G01 X3.2411 Y70.6502 
G01 X3.2188 Y70.5610 
G01 X3.2108 Y70.4896 
G01 X3.2212 Y70.4199 
G01 X3.2180 Y58.3022 
G01 X3.3081 Y58.0847 
G01 X5.8304 Y55.5624 
G01 X6.0146 Y55.3781 
G01 X6.2322 Y55.2880 
G01 X12.7932 Y55.2880 
G01 X12.8881 Y55.2626 
G01 X12.9427 Y55.2310 
G01 X13.3037 Y54.8829 
G01 X13.3790 Y54.8517 
G01 X13.4470 Y54.8235 
G01 X13.5054 Y54.7787 
G01 X13.5574 Y54.7267 
G01 X13.5942 Y54.6630 
G01 X13.6224 Y54.5950 
G01 X13.6320 Y54.5220 
G01 X13.6320 Y49.8657 
G01 X13.6320 Y49.7883 
G01 X13.6226 Y49.7323 
G01 X13.6320 Y49.6662 
G01 X13.6566 Y49.6151 
G01 X13.6754 Y49.5615 
G01 X13.6882 Y49.5061 
G01 X13.7221 Y49.4487 
G01 X13.7822 Y49.3886 
G01 X15.1787 Y47.6430 
G01 X15.2377 Y47.5693 
G01 X15.2771 Y47.4793 
G01 X15.2851 Y47.4270 
G01 X15.2920 Y47.3745 
G01 X15.2810 Y47.2844 
G01 X15.2453 Y47.1929 
G01 X15.2270 Y46.6288 
G01 X15.4269 Y46.1462 
G01 X15.7962 Y45.7769 
G01 X16.2788 Y45.5770 
G01 X16.8012 Y45.5770 
G01 X17.1574 Y45.7245 
G01 X17.2254 Y45.7527 
G01 X17.2983 Y45.7623 
G01 X17.3719 Y45.7623 
G01 X17.4430 Y45.7433 
G01 X17.5110 Y45.7151 
G01 X17.5694 Y45.6703 
G01 X17.6214 Y45.6183 
G01 X17.6582 Y45.5545 
G01 X17.6864 Y45.4865 
G01 X17.6960 Y45.4136 
G01 X17.6960 Y45.0942 
G01 X17.7861 Y44.8766 
G01 X20.8164 Y41.8464 
G01 X21.0007 Y41.6621 
G01 X21.2182 Y41.5720 
G01 X54.9818 Y41.5720 
G01 X55.1993 Y41.6621 
G01 X55.5426 Y42.0054 
G01 X55.6277 Y42.0546 
G01 X55.7017 Y42.0744 
G01 X63.6178 Y42.0800 
G01 X63.8353 Y42.1701 
G01 X67.1676 Y45.5024 
G01 X67.2527 Y45.5516 
G01 X67.3477 Y45.5770 
G01 X67.5412 Y45.5770 
G01 X68.0238 Y45.7769 
G01 X68.3931 Y46.1462 
G01 X68.5930 Y46.6288 
G01 X68.5930 Y47.1512 
G01 X68.3931 Y47.6338 
G01 X68.0238 Y48.0031 
G01 X67.5412 Y48.2030 
G01 X67.0190 Y48.2030 
G01 X66.9588 Y48.1916 
G01 X66.8610 Y48.1914 
G01 X66.7665 Y48.2167 
G01 X66.6822 Y48.2653 
G01 X66.6136 Y48.3337 
G01 X66.5648 Y48.4177 
G01 X66.5393 Y48.5119 
G01 X66.5391 Y48.6096 
G01 X66.5644 Y48.7045 
G01 X67.3723 Y50.6664 
G01 X67.4095 Y50.7569 
G01 X67.4692 Y50.8350 
G01 X67.5470 Y50.8950 
G01 X67.6377 Y50.9327 
G01 X67.9763 Y51.0729 
G01 X68.0528 Y51.1494 
G01 X68.1379 Y51.1986 
G01 X68.1919 Y51.2130 
G01 X71.7853 Y51.2240 
G01 X71.8803 Y51.1986 
G01 X71.9653 Y51.1494 
G01 X72.9154 Y50.1994 
G01 X72.9674 Y50.1474 
G01 X73.0042 Y50.0836 
G01 X73.0324 Y50.0156 
G01 X73.0420 Y49.9427 
G01 X73.0420 Y49.8691 
G01 X73.0229 Y49.7980 
G01 X73.0172 Y49.2758 
G01 X73.0410 Y49.2183 
G01 X73.0601 Y49.1472 
G01 X73.0601 Y49.0736 
G01 X73.0505 Y49.0007 
G01 X73.0223 Y48.9327 
G01 X72.9855 Y48.8689 
G01 X72.9335 Y48.8169 
G01 X72.8751 Y48.7721 
G01 X72.8071 Y48.7439 
G01 X72.7360 Y48.7249 
G01 X72.6624 Y48.7249 
G01 X71.5590 Y48.7249 
G01 X71.2154 Y48.5826 
G01 X70.9524 Y48.3196 
G01 X70.8101 Y47.9760 
G01 X70.8101 Y24.0172 
G01 X70.8101 Y23.9255 
G01 X70.7957 Y23.8718 
G01 X70.7795 Y23.8187 
G01 X70.7355 Y23.7455 
G01 X70.6660 Y23.6760 
G01 X70.5810 Y23.6268 
G01 X70.5273 Y23.6125 
G01 X70.4732 Y23.5999 
G01 X70.3878 Y23.6014 
G01 X70.3341 Y23.6158 
G01 X70.2810 Y23.6320 
G01 X70.2078 Y23.6760 
G01 X70.1383 Y23.7455 
G01 X70.0891 Y23.8306 
G01 X70.0748 Y23.8842 
G01 X70.0576 Y23.9445 
G01 X70.0527 Y24.0132 
G01 X70.0310 Y24.0734 
G01 X70.0191 Y24.1243 
G01 X69.9777 Y24.1824 
G01 X69.9458 Y24.2462 
G01 X69.8814 Y24.3172 
G01 X69.3677 Y25.0363 
G01 X69.3256 Y25.0952 
G01 X69.2721 Y25.1701 
G01 X69.1999 Y25.2307 
G01 X69.1442 Y25.2771 
G01 X68.8055 Y25.5594 
G01 X68.7380 Y25.6296 
G01 X68.6910 Y25.7150 
G01 X68.6714 Y25.7681 
G01 X68.6622 Y25.8509 
G01 X68.6696 Y25.9071 
G01 X68.6793 Y25.9628 
G01 X68.8680 Y26.4141 
G01 X68.8680 Y27.0459 
G01 X68.6262 Y27.6295 
G01 X68.1795 Y28.0762 
G01 X67.5959 Y28.3180 
G01 X66.9641 Y28.3180 
G01 X66.3805 Y28.0762 
G01 X65.9338 Y27.6295 
G01 X65.6920 Y27.0459 
G01 X65.6920 Y26.4141 
G01 X65.9338 Y25.8305 
G01 X66.3805 Y25.3838 
G01 X66.9641 Y25.1420 
G01 X67.3048 Y25.1420 
G01 X67.3709 Y25.1420 
G01 X67.4337 Y25.1282 
G01 X67.4937 Y25.1005 
G01 X67.5509 Y25.0674 
G01 X67.6348 Y24.9937 
G01 X67.6971 Y24.9418 
G01 X67.7551 Y24.8905 
G01 X67.8331 Y24.8307 
G01 X68.3589 Y24.3903 
G01 X68.4250 Y24.3191 
G01 X68.8035 Y23.7891 
G01 X68.8579 Y23.7131 
G01 X68.8768 Y23.6626 
G01 X68.8944 Y23.6117 
G01 X68.9018 Y23.5233 
G01 X68.9198 Y23.2556 
G01 X68.9258 Y23.1710 
G01 X68.9140 Y23.1097 
G01 X68.8979 Y23.0494 
G01 X68.8643 Y22.9862 
G01 X68.7999 Y22.9119 
G01 X68.7482 Y22.8769 
G01 X68.6941 Y22.8457 
G01 X68.6257 Y22.8247 
G01 X68.5634 Y22.8203 
G01 X68.5010 Y22.8203 
G01 X68.4312 Y22.8363 
G01 X68.3750 Y22.8636 
G01 X68.3209 Y22.8948 
G01 X68.2685 Y22.9436 
G01 X68.1795 Y23.0362 
G01 X67.5959 Y23.2780 
G01 X66.9641 Y23.2780 
G01 X66.3805 Y23.0362 
G01 X65.9338 Y22.5895 
G01 X65.6920 Y22.0059 
G01 X65.6920 Y21.3741 
G01 X65.9400 Y20.7755 
G01 X65.9776 Y20.6847 
G01 X65.9869 Y20.6140 
G01 X65.9776 Y20.4898 
G01 X65.9520 Y20.4281 
G01 X65.9543 Y20.3590 
G01 X65.9574 Y20.2672 
G01 X65.9560 Y13.0507 
G01 X65.9306 Y12.9557 
G01 X65.8814 Y12.8706 
G01 X65.8119 Y12.8012 
G01 X64.3453 Y11.3346 
G01 X64.2602 Y11.2854 
G01 X64.1653 Y11.2600 
G01 X62.3267 Y11.2600 
G01 X62.2317 Y11.2854 
G01 X62.1466 Y11.3346 
G01 X62.0772 Y11.4040 
G01 X57.2317 Y16.2495 
G01 X57.1650 Y16.2774 
G01 X57.1066 Y16.3221 
G01 X57.0546 Y16.3742 
G01 X57.0178 Y16.4379 
G01 X56.9896 Y16.5059 
G01 X56.9800 Y16.5789 
G01 X56.9800 Y28.0973 
G01 X57.0054 Y28.1923 
G01 X57.0546 Y28.2773 
G01 X58.8959 Y30.1187 
G01 X58.9479 Y30.1707 
G01 X59.0117 Y30.2075 
G01 X59.0797 Y30.2357 
G01 X59.1526 Y30.2453 
G01 X59.2262 Y30.2453 
G01 X59.2973 Y30.2262 
G01 X59.4041 Y30.1820 
G01 X60.0359 Y30.1820 
G01 X60.6195 Y30.4238 
G01 X61.0662 Y30.8705 
G01 X61.3080 Y31.4541 
G01 X61.3080 Y32.0859 
G01 X61.1353 Y32.5029 
G01 X61.1071 Y32.5709 
G01 X61.0975 Y32.6439 
G01 X61.0975 Y32.7174 
G01 X61.1165 Y32.7885 
G01 X61.1447 Y32.8565 
G01 X61.1895 Y32.9149 
G01 X61.2415 Y32.9669 
G01 X61.3053 Y33.0037 
G01 X61.3733 Y33.0319 
G01 X61.4462 Y33.0415 
G01 X61.5198 Y33.0415 
G01 X61.5909 Y33.0225 
G01 X61.6589 Y32.9943 
G01 X61.7173 Y32.9495 
G01 X62.3254 Y32.3413 
G01 X62.3746 Y32.2563 
G01 X62.4000 Y32.1613 
G01 X62.4000 Y30.5852 
G01 X62.4000 Y30.5154 
G01 X62.3883 Y30.4598 
G01 X62.3603 Y30.3959 
G01 X62.3254 Y30.3354 
G01 X61.5648 Y29.3896 
G01 X61.5164 Y29.3292 
G01 X60.5582 Y28.3755 
G01 X60.5062 Y28.3234 
G01 X60.4425 Y28.2866 
G01 X60.3745 Y28.2584 
G01 X60.3015 Y28.2488 
G01 X60.2279 Y28.2488 
G01 X60.1568 Y28.2679 
G01 X60.0359 Y28.3180 
G01 X59.4041 Y28.3180 
G01 X58.8205 Y28.0762 
G01 X58.3738 Y27.6295 
G01 X58.1320 Y27.0459 
G01 X58.1320 Y26.4141 
G01 X58.3738 Y25.8305 
G01 X58.8205 Y25.3838 
G01 X59.4041 Y25.1420 
G01 X60.0359 Y25.1420 
G01 X60.6195 Y25.3838 
G01 X61.0662 Y25.8305 
G01 X61.3080 Y26.4141 
G01 X61.3080 Y27.0459 
G01 X61.2819 Y27.1006 
G01 X61.2628 Y27.1717 
G01 X61.2532 Y27.2446 
G01 X61.2628 Y27.3176 
G01 X61.2818 Y27.3887 
G01 X61.3187 Y27.4524 
G01 X61.3634 Y27.5108 
G01 X61.7582 Y27.9010 
G01 X61.8102 Y27.9530 
G01 X61.8740 Y27.9898 
G01 X61.9420 Y28.0180 
G01 X62.0149 Y28.0276 
G01 X62.0885 Y28.0276 
G01 X62.1596 Y28.0086 
G01 X62.2276 Y27.9804 
G01 X62.2860 Y27.9356 
G01 X62.3380 Y27.8836 
G01 X62.3748 Y27.8198 
G01 X62.4030 Y27.7518 
G01 X62.4126 Y27.6789 
G01 X62.4126 Y27.6053 
G01 X62.4000 Y27.5498 
G01 X62.4000 Y25.2427 
G01 X62.3746 Y25.1477 
G01 X62.3254 Y25.0626 
G01 X60.5865 Y23.3237 
G01 X60.5345 Y23.2717 
G01 X60.4708 Y23.2349 
G01 X60.4028 Y23.2067 
G01 X60.3298 Y23.1971 
G01 X60.2562 Y23.1971 
G01 X60.1851 Y23.2162 
G01 X60.0359 Y23.2780 
G01 X59.4041 Y23.2780 
G01 X58.8205 Y23.0362 
G01 X58.3738 Y22.5895 
G01 X58.1320 Y22.0059 
G01 X58.1320 Y21.3741 
G01 X58.3738 Y20.7905 
G01 X58.8205 Y20.3438 
G01 X59.4041 Y20.1020 
G01 X59.5359 Y20.1020 
G01 X59.6309 Y20.0766 
G01 X59.7159 Y20.0274 
G01 X59.7854 Y19.9579 
G01 X59.8346 Y19.8728 
G01 X59.8600 Y19.7779 
G01 X59.8600 Y16.6462 
G01 X59.9501 Y16.4287 
G01 X60.2039 Y16.1749 
G01 X62.0134 Y14.3653 
G01 X62.0626 Y14.2803 
G01 X62.0880 Y14.1853 
G01 X62.0880 Y12.8888 
G01 X62.2542 Y12.4874 
G01 X62.5614 Y12.1802 
G01 X62.9628 Y12.0140 
G01 X63.3972 Y12.0140 
G01 X63.7986 Y12.1802 
G01 X64.1058 Y12.4874 
G01 X64.2720 Y12.8888 
G01 X64.2720 Y14.8312 
G01 X64.1058 Y15.2326 
G01 X63.7986 Y15.5397 
G01 X63.3972 Y15.7060 
G01 X62.9628 Y15.7060 
G01 X62.7805 Y15.6305 
G01 X62.7125 Y15.6023 
G01 X62.6395 Y15.5927 
G01 X62.5659 Y15.5927 
G01 X62.4949 Y15.6118 
G01 X62.4269 Y15.6399 
G01 X62.3685 Y15.6847 
G01 X61.1186 Y16.9346 
G01 X61.0694 Y17.0197 
G01 X61.0440 Y17.1147 
G01 X61.0440 Y20.4378 
G01 X61.0224 Y20.4898 
G01 X61.0096 Y20.5873 
G01 X61.0224 Y20.6847 
G01 X61.0600 Y20.7755 
G01 X61.3080 Y21.3741 
G01 X61.3080 Y22.0059 
G01 X61.2872 Y22.0561 
G01 X61.2681 Y22.1272 
G01 X61.2681 Y22.2008 
G01 X61.2777 Y22.2738 
G01 X61.3059 Y22.3418 
G01 X61.3427 Y22.4055 
G01 X61.3947 Y22.4575 
G01 X63.4939 Y24.5567 
G01 X63.5840 Y24.7742 
G01 X63.5840 Y27.0813 
G01 X63.6094 Y27.1762 
G01 X63.6586 Y27.2613 
G01 X66.4983 Y30.1011 
G01 X66.5504 Y30.1532 
G01 X66.6141 Y30.1900 
G01 X66.6821 Y30.2181 
G01 X66.7551 Y30.2277 
G01 X66.8286 Y30.2277 
G01 X66.8997 Y30.2087 
G01 X66.9641 Y30.1820 
G01 X67.5959 Y30.1820 
G01 X68.1795 Y30.4238 
G01 X68.6262 Y30.8705 
G01 X68.8680 Y31.4541 
G01 X68.8680 Y32.0859 
G01 X68.6262 Y32.6695 
G01 X68.1795 Y33.1162 
G01 X67.5959 Y33.3580 
G01 X66.9641 Y33.3580 
G01 X66.3805 Y33.1162 
G01 X65.9338 Y32.6695 
G01 X65.6920 Y32.0859 
G01 X65.6920 Y31.4541 
G01 X65.7292 Y31.3642 
G01 X65.7574 Y31.2962 
G01 X65.7670 Y31.2233 
G01 X65.7670 Y31.1497 
G01 X65.7480 Y31.0786 
G01 X65.7198 Y31.0106 
G01 X65.6750 Y30.9522 
G01 X63.7348 Y29.0120 
G01 X63.6608 Y28.9484 
G01 X63.6003 Y28.9135 
G01 X63.5463 Y28.8958 
G01 X63.4769 Y28.8881 
G01 X63.4071 Y28.8881 
G01 X63.3515 Y28.8997 
G01 X63.2876 Y28.9277 
G01 X63.2271 Y28.9626 
G01 X63.1724 Y29.0173 
G01 X63.1265 Y29.0797 
G01 X63.1011 Y29.1447 
G01 X63.0831 Y29.2121 
G01 X63.0799 Y29.2689 
G01 X63.0904 Y29.3379 
G01 X63.1085 Y29.4053 
G01 X63.1341 Y29.4560 
G01 X63.1777 Y29.5105 
G01 X63.4032 Y29.7924 
G01 X63.4516 Y29.8528 
G01 X63.5053 Y29.9182 
G01 X63.5379 Y29.9827 
G01 X63.5594 Y30.0571 
G01 X63.5840 Y30.1082 
G01 X63.5934 Y30.1743 
G01 X63.5840 Y30.2303 
G01 X63.5809 Y30.2871 
G01 X63.5840 Y32.6298 
G01 X63.4939 Y32.8473 
G01 X63.2401 Y33.1011 
G01 X60.7873 Y35.5539 
G01 X60.5698 Y35.6440 
G01 X53.7302 Y35.6440 
G01 X53.5127 Y35.5539 
G01 X53.3461 Y35.3873 
G01 X53.2560 Y35.1698 
G01 X53.2560 Y15.0699 
G01 X53.2560 Y14.9963 
G01 X53.2370 Y14.9253 
G01 X53.1980 Y14.8312 
G01 X53.1980 Y12.8888 
G01 X53.3642 Y12.4874 
G01 X53.6714 Y12.1802 
G01 X54.0728 Y12.0140 
G01 X54.5072 Y12.0140 
G01 X54.9086 Y12.1802 
G01 X55.2157 Y12.4874 
G01 X55.3820 Y12.8888 
G01 X55.3820 Y14.8312 
G01 X55.3417 Y14.9284 
G01 X55.3136 Y14.9964 
G01 X55.3040 Y15.0694 
G01 X55.3040 Y15.1430 
G01 X55.3230 Y15.2141 
G01 X55.3512 Y15.2820 
G01 X55.3960 Y15.3404 
G01 X55.4480 Y15.3925 
G01 X55.5117 Y15.4293 
G01 X55.5797 Y15.4574 
G01 X55.6527 Y15.4670 
G01 X55.7263 Y15.4670 
G01 X55.7974 Y15.4480 
G01 X55.8654 Y15.4198 
G01 X55.9237 Y15.3750 
G01 X56.0527 Y15.2461 
G01 X56.2702 Y15.1560 
G01 X56.5453 Y15.1560 
G01 X56.6403 Y15.1306 
G01 X56.7253 Y15.0814 
G01 X56.7948 Y15.0119 
G01 X60.6079 Y11.1989 
G01 X60.6599 Y11.1469 
G01 X60.6967 Y11.0831 
G01 X60.7249 Y11.0151 
G01 X60.7345 Y10.9422 
G01 X60.7345 Y10.8686 
G01 X60.7154 Y10.7975 
G01 X60.6873 Y10.7295 
G01 X60.6425 Y10.6711 
G01 X60.5904 Y10.6191 
G01 X60.5267 Y10.5823 
G01 X60.4587 Y10.5541 
G01 X60.3857 Y10.5445 
G01 X60.3121 Y10.5445 
G01 X60.2411 Y10.5636 
G01 X59.8972 Y10.7060 
G01 X59.4628 Y10.7060 
G01 X59.0614 Y10.5397 
G01 X58.7542 Y10.2326 
G01 X58.5880 Y9.8312 
G01 X58.5880 Y7.8888 
G01 X58.7542 Y7.4874 
G01 X59.0614 Y7.1802 
G01 X59.4628 Y7.0140 
G01 X59.8972 Y7.0140 
G01 X60.2986 Y7.1802 
G01 X60.6058 Y7.4874 
G01 X60.7720 Y7.8888 
G01 X60.7720 Y8.7252 
G01 X60.7720 Y8.7924 
G01 X60.7852 Y8.8531 
G01 X60.8130 Y8.9143 
G01 X60.8466 Y8.9724 
G01 X60.9031 Y9.0290 
G01 X61.7171 Y9.6104 
G01 X61.8023 Y9.6577 
G01 X61.8648 Y9.7196 
G01 X61.9299 Y9.7846 
G01 X62.1467 Y10.0014 
G01 X62.2317 Y10.0506 
G01 X62.3267 Y10.0760 
G01 X64.6338 Y10.0760 
G01 X64.8513 Y10.1661 
G01 X66.8656 Y12.1804 
G01 X67.0499 Y12.3646 
G01 X67.1400 Y12.5822 
G01 X67.1400 Y19.7779 
G01 X67.1654 Y19.8728 
G01 X67.2146 Y19.9579 
G01 X67.2840 Y20.0274 
G01 X67.3691 Y20.0766 
G01 X67.4641 Y20.1020 
G01 X67.5959 Y20.1020 
G01 X68.1795 Y20.3438 
G01 X68.4773 Y20.6415 
G01 X68.5524 Y20.7036 
G01 X68.6065 Y20.7348 
G01 X68.6750 Y20.7558 
G01 X68.7372 Y20.7602 
G01 X68.7997 Y20.7602 
G01 X68.8695 Y20.7441 
G01 X68.9256 Y20.7169 
G01 X68.9797 Y20.6856 
G01 X69.0321 Y20.6368 
G01 X69.0671 Y20.5851 
G01 X69.0983 Y20.5311 
G01 X69.1193 Y20.4626 
G01 X69.1238 Y20.4003 
G01 X69.1275 Y20.3477 
G01 X69.1335 Y20.2631 
G01 X69.1310 Y12.9118 
G01 X69.1310 Y12.8219 
G01 X69.1162 Y12.7665 
G01 X69.0989 Y12.7117 
G01 X69.0564 Y12.6419 
G01 X68.9869 Y12.5724 
G01 X62.1130 Y6.2835 
G01 X62.0345 Y6.2259 
G01 X61.9835 Y6.1994 
G01 X61.9041 Y6.1800 
G01 X61.8467 Y6.1800 
G01 X54.1987 Y6.1800 
G01 X54.1037 Y6.2054 
G01 X54.0186 Y6.2546 
G01 X53.9492 Y6.3240 
G01 X51.9566 Y8.3166 
G01 X51.9074 Y8.4017 
G01 X51.8820 Y8.4967 
G01 X51.8820 Y9.8312 
G01 X51.7157 Y10.2326 
G01 X51.4086 Y10.5397 
G01 X51.0072 Y10.7060 
G01 X50.5728 Y10.7060 
G01 X50.1714 Y10.5397 
G01 X49.8642 Y10.2326 
G01 X49.6980 Y9.8312 
G01 X49.6980 Y7.8888 
G01 X49.8642 Y7.4874 
G01 X50.1714 Y7.1802 
G01 X50.5728 Y7.0140 
G01 X51.0072 Y7.0140 
G01 X51.1626 Y7.0784 
G01 X51.2306 Y7.1065 
G01 X51.3036 Y7.1161 
G01 X51.3772 Y7.1161 
G01 X51.4483 Y7.0971 
G01 X51.5163 Y7.0689 
G01 X51.5746 Y7.0241 
G01 X53.3284 Y5.2704 
G01 X53.5127 Y5.0861 
G01 X53.7302 Y4.9960 
G01 X62.1679 Y4.9960 
G01 X62.2578 Y4.9960 
G01 X62.3274 Y4.9911 
G01 X62.3992 Y5.0173 
G01 X62.4822 Y5.0517 
G01 X62.5485 Y5.0738 
G01 X62.6047 Y5.1255 
G01 X62.6683 Y5.1890 
G01 X69.9732 Y11.8725 
G01 X70.0336 Y11.9278 
G01 X70.0977 Y11.9834 
G01 X70.1612 Y12.0470 
G01 X70.2140 Y12.0928 
G01 X70.2462 Y12.1620 
G01 X70.2806 Y12.2451 
G01 X70.3117 Y12.3076 
G01 X70.3150 Y12.3839 
G01 X70.3150 Y12.4738 
G01 X70.3199 Y12.5434 
G01 X70.3150 Y12.5997 
G01 X70.3150 Y17.0460 
G01 X70.3404 Y17.1409 
G01 X70.3720 Y17.1956 
G01 X70.4590 Y17.2955 
G01 X70.5123 Y17.3263 
G01 X70.6391 Y17.3701 
G01 X70.7373 Y17.3701 
G01 X70.8322 Y17.3446 
G01 X70.8869 Y17.3131 
G01 X71.2154 Y16.9974 
G01 X71.5590 Y16.8551 
G01 X75.6180 Y16.8551 
G01 X75.7130 Y16.8297 
G01 X75.7676 Y16.7981 
G01 X75.8675 Y16.7110 
G01 X75.8983 Y16.6578 
G01 X75.9421 Y16.5310 
G01 X75.9421 Y16.4328 
G01 X75.9167 Y16.3378 
G01 X75.8851 Y16.2832 
G01 X75.6373 Y16.0226 
G01 X75.3698 Y15.7551 
G01 X75.3178 Y15.7030 
G01 X75.2541 Y15.6662 
G01 X75.1861 Y15.6381 
G01 X75.1131 Y15.6285 
G01 X75.0395 Y15.6285 
G01 X74.9684 Y15.6475 
G01 X74.8272 Y15.7060 
G01 X74.3928 Y15.7060 
G01 X73.9914 Y15.5397 
G01 X73.6842 Y15.2326 
G01 X73.5180 Y14.8312 
G01 X73.5180 Y12.8888 
G01 X73.6842 Y12.4874 
G01 X73.9914 Y12.1802 
G01 X74.3928 Y12.0140 
G01 X74.8272 Y12.0140 
G01 X75.2286 Y12.1802 
G01 X75.5357 Y12.4874 
G01 X75.7020 Y12.8888 
G01 X75.7020 Y14.3073 
G01 X75.7274 Y14.4023 
G01 X75.7766 Y14.4873 
G01 X75.8460 Y14.5568 
G01 X76.3706 Y15.0814 
G01 X76.4557 Y15.1306 
G01 X76.5507 Y15.1560 
G01 X83.9378 Y15.1560 
G01 X84.1539 Y15.2455 
G01 X84.2246 Y15.3063 
G01 X84.2883 Y15.3431 
G01 X84.3594 Y15.3622 
G01 X84.4324 Y15.3718 
G01 X84.5053 Y15.3622 
G01 X84.5764 Y15.3431 
G01 X84.8358 Y15.2322 
G01 X85.3442 Y15.2322 
G01 X85.8138 Y15.4267 
G01 X86.1733 Y15.7862 
G01 X86.3678 Y16.2558 
G01 X86.3678 Y16.5310 
G01 X86.3932 Y16.6259 
G01 X86.4424 Y16.7110 
G01 X86.5118 Y16.7805 
G01 X86.5969 Y16.8297 
G01 X86.6919 Y16.8551 
G01 X87.8100 Y16.8551 
G01 X87.9050 Y16.8297 
G01 X87.9901 Y16.7805 
G01 X88.0595 Y16.7110 
G01 X88.1087 Y16.6259 
G01 X88.1341 Y16.5310 
G01 X88.1341 Y16.4328 
G01 X88.1087 Y16.3378 
G01 X88.0595 Y16.2527 
G01 X87.9901 Y16.1833 
G01 X85.1733 Y13.3666 
G01 X85.0883 Y13.3174 
G01 X84.9974 Y13.2931 
G01 X81.1622 Y13.2920 
G01 X80.9446 Y13.2019 
G01 X80.7604 Y13.0176 
G01 X79.0773 Y11.3346 
G01 X78.9922 Y11.2854 
G01 X78.9014 Y11.2611 
G01 X72.5262 Y11.2600 
G01 X72.3087 Y11.1699 
G01 X72.1244 Y10.9856 
G01 X72.0549 Y10.9161 
G01 X71.8868 Y10.7480 
G01 X71.8348 Y10.6960 
G01 X71.7710 Y10.6592 
G01 X71.7031 Y10.6310 
G01 X71.6301 Y10.6214 
G01 X71.5565 Y10.6214 
G01 X71.4854 Y10.6405 
G01 X71.3272 Y10.7060 
G01 X70.8928 Y10.7060 
G01 X70.4914 Y10.5397 
G01 X70.1842 Y10.2326 
G01 X70.0180 Y9.8312 
G01 X70.0180 Y7.8888 
G01 X70.1842 Y7.4874 
G01 X70.4914 Y7.1802 
G01 X70.8928 Y7.0140 
G01 X71.3272 Y7.0140 
G01 X71.7286 Y7.1802 
G01 X72.0357 Y7.4874 
G01 X72.2020 Y7.8888 
G01 X72.2020 Y9.2833 
G01 X72.2274 Y9.3783 
G01 X72.2766 Y9.4634 
G01 X72.3460 Y9.5328 
G01 X72.8146 Y10.0014 
G01 X72.8997 Y10.0506 
G01 X72.9947 Y10.0760 
G01 X79.3658 Y10.0760 
G01 X79.5833 Y10.1661 
G01 X79.6457 Y10.2285 
G01 X79.7095 Y10.2653 
G01 X79.7775 Y10.2935 
G01 X79.8504 Y10.3031 
G01 X79.9240 Y10.3031 
G01 X79.9951 Y10.2841 
G01 X80.0631 Y10.2559 
G01 X80.1215 Y10.2111 
G01 X80.1735 Y10.1591 
G01 X80.2103 Y10.0953 
G01 X80.2385 Y10.0273 
G01 X80.2481 Y9.9544 
G01 X80.2481 Y9.8808 
G01 X80.2290 Y9.8097 
G01 X80.0540 Y9.3871 
G01 X80.0540 Y8.6129 
G01 X80.3503 Y7.8977 
G01 X80.8977 Y7.3503 
G01 X81.6129 Y7.0540 
G01 X82.2545 Y7.0540 
G01 X82.3215 Y7.0540 
G01 X82.3826 Y7.0407 
G01 X82.4435 Y7.0129 
G01 X82.5016 Y6.9794 
G01 X82.5583 Y6.9227 
G01 X82.6048 Y6.8574 
G01 X82.6283 Y6.7947 
G01 X82.6456 Y6.7299 
G01 X82.6486 Y6.6676 
G01 X82.6375 Y6.6015 
G01 X82.6202 Y6.5367 
G01 X82.5916 Y6.4812 
G01 X82.5490 Y6.4296 
G01 X78.4209 Y1.4246 
G01 X78.3699 Y1.3627 
G01 X78.3153 Y1.3238 
G01 X78.2573 Y1.2903 
G01 X78.1979 Y1.2713 
G01 X78.1312 Y1.2649 
G01 X77.7679 Y1.2649 
G01 X77.7086 Y1.2808 
G01 X77.5879 Y1.3395 
G01 X77.5184 Y1.4089 
G01 X77.4693 Y1.4940 
G01 X77.4439 Y1.5890 
G01 X77.4439 Y1.6872 
G01 X77.4598 Y1.7466 
G01 X77.5185 Y1.8673 
G01 X77.5781 Y1.9269 
G01 X77.6500 Y2.1004 
G01 X77.6500 Y5.5168 
G01 X77.5781 Y5.6903 
G01 X77.4453 Y5.8231 
G01 X77.2718 Y5.8950 
G01 X74.9316 Y5.8950 
G01 X74.7581 Y5.8231 
G01 X74.5768 Y5.6418 
G01 X74.4917 Y5.5926 
G01 X74.4177 Y5.5728 
G01 X74.2985 Y5.5672 
G01 X74.2036 Y5.5926 
G01 X74.1185 Y5.6418 
G01 X74.0490 Y5.7113 
G01 X73.9371 Y5.8231 
G01 X73.7636 Y5.8950 
G01 X73.5758 Y5.8950 
G01 X73.4023 Y5.8231 
G01 X73.2695 Y5.6903 
G01 X73.1976 Y5.5168 
G01 X73.1976 Y4.9982 
G01 X73.1976 Y4.9370 
G01 X73.1807 Y4.8648 
G01 X73.1536 Y4.8100 
G01 X73.1230 Y4.7570 
G01 X73.0723 Y4.7029 
G01 X73.0214 Y4.6690 
G01 X72.9685 Y4.6384 
G01 X72.8975 Y4.6169 
G01 X72.8364 Y4.6130 
G01 X72.7753 Y4.6130 
G01 X72.7030 Y4.6299 
G01 X72.6482 Y4.6570 
G01 X72.5953 Y4.6875 
G01 X72.5411 Y4.7383 
G01 X72.5072 Y4.7891 
G01 X71.9630 Y5.6055 
G01 X71.9288 Y5.6567 
G01 X71.8910 Y5.7135 
G01 X71.8273 Y5.7805 
G01 X71.7513 Y5.8344 
G01 X71.6669 Y5.8719 
G01 X71.6113 Y5.8949 
G01 X71.5519 Y5.8950 
G01 X71.4837 Y5.8950 
G01 X71.4235 Y5.8949 
G01 X71.3686 Y5.8723 
G01 X71.3056 Y5.8462 
G01 X71.2500 Y5.8231 
G01 X71.1774 Y5.7635 
G01 X71.1172 Y5.6903 
G01 X71.0944 Y5.6355 
G01 X71.0683 Y5.5725 
G01 X71.0453 Y5.5168 
G01 X71.0452 Y5.4575 
G01 X71.0452 Y5.3892 
G01 X71.0452 Y5.3277 
G01 X71.0452 Y2.1004 
G01 X71.1171 Y1.9269 
G01 X71.1768 Y1.8673 
G01 X71.2259 Y1.7822 
G01 X71.2513 Y1.6872 
G01 X71.2513 Y1.5890 
G01 X71.2259 Y1.4940 
G01 X71.1768 Y1.4089 
G01 X71.1073 Y1.3395 
G01 X71.0222 Y1.2903 
G01 X70.9273 Y1.2649 
G01 X63.2588 Y1.2649 
G01 X63.1639 Y1.2903 
G01 X63.0788 Y1.3395 
G01 X63.0093 Y1.4089 
G01 X62.9602 Y1.4940 
G01 X62.9347 Y1.5890 
G01 X62.9347 Y1.6872 
G01 X62.9602 Y1.7821 
G01 X63.0093 Y1.8672 
G01 X63.0788 Y1.9367 
G01 X63.6313 Y2.4893 
G01 X63.6800 Y2.6068 
G01 X63.6800 Y2.7340 
G01 X63.6313 Y2.8515 
G01 X63.5811 Y2.9017 
G01 X63.5291 Y2.9629 
G01 X63.4925 Y3.0263 
G01 X63.4670 Y3.1212 
G01 X63.4670 Y3.2195 
G01 X63.4872 Y3.2947 
G01 X63.5278 Y3.3756 
G01 X63.5799 Y3.4378 
G01 X63.6313 Y3.4892 
G01 X63.6800 Y3.6067 
G01 X63.6800 Y3.7339 
G01 X63.6313 Y3.8514 
G01 X63.5414 Y3.9413 
G01 X63.4239 Y3.9900 
G01 X62.2968 Y3.9900 
G01 X62.1793 Y3.9413 
G01 X62.1025 Y3.8829 
G01 X62.0256 Y3.8494 
G01 X61.9659 Y3.8334 
G01 X61.8676 Y3.8334 
G01 X61.8087 Y3.8492 
G01 X61.7321 Y3.8823 
G01 X61.6558 Y3.9397 
G01 X61.5368 Y3.9900 
G01 X60.9096 Y3.9900 
G01 X60.7921 Y3.9413 
G01 X60.5599 Y3.7091 
G01 X60.4522 Y3.6014 
G01 X60.4035 Y3.4839 
G01 X60.4035 Y2.8568 
G01 X60.4522 Y2.7393 
G01 X60.6844 Y2.5070 
G01 X60.7921 Y2.3994 
G01 X60.9096 Y2.3507 
G01 X61.5368 Y2.3507 
G01 X61.6543 Y2.3994 
G01 X61.8179 Y2.5630 
G01 X61.8688 Y2.6139 
G01 X61.9383 Y2.6834 
G01 X62.0234 Y2.7325 
G01 X62.0902 Y2.7504 
G01 X62.2166 Y2.7580 
G01 X62.3115 Y2.7325 
G01 X62.3808 Y2.6925 
G01 X62.4345 Y2.6455 
G01 X62.5152 Y2.5288 
G01 X62.5331 Y2.4620 
G01 X62.5406 Y2.1068 
G01 X62.5893 Y1.9893 
G01 X62.7114 Y1.8673 
G01 X62.7605 Y1.7821 
G01 X62.7768 Y1.7214 
G01 X62.7860 Y1.5890 
G01 X62.7677 Y1.5210 
G01 X62.7381 Y1.4552 
G01 X62.6419 Y1.3395 
G01 X62.5568 Y1.2903 
G01 X62.4960 Y1.2740 
G01 X54.3688 Y1.2649 
G01 X54.2739 Y1.2903 
G01 X54.1888 Y1.3395 
G01 X54.1193 Y1.4089 
G01 X54.0702 Y1.4940 
G01 X54.0499 Y1.5698 
G01 X54.0447 Y1.6872 
G01 X54.0702 Y1.7821 
G01 X54.1193 Y1.8672 
G01 X54.7413 Y2.4893 
G01 X54.7900 Y2.6068 
G01 X54.7900 Y2.7340 
G01 X54.7413 Y2.8515 
G01 X54.6911 Y2.9017 
G01 X54.6391 Y2.9629 
G01 X54.6025 Y3.0263 
G01 X54.5770 Y3.1212 
G01 X54.5770 Y3.2195 
G01 X54.5972 Y3.2947 
G01 X54.6378 Y3.3756 
G01 X54.6899 Y3.4378 
G01 X54.7413 Y3.4892 
G01 X54.7900 Y3.6067 
G01 X54.7900 Y3.7339 
G01 X54.7413 Y3.8514 
G01 X54.6514 Y3.9413 
G01 X54.5339 Y3.9900 
G01 X53.4068 Y3.9900 
G01 X53.3400 Y3.9623 
G01 X53.2492 Y3.9247 
G01 X53.1518 Y3.9119 
G01 X53.0543 Y3.9247 
G01 X52.8967 Y3.9900 
G01 X52.2696 Y3.9900 
G01 X52.1521 Y3.9413 
G01 X52.0622 Y3.8514 
G01 X52.0135 Y3.7339 
G01 X52.0135 Y3.6067 
G01 X52.0622 Y3.4892 
G01 X52.1889 Y3.3625 
G01 X52.2380 Y3.2774 
G01 X52.2635 Y3.1824 
G01 X52.2635 Y2.6068 
G01 X52.2997 Y2.5193 
G01 X52.3131 Y2.4204 
G01 X52.3014 Y2.3312 
G01 X52.2635 Y2.2340 
G01 X52.2635 Y1.8568 
G01 X52.2856 Y1.8035 
G01 X52.3137 Y1.7355 
G01 X52.3233 Y1.6626 
G01 X52.3233 Y1.5890 
G01 X52.3043 Y1.5179 
G01 X52.2761 Y1.4499 
G01 X52.2313 Y1.3915 
G01 X52.1793 Y1.3395 
G01 X52.1156 Y1.3027 
G01 X52.0476 Y1.2745 
G01 X51.9746 Y1.2649 
G01 X45.7288 Y1.2649 
G01 X45.6339 Y1.2903 
G01 X45.5697 Y1.3274 
G01 X45.4804 Y1.4079 
G01 X45.4301 Y1.4940 
G01 X45.4047 Y1.5890 
G01 X45.4047 Y1.6872 
G01 X45.4301 Y1.7821 
G01 X45.4672 Y1.8463 
G01 X45.6191 Y2.0071 
G01 X45.6886 Y2.0766 
G01 X45.8513 Y2.2393 
G01 X45.9000 Y2.3568 
G01 X45.9000 Y2.4840 
G01 X45.8513 Y2.6015 
G01 X45.7641 Y2.6887 
G01 X45.7119 Y2.7188 
G01 X45.6535 Y2.7636 
G01 X45.6087 Y2.8220 
G01 X45.5719 Y2.8857 
G01 X45.5529 Y2.9568 
G01 X45.5433 Y3.0298 
G01 X45.5529 Y3.1028 
G01 X45.5719 Y3.1738 
G01 X45.6087 Y3.2376 
G01 X45.6535 Y3.2960 
G01 X45.8513 Y3.4892 
G01 X45.9000 Y3.6067 
G01 X45.9000 Y3.7339 
G01 X45.8513 Y3.8514 
G01 X45.7614 Y3.9413 
G01 X45.6439 Y3.9900 
G01 X44.5168 Y3.9900 
G01 X44.3993 Y3.9413 
G01 X44.3225 Y3.8829 
G01 X44.2456 Y3.8494 
G01 X44.1859 Y3.8334 
G01 X44.0876 Y3.8334 
G01 X44.0287 Y3.8492 
G01 X43.9521 Y3.8823 
G01 X43.8758 Y3.9397 
G01 X43.7568 Y3.9900 
G01 X43.1296 Y3.9900 
G01 X43.0121 Y3.9413 
G01 X42.7799 Y3.7091 
G01 X42.6722 Y3.6014 
G01 X42.6235 Y3.4839 
G01 X42.6235 Y2.8568 
G01 X42.6722 Y2.7393 
G01 X42.9044 Y2.5070 
G01 X43.0121 Y2.3994 
G01 X43.1296 Y2.3507 
G01 X43.7568 Y2.3507 
G01 X43.8409 Y2.3855 
G01 X43.9333 Y2.4115 
G01 X43.9871 Y2.4186 
G01 X44.0419 Y2.4113 
G01 X44.1336 Y2.3854 
G01 X44.2146 Y2.3379 
G01 X44.2818 Y2.2711 
G01 X44.5416 Y2.0071 
G01 X44.6814 Y1.8673 
G01 X44.7305 Y1.7821 
G01 X44.7450 Y1.7282 
G01 X44.7560 Y1.5890 
G01 X44.7305 Y1.4940 
G01 X44.6950 Y1.4324 
G01 X44.6119 Y1.3395 
G01 X44.5268 Y1.2903 
G01 X44.4729 Y1.2759 
G01 X36.8388 Y1.2649 
G01 X36.7439 Y1.2903 
G01 X36.6797 Y1.3274 
G01 X36.5904 Y1.4079 
G01 X36.5401 Y1.4940 
G01 X36.5147 Y1.5890 
G01 X36.5147 Y1.6872 
G01 X36.5401 Y1.7821 
G01 X36.5772 Y1.8463 
G01 X36.7291 Y2.0071 
G01 X36.7986 Y2.0766 
G01 X36.9613 Y2.2393 
G01 X37.0100 Y2.3568 
G01 X37.0100 Y2.4840 
G01 X36.9613 Y2.6015 
G01 X36.8741 Y2.6887 
G01 X36.8219 Y2.7188 
G01 X36.7635 Y2.7636 
G01 X36.7187 Y2.8220 
G01 X36.6819 Y2.8857 
G01 X36.6629 Y2.9568 
G01 X36.6533 Y3.0298 
G01 X36.6629 Y3.1028 
G01 X36.6819 Y3.1738 
G01 X36.7187 Y3.2376 
G01 X36.7635 Y3.2960 
G01 X36.9613 Y3.4892 
G01 X37.0100 Y3.6067 
G01 X37.0100 Y3.7339 
G01 X36.9613 Y3.8514 
G01 X36.8714 Y3.9413 
G01 X36.7539 Y3.9900 
G01 X35.6268 Y3.9900 
G01 X35.5600 Y3.9623 
G01 X35.4692 Y3.9247 
G01 X35.3718 Y3.9119 
G01 X35.2743 Y3.9247 
G01 X35.1167 Y3.9900 
G01 X34.4896 Y3.9900 
G01 X34.3721 Y3.9413 
G01 X34.2822 Y3.8514 
G01 X34.2335 Y3.7339 
G01 X34.2335 Y3.6067 
G01 X34.2822 Y3.4892 
G01 X34.4089 Y3.3625 
G01 X34.4580 Y3.2774 
G01 X34.4835 Y3.1824 
G01 X34.4835 Y2.6068 
G01 X34.5087 Y2.5458 
G01 X34.5275 Y2.4630 
G01 X34.5277 Y2.3788 
G01 X34.5203 Y2.3230 
G01 X34.4835 Y2.2340 
G01 X34.4835 Y1.8568 
G01 X34.5056 Y1.8035 
G01 X34.5337 Y1.7355 
G01 X34.5433 Y1.6626 
G01 X34.5433 Y1.5890 
G01 X34.5243 Y1.5179 
G01 X34.4961 Y1.4499 
G01 X34.4513 Y1.3915 
G01 X34.3993 Y1.3395 
G01 X34.3356 Y1.3027 
G01 X34.2676 Y1.2745 
G01 X34.1946 Y1.2649 
G01 X27.9488 Y1.2649 
G01 X27.8539 Y1.2903 
G01 X27.7897 Y1.3274 
G01 X27.7004 Y1.4079 
G01 X27.6501 Y1.4940 
G01 X27.6247 Y1.5890 
G01 X27.6247 Y1.6872 
G01 X27.6501 Y1.7821 
G01 X27.6872 Y1.8463 
G01 X27.8391 Y2.0071 
G01 X27.9086 Y2.0766 
G01 X28.0713 Y2.2393 
G01 X28.1200 Y2.3568 
G01 X28.1200 Y2.4840 
G01 X28.0713 Y2.6015 
G01 X28.0211 Y2.6517 
G01 X27.9691 Y2.7129 
G01 X27.9325 Y2.7763 
G01 X27.9070 Y2.8712 
G01 X27.9070 Y2.9695 
G01 X27.9272 Y3.0447 
G01 X27.9678 Y3.1256 
G01 X28.0199 Y3.1878 
G01 X28.0713 Y3.2392 
G01 X28.1200 Y3.3567 
G01 X28.1200 Y3.4839 
G01 X28.0713 Y3.6014 
G01 X27.7314 Y3.9413 
G01 X27.6139 Y3.9900 
G01 X26.9868 Y3.9900 
G01 X26.8693 Y3.9413 
G01 X26.7109 Y3.7830 
G01 X26.6607 Y3.7540 
G01 X26.5574 Y3.7155 
G01 X26.4326 Y3.7084 
G01 X26.3377 Y3.7338 
G01 X26.2526 Y3.7830 
G01 X26.1831 Y3.8525 
G01 X26.0943 Y3.9413 
G01 X25.9768 Y3.9900 
G01 X25.3496 Y3.9900 
G01 X25.2321 Y3.9413 
G01 X24.9999 Y3.7091 
G01 X24.8922 Y3.6014 
G01 X24.8435 Y3.4839 
G01 X24.8435 Y2.8568 
G01 X24.8922 Y2.7393 
G01 X25.1244 Y2.5070 
G01 X25.2321 Y2.3994 
G01 X25.3496 Y2.3507 
G01 X25.9768 Y2.3507 
G01 X26.0609 Y2.3855 
G01 X26.1533 Y2.4115 
G01 X26.2071 Y2.4186 
G01 X26.2619 Y2.4113 
G01 X26.3536 Y2.3854 
G01 X26.4346 Y2.3379 
G01 X26.5018 Y2.2711 
G01 X26.7616 Y2.0071 
G01 X26.9014 Y1.8673 
G01 X26.9505 Y1.7821 
G01 X26.9650 Y1.7282 
G01 X26.9760 Y1.5890 
G01 X26.9505 Y1.4940 
G01 X26.9150 Y1.4324 
G01 X26.8319 Y1.3395 
G01 X26.7468 Y1.2903 
G01 X26.6929 Y1.2759 
G01 X19.0588 Y1.2649 
G01 X18.9639 Y1.2903 
G01 X18.8997 Y1.3274 
G01 X18.8103 Y1.4079 
G01 X18.7601 Y1.4940 
G01 X18.7347 Y1.5890 
G01 X18.7347 Y1.6872 
G01 X18.7601 Y1.7821 
G01 X18.7972 Y1.8463 
G01 X18.9491 Y2.0071 
G01 X19.0186 Y2.0766 
G01 X19.1813 Y2.2393 
G01 X19.2300 Y2.3568 
G01 X19.2300 Y2.4840 
G01 X19.1813 Y2.6015 
G01 X19.1311 Y2.6517 
G01 X19.0791 Y2.7129 
G01 X19.0425 Y2.7763 
G01 X19.0170 Y2.8712 
G01 X19.0170 Y2.9695 
G01 X19.0372 Y3.0447 
G01 X19.0778 Y3.1256 
G01 X19.1299 Y3.1878 
G01 X19.1813 Y3.2392 
G01 X19.2300 Y3.3567 
G01 X19.2300 Y3.4839 
G01 X19.1813 Y3.6014 
G01 X18.8414 Y3.9413 
G01 X18.7239 Y3.9900 
G01 X18.0968 Y3.9900 
G01 X17.9793 Y3.9413 
G01 X17.9024 Y3.8829 
G01 X17.8256 Y3.8494 
G01 X17.7659 Y3.8334 
G01 X17.6676 Y3.8334 
G01 X17.6086 Y3.8492 
G01 X17.5321 Y3.8823 
G01 X17.4558 Y3.9397 
G01 X17.3367 Y3.9900 
G01 X16.7096 Y3.9900 
G01 X16.5921 Y3.9413 
G01 X16.5022 Y3.8514 
G01 X16.4535 Y3.7339 
G01 X16.4535 Y3.6067 
G01 X16.5022 Y3.4892 
G01 X16.6289 Y3.3625 
G01 X16.6780 Y3.2774 
G01 X16.7035 Y3.1824 
G01 X16.7035 Y2.6068 
G01 X16.7287 Y2.5458 
G01 X16.7475 Y2.4630 
G01 X16.7477 Y2.3788 
G01 X16.7403 Y2.3230 
G01 X16.7035 Y2.2340 
G01 X16.7035 Y1.8568 
G01 X16.7256 Y1.8035 
G01 X16.7537 Y1.7355 
G01 X16.7633 Y1.6626 
G01 X16.7633 Y1.5890 
G01 X16.7443 Y1.5179 
G01 X16.7161 Y1.4499 
G01 X16.6713 Y1.3915 
G01 X16.6193 Y1.3395 
G01 X16.5556 Y1.3027 
G01 X16.4876 Y1.2745 
G01 X16.4146 Y1.2649 
G01 X15.4127 Y1.2649 
G01 X15.3178 Y1.2903 
G01 X15.2327 Y1.3395 
G01 X15.1632 Y1.4089 
G01 X10.1205 Y6.4516 
G00 Z2.0000 
G00 X14.3042 Y7.4874 
G01 Z-0.1700 F150.00 
G01 X14.6114 Y7.1802 F200.00 
G01 X15.0128 Y7.0140 
G01 X15.4472 Y7.0140 
G01 X15.8486 Y7.1802 
G01 X16.1558 Y7.4874 
G01 X16.3220 Y7.8888 
G01 X16.3220 Y8.7359 
G01 X16.3474 Y8.8308 
G01 X16.3966 Y8.9159 
G01 X16.4660 Y8.9854 
G01 X16.5511 Y9.0346 
G01 X16.6461 Y9.0600 
G01 X20.4378 Y9.0600 
G01 X20.6553 Y9.1501 
G01 X23.0306 Y11.5254 
G01 X23.1157 Y11.5746 
G01 X23.2107 Y11.6000 
G01 X24.5413 Y11.6000 
G01 X24.6363 Y11.5746 
G01 X24.7213 Y11.5254 
G01 X25.0571 Y11.1897 
G01 X25.1140 Y11.1193 
G01 X25.1448 Y11.0661 
G01 X25.1599 Y11.0097 
G01 X25.1702 Y10.9312 
G01 X25.1702 Y10.8729 
G01 X25.1588 Y10.8228 
G01 X25.1288 Y10.7502 
G01 X25.0956 Y10.6928 
G01 X25.0418 Y10.6391 
G01 X24.9834 Y10.5942 
G01 X24.9154 Y10.5661 
G01 X24.8444 Y10.5470 
G01 X24.7708 Y10.5470 
G01 X24.6978 Y10.5566 
G01 X24.6298 Y10.5848 
G01 X24.3372 Y10.7060 
G01 X23.9028 Y10.7060 
G01 X23.5014 Y10.5397 
G01 X23.1942 Y10.2326 
G01 X23.0280 Y9.8312 
G01 X23.0280 Y7.8888 
G01 X23.1942 Y7.4874 
G01 X23.5014 Y7.1802 
G01 X23.9028 Y7.0140 
G01 X24.3372 Y7.0140 
G01 X24.7386 Y7.1802 
G01 X25.0458 Y7.4874 
G01 X25.2120 Y7.8888 
G01 X25.2120 Y9.0293 
G01 X25.2374 Y9.1242 
G01 X25.2866 Y9.2093 
G01 X25.3560 Y9.2788 
G01 X25.5706 Y9.4934 
G01 X25.6557 Y9.5426 
G01 X25.7507 Y9.5680 
G01 X28.5658 Y9.5680 
G01 X28.7833 Y9.6581 
G01 X28.9676 Y9.8424 
G01 X29.0371 Y9.9119 
G01 X30.7976 Y11.6724 
G01 X30.9819 Y11.8567 
G01 X31.0720 Y12.0742 
G01 X31.0720 Y21.4538 
G01 X30.9819 Y21.6713 
G01 X30.8153 Y21.8379 
G01 X30.5978 Y21.9280 
G01 X28.3481 Y21.9280 
G01 X28.2531 Y21.9534 
G01 X28.1680 Y22.0026 
G01 X28.0986 Y22.0720 
G01 X28.0494 Y22.1571 
G01 X28.0240 Y22.2521 
G01 X28.0240 Y32.6298 
G01 X27.9339 Y32.8473 
G01 X27.6801 Y33.1011 
G01 X25.2273 Y35.5539 
G01 X25.0098 Y35.6440 
G01 X19.6942 Y35.6440 
G01 X19.4766 Y35.5539 
G01 X19.2768 Y35.3541 
G01 X17.3499 Y33.4272 
G01 X17.2979 Y33.3751 
G01 X17.2342 Y33.3383 
G01 X17.1662 Y33.3102 
G01 X17.0932 Y33.3006 
G01 X17.0196 Y33.3006 
G01 X16.9485 Y33.3196 
G01 X16.8559 Y33.3580 
G01 X16.2241 Y33.3580 
G01 X15.6405 Y33.1162 
G01 X15.1938 Y32.6695 
G01 X14.9520 Y32.0859 
G01 X14.9520 Y31.4541 
G01 X15.1938 Y30.8705 
G01 X15.6405 Y30.4238 
G01 X16.2241 Y30.1820 
G01 X16.8559 Y30.1820 
G01 X17.4395 Y30.4238 
G01 X17.8862 Y30.8705 
G01 X18.1280 Y31.4541 
G01 X18.1280 Y32.0859 
G01 X18.1025 Y32.1475 
G01 X18.0743 Y32.2155 
G01 X18.0647 Y32.2885 
G01 X18.0647 Y32.3620 
G01 X18.0838 Y32.4331 
G01 X18.1119 Y32.5011 
G01 X18.1567 Y32.5595 
G01 X19.9826 Y34.3854 
G01 X20.0677 Y34.4346 
G01 X20.1586 Y34.4589 
G01 X24.5413 Y34.4600 
G01 X24.6363 Y34.4346 
G01 X24.7213 Y34.3854 
G01 X24.7908 Y34.3159 
G01 X25.3473 Y33.7594 
G01 X25.3994 Y33.7074 
G01 X25.4362 Y33.6437 
G01 X25.4643 Y33.5757 
G01 X25.4739 Y33.5027 
G01 X25.4739 Y33.4291 
G01 X25.4549 Y33.3581 
G01 X25.4267 Y33.2900 
G01 X25.3819 Y33.2317 
G01 X25.3299 Y33.1796 
G01 X25.2662 Y33.1428 
G01 X25.1982 Y33.1147 
G01 X25.1252 Y33.1051 
G01 X25.0516 Y33.1051 
G01 X24.9805 Y33.1241 
G01 X24.4159 Y33.3580 
G01 X23.7841 Y33.3580 
G01 X23.2005 Y33.1162 
G01 X22.7538 Y32.6695 
G01 X22.5120 Y32.0859 
G01 X22.5120 Y31.4541 
G01 X22.5492 Y31.3642 
G01 X22.5774 Y31.2962 
G01 X22.5870 Y31.2233 
G01 X22.5870 Y31.1497 
G01 X22.5680 Y31.0786 
G01 X22.5398 Y31.0106 
G01 X22.4950 Y30.9522 
G01 X19.5266 Y27.9838 
G01 X19.4625 Y27.9197 
G01 X19.4057 Y27.8692 
G01 X19.3538 Y27.8069 
G01 X19.3025 Y27.7489 
G01 X19.2427 Y27.6709 
G01 X18.7821 Y27.1209 
G01 X18.7374 Y27.0672 
G01 X18.6660 Y27.0081 
G01 X18.5834 Y26.9564 
G01 X18.5257 Y26.9325 
G01 X18.4550 Y26.9206 
G01 X18.3927 Y26.9244 
G01 X18.3309 Y26.9325 
G01 X18.2637 Y26.9576 
G01 X18.2116 Y26.9920 
G01 X18.1403 Y27.0584 
G01 X18.0886 Y27.1410 
G01 X17.8862 Y27.6295 
G01 X17.4395 Y28.0762 
G01 X16.8559 Y28.3180 
G01 X16.2241 Y28.3180 
G01 X15.6405 Y28.0762 
G01 X15.1938 Y27.6295 
G01 X15.0411 Y27.2610 
G01 X15.0129 Y27.1930 
G01 X14.9681 Y27.1346 
G01 X14.9161 Y27.0826 
G01 X14.8524 Y27.0458 
G01 X14.7844 Y27.0176 
G01 X14.7114 Y27.0080 
G01 X13.0902 Y27.0080 
G01 X12.8727 Y26.9179 
G01 X12.7061 Y26.7513 
G01 X12.6160 Y26.5338 
G01 X12.6160 Y19.1862 
G01 X12.7061 Y18.9687 
G01 X12.9599 Y18.7149 
G01 X17.5634 Y14.1113 
G01 X17.6126 Y14.0262 
G01 X17.6380 Y13.9313 
G01 X17.6380 Y12.8888 
G01 X17.8042 Y12.4874 
G01 X18.1114 Y12.1802 
G01 X18.5128 Y12.0140 
G01 X18.9472 Y12.0140 
G01 X19.3486 Y12.1802 
G01 X19.6558 Y12.4874 
G01 X19.8220 Y12.8888 
G01 X19.8220 Y14.8312 
G01 X19.6558 Y15.2326 
G01 X19.3486 Y15.5397 
G01 X18.9472 Y15.7060 
G01 X18.5128 Y15.7060 
G01 X18.1509 Y15.5561 
G01 X18.0829 Y15.5279 
G01 X18.0099 Y15.5183 
G01 X17.9363 Y15.5183 
G01 X17.8653 Y15.5374 
G01 X17.7973 Y15.5655 
G01 X17.7389 Y15.6103 
G01 X13.8746 Y19.4746 
G01 X13.8254 Y19.5597 
G01 X13.8000 Y19.6547 
G01 X13.8000 Y25.4999 
G01 X13.8254 Y25.5949 
G01 X13.8746 Y25.6799 
G01 X13.9440 Y25.7494 
G01 X14.0291 Y25.7986 
G01 X14.1241 Y25.8240 
G01 X15.0948 Y25.8240 
G01 X15.1897 Y25.7986 
G01 X15.2748 Y25.7494 
G01 X15.3443 Y25.6799 
G01 X15.6405 Y25.3838 
G01 X16.2241 Y25.1420 
G01 X16.8559 Y25.1420 
G01 X17.4395 Y25.3838 
G01 X17.8528 Y25.7971 
G01 X17.9143 Y25.8585 
G01 X17.9665 Y25.8887 
G01 X18.0205 Y25.9157 
G01 X18.0943 Y25.9331 
G01 X18.1546 Y25.9331 
G01 X18.2149 Y25.9295 
G01 X18.2875 Y25.9077 
G01 X18.3398 Y25.8775 
G01 X18.3901 Y25.8443 
G01 X18.4421 Y25.7891 
G01 X18.4722 Y25.7368 
G01 X18.4992 Y25.6829 
G01 X18.5167 Y25.6090 
G01 X18.5167 Y25.5487 
G01 X18.3638 Y23.0017 
G01 X18.3602 Y22.9415 
G01 X18.3384 Y22.8689 
G01 X18.3082 Y22.8166 
G01 X18.2750 Y22.7663 
G01 X18.2198 Y22.7143 
G01 X18.1676 Y22.6841 
G01 X18.1136 Y22.6571 
G01 X18.0398 Y22.6397 
G01 X17.9795 Y22.6397 
G01 X17.9192 Y22.6433 
G01 X17.8466 Y22.6651 
G01 X17.7944 Y22.6953 
G01 X17.7440 Y22.7285 
G01 X17.4395 Y23.0362 
G01 X16.8559 Y23.2780 
G01 X16.2241 Y23.2780 
G01 X15.6405 Y23.0362 
G01 X15.1938 Y22.5895 
G01 X14.9520 Y22.0059 
G01 X14.9520 Y21.3741 
G01 X15.1938 Y20.7905 
G01 X15.6405 Y20.3438 
G01 X16.2241 Y20.1020 
G01 X16.8559 Y20.1020 
G01 X17.4395 Y20.3438 
G01 X17.5432 Y20.4115 
G01 X17.6118 Y20.4299 
G01 X17.6867 Y20.4369 
G01 X17.7675 Y20.4286 
G01 X17.8313 Y20.4115 
G01 X17.9164 Y20.3624 
G01 X17.9859 Y20.2929 
G01 X18.2083 Y20.0705 
G01 X18.3302 Y19.9486 
G01 X18.3917 Y19.8871 
G01 X18.4355 Y19.8370 
G01 X18.5097 Y19.7726 
G01 X23.1889 Y15.0899 
G01 X23.2479 Y15.0308 
G01 X23.3050 Y14.9702 
G01 X23.3706 Y14.9111 
G01 X23.4264 Y14.8557 
G01 X23.4906 Y14.8305 
G01 X23.5739 Y14.8010 
G01 X23.6312 Y14.7750 
G01 X23.7156 Y14.7724 
G01 X23.8038 Y14.7771 
G01 X23.8667 Y14.7750 
G01 X23.9310 Y14.7838 
G01 X25.7021 Y14.8770 
G01 X25.7796 Y14.8811 
G01 X25.8477 Y14.8666 
G01 X25.9138 Y14.8448 
G01 X25.9787 Y14.8022 
G01 X26.0364 Y14.7503 
G01 X26.4262 Y14.3087 
G01 X26.4833 Y14.2298 
G01 X26.5102 Y14.1764 
G01 X26.5280 Y14.1015 
G01 X26.5280 Y14.0417 
G01 X26.5280 Y12.8888 
G01 X26.6942 Y12.4874 
G01 X26.8113 Y12.3704 
G01 X26.8605 Y12.2852 
G01 X26.8749 Y12.2313 
G01 X26.8859 Y12.0921 
G01 X26.8605 Y11.9971 
G01 X26.8249 Y11.9355 
G01 X26.7418 Y11.8426 
G01 X26.6567 Y11.7934 
G01 X26.6028 Y11.7790 
G01 X26.2587 Y11.7680 
G01 X26.1637 Y11.7934 
G01 X26.0786 Y11.8426 
G01 X26.0092 Y11.9120 
G01 X25.2273 Y12.6939 
G01 X25.0098 Y12.7840 
G01 X22.7422 Y12.7840 
G01 X22.5247 Y12.6939 
G01 X22.2709 Y12.4401 
G01 X20.1493 Y10.3186 
G01 X20.0643 Y10.2694 
G01 X19.9693 Y10.2440 
G01 X16.2498 Y10.2440 
G01 X16.1548 Y10.2694 
G01 X16.1002 Y10.3010 
G01 X15.8486 Y10.5398 
G01 X15.4472 Y10.7060 
G01 X15.0128 Y10.7060 
G01 X14.6114 Y10.5397 
G01 X14.3042 Y10.2326 
G01 X14.1380 Y9.8312 
G01 X14.1380 Y7.8888 
G01 X14.3042 Y7.4874 
G00 Z2.0000 
G00 X14.5123 Y7.5170 
G01 Z-0.1700 F150.00 
G01 X14.4112 Y7.6683 F200.00 
G01 X14.3415 Y7.8365 
G01 X14.3060 Y8.0150 
G01 X14.3060 Y9.7050 
G01 X14.3415 Y9.8835 
G01 X14.4112 Y10.0517 
G01 X14.5123 Y10.2030 
G01 X14.6410 Y10.3317 
G01 X14.7923 Y10.4328 
G01 X14.9605 Y10.5025 
G01 X15.1390 Y10.5380 
G01 X15.3210 Y10.5380 
G01 X15.4995 Y10.5025 
G01 X15.6677 Y10.4328 
G01 X15.8190 Y10.3317 
G01 X15.9477 Y10.2030 
G01 X16.0326 Y10.0760 
G01 X20.1444 Y10.0760 
G01 X22.5207 Y12.4523 
G01 X22.5997 Y12.5313 
G01 X22.6963 Y12.5871 
G01 X22.8042 Y12.6160 
G01 X24.9478 Y12.6160 
G01 X25.0557 Y12.5871 
G01 X25.1523 Y12.5313 
G01 X26.0836 Y11.6000 
G01 X27.7644 Y11.6000 
G01 X29.0400 Y12.8756 
G01 X29.0400 Y17.8640 
G01 X23.8202 Y17.8640 
G01 X23.7123 Y17.8929 
G01 X23.6157 Y17.9487 
G01 X21.2027 Y20.3617 
G01 X21.1237 Y20.4407 
G01 X21.0679 Y20.5373 
G01 X21.0390 Y20.6452 
G01 X21.0390 Y23.2122 
G01 X21.0390 Y23.2678 
G01 X21.0460 Y23.3229 
G01 X21.0604 Y23.3766 
G01 X21.0814 Y23.4281 
G01 X21.1237 Y23.5013 
G01 X22.9495 Y25.8977 
G01 X22.8855 Y25.9858 
G01 X22.7840 Y26.1849 
G01 X22.7150 Y26.3975 
G01 X22.6800 Y26.6182 
G01 X22.6800 Y26.8418 
G01 X22.7150 Y27.0625 
G01 X22.7840 Y27.2751 
G01 X22.8855 Y27.4742 
G01 X23.0169 Y27.6551 
G01 X23.1749 Y27.8131 
G01 X23.3558 Y27.9445 
G01 X23.5549 Y28.0460 
G01 X23.7675 Y28.1150 
G01 X23.9882 Y28.1500 
G01 X24.2118 Y28.1500 
G01 X24.4325 Y28.1150 
G01 X24.6451 Y28.0460 
G01 X24.8442 Y27.9445 
G01 X25.0251 Y27.8131 
G01 X25.1831 Y27.6551 
G01 X25.3145 Y27.4742 
G01 X25.4160 Y27.2751 
G01 X25.4850 Y27.0625 
G01 X25.5200 Y26.8418 
G01 X25.5200 Y26.6182 
G01 X25.4850 Y26.3975 
G01 X25.4160 Y26.1849 
G01 X25.3145 Y25.9858 
G01 X25.1831 Y25.8049 
G01 X25.0251 Y25.6469 
G01 X24.8442 Y25.5155 
G01 X24.6451 Y25.4140 
G01 X24.4325 Y25.3450 
G01 X24.2118 Y25.3100 
G01 X23.9882 Y25.3100 
G01 X23.7675 Y25.3450 
G01 X23.6288 Y25.3900 
G01 X21.8870 Y23.0982 
G01 X21.8870 Y20.8766 
G01 X24.0516 Y18.7120 
G01 X29.5198 Y18.7120 
G01 X29.6277 Y18.6831 
G01 X29.7243 Y18.6273 
G01 X29.8033 Y18.5483 
G01 X29.8591 Y18.4517 
G01 X29.8880 Y18.3438 
G01 X29.8880 Y12.6442 
G01 X29.8591 Y12.5363 
G01 X29.8033 Y12.4397 
G01 X29.7243 Y12.3607 
G01 X28.2003 Y10.8367 
G01 X28.1037 Y10.7809 
G01 X27.9958 Y10.7520 
G01 X25.8522 Y10.7520 
G01 X25.7443 Y10.7809 
G01 X25.6477 Y10.8367 
G01 X25.5687 Y10.9157 
G01 X24.7164 Y11.7680 
G01 X23.0356 Y11.7680 
G01 X20.5803 Y9.3127 
G01 X20.4837 Y9.2569 
G01 X20.3758 Y9.2280 
G01 X16.1540 Y9.2280 
G01 X16.1540 Y8.0150 
G01 X16.1185 Y7.8365 
G01 X16.0488 Y7.6683 
G01 X15.9477 Y7.5170 
G01 X15.8190 Y7.3883 
G01 X15.6677 Y7.2872 
G01 X15.4995 Y7.2175 
G01 X15.3210 Y7.1820 
G01 X15.1390 Y7.1820 
G01 X14.9605 Y7.2175 
G01 X14.7923 Y7.2872 
G01 X14.6410 Y7.3883 
G01 X14.5123 Y7.5170 
G00 Z2.0000 
G00 X16.5254 Y3.8605 
G01 Z-0.1700 F150.00 
G01 X16.5830 Y3.9181 F200.00 
G01 X16.6536 Y3.9589 
G01 X16.7324 Y3.9800 
G01 X17.3139 Y3.9800 
G01 X17.3927 Y3.9589 
G01 X17.4633 Y3.9181 
G01 X17.5210 Y3.8605 
G01 X17.5617 Y3.7898 
G01 X17.5828 Y3.7111 
G01 X17.5828 Y3.6295 
G01 X17.5617 Y3.5508 
G01 X17.5210 Y3.4801 
G01 X17.4633 Y3.4225 
G01 X17.3927 Y3.3817 
G01 X17.3329 Y3.3657 
G01 X17.3329 Y2.9750 
G01 X17.3927 Y2.9590 
G01 X17.4633 Y2.9182 
G01 X17.5210 Y2.8605 
G01 X17.5617 Y2.7899 
G01 X17.5828 Y2.7112 
G01 X17.5828 Y2.6296 
G01 X17.5617 Y2.5508 
G01 X17.5210 Y2.4802 
G01 X17.4633 Y2.4226 
G01 X17.3927 Y2.3818 
G01 X17.3139 Y2.3607 
G01 X17.3118 Y2.2900 
G01 X17.3329 Y2.2112 
G01 X17.3329 Y1.8797 
G01 X17.3118 Y1.8009 
G01 X17.2710 Y1.7303 
G01 X17.2133 Y1.6726 
G01 X17.1427 Y1.6318 
G01 X17.0639 Y1.6107 
G01 X16.9824 Y1.6107 
G01 X16.9036 Y1.6318 
G01 X16.8330 Y1.6726 
G01 X16.7753 Y1.7303 
G01 X16.7346 Y1.8009 
G01 X16.7135 Y1.8797 
G01 X16.7135 Y2.2112 
G01 X16.7346 Y2.2900 
G01 X16.7753 Y2.3606 
G01 X16.8330 Y2.4182 
G01 X16.7753 Y2.4802 
G01 X16.7346 Y2.5508 
G01 X16.7135 Y2.6296 
G01 X16.7135 Y3.3657 
G01 X16.6536 Y3.3817 
G01 X16.5830 Y3.4225 
G01 X16.5254 Y3.4801 
G01 X16.4846 Y3.5508 
G01 X16.4635 Y3.6295 
G01 X16.4635 Y3.7111 
G01 X16.4846 Y3.7898 
G01 X16.5254 Y3.8605 
G00 Z2.0000 
G00 X17.6626 Y3.6105 
G01 Z-0.1700 F150.00 
G01 X17.9125 Y3.8605 F200.00 
G01 X17.9702 Y3.9181 
G01 X18.0408 Y3.9589 
G01 X18.1196 Y3.9800 
G01 X18.7011 Y3.9800 
G01 X18.7799 Y3.9589 
G01 X18.8505 Y3.9181 
G01 X19.1581 Y3.6105 
G01 X19.1989 Y3.5399 
G01 X19.2200 Y3.4611 
G01 X19.2200 Y3.3795 
G01 X19.1989 Y3.3008 
G01 X19.1581 Y3.2302 
G01 X19.1005 Y3.1725 
G01 X19.0298 Y3.1317 
G01 X18.9511 Y3.1106 
G01 X18.8695 Y3.1106 
G01 X18.7908 Y3.1317 
G01 X18.7201 Y3.1725 
G01 X18.5320 Y3.3606 
G01 X18.2886 Y3.3606 
G01 X18.2234 Y3.2953 
G01 X18.2886 Y3.2301 
G01 X18.4511 Y3.2301 
G01 X18.5299 Y3.2090 
G01 X18.6005 Y3.1682 
G01 X18.6582 Y3.1105 
G01 X18.6989 Y3.0399 
G01 X18.7200 Y2.9611 
G01 X18.7200 Y2.8796 
G01 X18.6989 Y2.8008 
G01 X18.6582 Y2.7302 
G01 X18.6005 Y2.6725 
G01 X18.5299 Y2.6318 
G01 X18.4511 Y2.6107 
G01 X18.2886 Y2.6107 
G01 X18.2234 Y2.5454 
G01 X18.2886 Y2.4801 
G01 X18.5320 Y2.4801 
G01 X18.7201 Y2.6682 
G01 X18.7908 Y2.7090 
G01 X18.8695 Y2.7301 
G01 X18.9511 Y2.7301 
G01 X19.0298 Y2.7090 
G01 X19.1005 Y2.6682 
G01 X19.1581 Y2.6106 
G01 X19.1989 Y2.5399 
G01 X19.2200 Y2.4612 
G01 X19.2200 Y2.3796 
G01 X19.1989 Y2.3009 
G01 X19.1581 Y2.2302 
G01 X18.9081 Y1.9803 
G01 X18.8505 Y1.9226 
G01 X18.7799 Y1.8818 
G01 X18.7011 Y1.8607 
G01 X18.1196 Y1.8607 
G01 X18.0408 Y1.8818 
G01 X17.9702 Y1.9226 
G01 X17.9125 Y1.9803 
G01 X17.6673 Y2.2254 
G01 X17.6218 Y2.3009 
G01 X17.6009 Y2.3787 
G01 X17.6007 Y2.7112 
G01 X17.6218 Y2.7899 
G01 X17.6626 Y2.8605 
G01 X17.7224 Y2.9204 
G01 X17.6673 Y2.9754 
G01 X17.6218 Y3.0508 
G01 X17.6009 Y3.1287 
G01 X17.6007 Y3.4611 
G01 X17.6218 Y3.5399 
G01 X17.6626 Y3.6105 
G00 Z2.0000 
G00 X24.9154 Y3.6105 
G01 Z-0.1700 F150.00 
G01 X24.9731 Y3.6681 F200.00 
G01 X25.2230 Y3.9181 
G01 X25.2937 Y3.9589 
G01 X25.3724 Y3.9800 
G01 X25.9539 Y3.9800 
G01 X26.0327 Y3.9589 
G01 X26.1033 Y3.9181 
G01 X26.4110 Y3.6105 
G01 X26.4517 Y3.5399 
G01 X26.4728 Y3.4611 
G01 X26.4728 Y3.3795 
G01 X26.4728 Y2.8796 
G01 X26.4517 Y2.8008 
G01 X26.4110 Y2.7302 
G01 X26.3533 Y2.6725 
G01 X26.1033 Y2.4226 
G01 X26.0327 Y2.3818 
G01 X25.9539 Y2.3607 
G01 X25.3724 Y2.3607 
G01 X25.2937 Y2.3818 
G01 X25.2230 Y2.4226 
G01 X25.1654 Y2.4802 
G01 X24.9154 Y2.7302 
G01 X24.8746 Y2.8008 
G01 X24.8535 Y2.8796 
G01 X24.8535 Y3.4611 
G01 X24.8746 Y3.5399 
G01 X24.9154 Y3.6105 
G00 Z2.0000 
G00 X25.5415 Y3.3606 
G01 Z-0.1700 F150.00 
G01 X25.4729 Y3.2920 F200.00 
G01 X25.4729 Y3.0486 
G01 X25.5415 Y2.9801 
G01 X25.7849 Y2.9801 
G01 X25.8534 Y3.0486 
G01 X25.8534 Y3.2920 
G01 X25.7849 Y3.3606 
G01 X25.5415 Y3.3606 
G00 Z2.0000 
G00 X26.4907 Y3.4611 
G01 Z-0.1700 F150.00 
G01 X26.5118 Y3.5399 F200.00 
G01 X26.5526 Y3.6105 
G01 X26.8025 Y3.8605 
G01 X26.8602 Y3.9181 
G01 X26.9308 Y3.9589 
G01 X27.0096 Y3.9800 
G01 X27.5911 Y3.9800 
G01 X27.6699 Y3.9589 
G01 X27.7405 Y3.9181 
G01 X28.0481 Y3.6105 
G01 X28.0889 Y3.5399 
G01 X28.1100 Y3.4611 
G01 X28.1100 Y3.3795 
G01 X28.0889 Y3.3008 
G01 X28.0481 Y3.2302 
G01 X27.9905 Y3.1725 
G01 X27.9198 Y3.1317 
G01 X27.8411 Y3.1106 
G01 X27.7595 Y3.1106 
G01 X27.6808 Y3.1317 
G01 X27.6101 Y3.1725 
G01 X27.4220 Y3.3606 
G01 X27.1786 Y3.3606 
G01 X27.1134 Y3.2953 
G01 X27.1786 Y3.2301 
G01 X27.3411 Y3.2301 
G01 X27.4199 Y3.2090 
G01 X27.4905 Y3.1682 
G01 X27.5482 Y3.1105 
G01 X27.5889 Y3.0399 
G01 X27.6100 Y2.9611 
G01 X27.6100 Y2.8796 
G01 X27.5889 Y2.8008 
G01 X27.5482 Y2.7302 
G01 X27.4905 Y2.6725 
G01 X27.4199 Y2.6318 
G01 X27.3411 Y2.6107 
G01 X27.1786 Y2.6107 
G01 X27.1134 Y2.5454 
G01 X27.1786 Y2.4801 
G01 X27.4220 Y2.4801 
G01 X27.6101 Y2.6682 
G01 X27.6808 Y2.7090 
G01 X27.7595 Y2.7301 
G01 X27.8411 Y2.7301 
G01 X27.9198 Y2.7090 
G01 X27.9905 Y2.6682 
G01 X28.0481 Y2.6106 
G01 X28.0889 Y2.5399 
G01 X28.1100 Y2.4612 
G01 X28.1100 Y2.3796 
G01 X28.0889 Y2.3009 
G01 X28.0481 Y2.2302 
G01 X27.7981 Y1.9803 
G01 X27.7405 Y1.9226 
G01 X27.6699 Y1.8818 
G01 X27.5911 Y1.8607 
G01 X27.0096 Y1.8607 
G01 X26.9308 Y1.8818 
G01 X26.8602 Y1.9226 
G01 X26.8025 Y1.9803 
G01 X26.5573 Y2.2254 
G01 X26.5118 Y2.3009 
G01 X26.4909 Y2.3787 
G01 X26.4907 Y2.7112 
G01 X26.5118 Y2.7899 
G01 X26.5526 Y2.8605 
G01 X26.6124 Y2.9204 
G01 X26.5526 Y2.9802 
G01 X26.5118 Y3.0508 
G01 X26.4907 Y3.1296 
G01 X26.4907 Y3.4611 
G00 Z2.0000 
G00 X24.8377 Y7.5170 
G01 Z-0.1700 F150.00 
G01 X24.7090 Y7.3883 F200.00 
G01 X24.5577 Y7.2872 
G01 X24.3895 Y7.2175 
G01 X24.2110 Y7.1820 
G01 X24.0290 Y7.1820 
G01 X23.8505 Y7.2175 
G01 X23.6823 Y7.2872 
G01 X23.5310 Y7.3883 
G01 X23.4023 Y7.5170 
G01 X23.3012 Y7.6683 
G01 X23.2315 Y7.8365 
G01 X23.1960 Y8.0150 
G01 X23.1960 Y9.7050 
G01 X23.2315 Y9.8835 
G01 X23.3012 Y10.0517 
G01 X23.4023 Y10.2030 
G01 X23.5310 Y10.3317 
G01 X23.6823 Y10.4328 
G01 X23.8505 Y10.5025 
G01 X24.0290 Y10.5380 
G01 X24.2110 Y10.5380 
G01 X24.3895 Y10.5025 
G01 X24.5577 Y10.4328 
G01 X24.7090 Y10.3317 
G01 X24.8377 Y10.2030 
G01 X25.0607 Y10.4203 
G01 X25.1397 Y10.4993 
G01 X25.2363 Y10.5551 
G01 X25.3442 Y10.5840 
G01 X28.2724 Y10.5840 
G01 X30.0560 Y12.3676 
G01 X30.0560 Y20.9120 
G01 X25.2900 Y20.9120 
G01 X25.1831 Y20.7649 
G01 X25.0251 Y20.6069 
G01 X24.8442 Y20.4755 
G01 X24.6451 Y20.3740 
G01 X24.4325 Y20.3050 
G01 X24.2118 Y20.2700 
G01 X23.9882 Y20.2700 
G01 X23.7675 Y20.3050 
G01 X23.5549 Y20.3740 
G01 X23.3558 Y20.4755 
G01 X23.1749 Y20.6069 
G01 X23.0169 Y20.7649 
G01 X22.8855 Y20.9458 
G01 X22.7840 Y21.1449 
G01 X22.7150 Y21.3575 
G01 X22.6800 Y21.5782 
G01 X22.6800 Y21.8018 
G01 X22.7150 Y22.0225 
G01 X22.7840 Y22.2351 
G01 X22.8855 Y22.4342 
G01 X23.0169 Y22.6151 
G01 X23.1749 Y22.7731 
G01 X23.3558 Y22.9045 
G01 X23.5549 Y23.0060 
G01 X23.7675 Y23.0750 
G01 X23.9882 Y23.1100 
G01 X24.2118 Y23.1100 
G01 X24.4325 Y23.0750 
G01 X24.6451 Y23.0060 
G01 X24.8442 Y22.9045 
G01 X25.0251 Y22.7731 
G01 X25.1831 Y22.6151 
G01 X25.3145 Y22.4342 
G01 X25.4160 Y22.2351 
G01 X25.4850 Y22.0225 
G01 X25.5200 Y21.8018 
G01 X27.0080 Y21.7600 
G01 X27.0080 Y32.3364 
G01 X24.7164 Y34.6280 
G01 X19.9876 Y34.6280 
G01 X17.7948 Y32.4352 
G01 X17.8560 Y32.3151 
G01 X17.9250 Y32.1025 
G01 X17.9600 Y31.8818 
G01 X17.9600 Y31.6582 
G01 X17.9250 Y31.4375 
G01 X17.8560 Y31.2249 
G01 X17.7545 Y31.0258 
G01 X17.6231 Y30.8449 
G01 X17.4651 Y30.6869 
G01 X17.2842 Y30.5555 
G01 X17.0851 Y30.4540 
G01 X16.8725 Y30.3850 
G01 X16.6518 Y30.3500 
G01 X16.4282 Y30.3500 
G01 X16.2075 Y30.3850 
G01 X15.9949 Y30.4540 
G01 X15.7958 Y30.5555 
G01 X15.6149 Y30.6869 
G01 X15.4569 Y30.8449 
G01 X15.3255 Y31.0258 
G01 X15.2240 Y31.2249 
G01 X15.1550 Y31.4375 
G01 X15.1200 Y31.6582 
G01 X15.1200 Y31.8818 
G01 X15.1550 Y32.1025 
G01 X15.2240 Y32.3151 
G01 X15.3255 Y32.5142 
G01 X15.4569 Y32.6951 
G01 X15.6149 Y32.8531 
G01 X15.7958 Y32.9845 
G01 X15.9949 Y33.0860 
G01 X16.2075 Y33.1550 
G01 X16.4282 Y33.1900 
G01 X16.6518 Y33.1900 
G01 X16.8725 Y33.1550 
G01 X17.0851 Y33.0860 
G01 X17.1919 Y33.0315 
G01 X19.4727 Y35.3123 
G01 X19.5517 Y35.3913 
G01 X19.6483 Y35.4471 
G01 X19.7562 Y35.4760 
G01 X24.9478 Y35.4760 
G01 X25.0557 Y35.4471 
G01 X25.1523 Y35.3913 
G01 X27.6923 Y32.8513 
G01 X27.7713 Y32.7723 
G01 X27.8271 Y32.6757 
G01 X27.8560 Y32.5678 
G01 X27.8560 Y21.7600 
G01 X30.5358 Y21.7600 
G01 X30.6437 Y21.7311 
G01 X30.7403 Y21.6753 
G01 X30.8193 Y21.5963 
G01 X30.8751 Y21.4997 
G01 X30.9040 Y21.3918 
G01 X30.9040 Y12.1362 
G01 X30.8751 Y12.0283 
G01 X30.8193 Y11.9317 
G01 X30.7403 Y11.8527 
G01 X28.7083 Y9.8207 
G01 X28.6117 Y9.7649 
G01 X28.5038 Y9.7360 
G01 X25.5756 Y9.7360 
G01 X25.0440 Y9.2044 
G01 X25.0440 Y8.0150 
G01 X25.0085 Y7.8365 
G01 X24.9388 Y7.6683 
G01 X24.8377 Y7.5170 
G00 Z2.0000 
G00 X27.0310 Y12.3883 
G01 Z-0.1700 F150.00 
G01 X26.9023 Y12.5170 F200.00 
G01 X26.8012 Y12.6683 
G01 X26.7315 Y12.8365 
G01 X26.6960 Y13.0150 
G01 X26.6960 Y14.2587 
G01 X25.9811 Y15.0599 
G01 X23.8157 Y14.9459 
G01 X23.7601 Y14.9430 
G01 X23.7045 Y14.9430 
G01 X23.6500 Y14.9546 
G01 X23.5963 Y14.9690 
G01 X23.5069 Y15.0145 
G01 X23.4239 Y15.0892 
G01 X18.5266 Y19.9898 
G01 X18.4567 Y20.0597 
G01 X17.6771 Y20.8393 
G01 X17.6231 Y20.7649 
G01 X17.4651 Y20.6069 
G01 X17.2842 Y20.4755 
G01 X17.0851 Y20.3740 
G01 X16.8725 Y20.3050 
G01 X16.6518 Y20.2700 
G01 X16.4282 Y20.2700 
G01 X16.2075 Y20.3050 
G01 X15.9949 Y20.3740 
G01 X15.7958 Y20.4755 
G01 X15.6149 Y20.6069 
G01 X15.4569 Y20.7649 
G01 X15.3255 Y20.9458 
G01 X15.2240 Y21.1449 
G01 X15.1550 Y21.3575 
G01 X15.1200 Y21.5782 
G01 X15.1200 Y21.8018 
G01 X15.1550 Y22.0225 
G01 X15.2240 Y22.2351 
G01 X15.3255 Y22.4342 
G01 X15.4569 Y22.6151 
G01 X15.6149 Y22.7731 
G01 X15.7958 Y22.9045 
G01 X15.9949 Y23.0060 
G01 X16.2075 Y23.0750 
G01 X16.4282 Y23.1100 
G01 X16.6518 Y23.1100 
G01 X16.8725 Y23.0750 
G01 X17.0851 Y23.0060 
G01 X17.2842 Y22.9045 
G01 X17.4651 Y22.7731 
G01 X17.6231 Y22.6151 
G01 X17.7545 Y22.4342 
G01 X17.8560 Y22.2351 
G01 X17.9250 Y22.0225 
G01 X17.9600 Y21.8018 
G01 X17.9600 Y21.7217 
G01 X18.0403 Y21.6753 
G01 X18.1193 Y21.5963 
G01 X18.4292 Y21.2864 
G01 X18.7518 Y26.6635 
G01 X18.7552 Y26.7189 
G01 X18.7646 Y26.7737 
G01 X18.7822 Y26.8265 
G01 X18.8055 Y26.8769 
G01 X18.8539 Y26.9502 
G01 X19.4630 Y27.6755 
G01 X19.5220 Y27.7463 
G01 X22.8587 Y31.0783 
G01 X22.7840 Y31.2249 
G01 X22.7150 Y31.4375 
G01 X22.6800 Y31.6582 
G01 X22.6800 Y31.8818 
G01 X22.7150 Y32.1025 
G01 X22.7840 Y32.3151 
G01 X22.8855 Y32.5142 
G01 X23.0169 Y32.6951 
G01 X23.1749 Y32.8531 
G01 X23.3558 Y32.9845 
G01 X23.5549 Y33.0860 
G01 X23.7675 Y33.1550 
G01 X23.9882 Y33.1900 
G01 X24.2118 Y33.1900 
G01 X24.4325 Y33.1550 
G01 X24.6451 Y33.0860 
G01 X24.8442 Y32.9845 
G01 X25.0251 Y32.8531 
G01 X25.1831 Y32.6951 
G01 X25.3145 Y32.5142 
G01 X25.4160 Y32.3151 
G01 X25.4850 Y32.1025 
G01 X25.5200 Y31.8818 
G01 X25.5200 Y31.6582 
G01 X25.4850 Y31.4375 
G01 X25.4160 Y31.2249 
G01 X25.3145 Y31.0258 
G01 X25.1831 Y30.8449 
G01 X25.0251 Y30.6869 
G01 X24.8442 Y30.5555 
G01 X24.6451 Y30.4540 
G01 X24.4325 Y30.3850 
G01 X24.2118 Y30.3500 
G01 X23.9882 Y30.3500 
G01 X23.7675 Y30.3850 
G01 X23.5549 Y30.4540 
G01 X23.4746 Y30.4950 
G01 X20.1254 Y27.1458 
G01 X19.5919 Y26.5056 
G01 X19.2307 Y20.4850 
G01 X23.9153 Y15.8003 
G01 X26.1074 Y15.9157 
G01 X26.1629 Y15.9186 
G01 X26.2184 Y15.9155 
G01 X26.2728 Y15.9039 
G01 X26.3256 Y15.8865 
G01 X26.4041 Y15.8465 
G01 X26.4629 Y15.7936 
G01 X26.9486 Y15.2493 
G01 X27.0310 Y15.3317 
G01 X27.1823 Y15.4328 
G01 X27.3505 Y15.5025 
G01 X27.5290 Y15.5380 
G01 X27.7110 Y15.5380 
G01 X27.8895 Y15.5025 
G01 X28.0577 Y15.4328 
G01 X28.2090 Y15.3317 
G01 X28.3377 Y15.2030 
G01 X28.4388 Y15.0517 
G01 X28.5085 Y14.8835 
G01 X28.5440 Y14.7050 
G01 X28.5440 Y13.0150 
G01 X28.5085 Y12.8365 
G01 X28.4388 Y12.6683 
G01 X28.3377 Y12.5170 
G01 X28.2090 Y12.3883 
G01 X28.0577 Y12.2872 
G01 X27.8895 Y12.2175 
G01 X27.7110 Y12.1820 
G01 X27.5290 Y12.1820 
G01 X27.3505 Y12.2175 
G01 X27.1823 Y12.2872 
G01 X27.0310 Y12.3883 
G00 Z2.0000 
G00 X32.3914 Y10.5397 
G01 Z-0.1700 F150.00 
G01 X32.0842 Y10.2326 F200.00 
G01 X31.9180 Y9.8312 
G01 X31.9180 Y7.8888 
G01 X32.0842 Y7.4874 
G01 X32.3914 Y7.1802 
G01 X32.7928 Y7.0140 
G01 X33.2272 Y7.0140 
G01 X33.6286 Y7.1802 
G01 X33.9357 Y7.4874 
G01 X34.1020 Y7.8888 
G01 X34.1020 Y9.2833 
G01 X34.1274 Y9.3783 
G01 X34.1590 Y9.4329 
G01 X35.2226 Y10.5094 
G01 X35.3077 Y10.5586 
G01 X35.3986 Y10.5829 
G01 X40.5368 Y10.5840 
G01 X40.6104 Y10.5840 
G01 X40.6815 Y10.5650 
G01 X40.7495 Y10.5368 
G01 X40.8079 Y10.4920 
G01 X40.8599 Y10.4399 
G01 X40.8967 Y10.3762 
G01 X40.9249 Y10.3082 
G01 X40.9345 Y10.2353 
G01 X40.9345 Y10.1617 
G01 X40.9154 Y10.0906 
G01 X40.8080 Y9.8312 
G01 X40.8080 Y7.8888 
G01 X40.9742 Y7.4874 
G01 X41.2814 Y7.1802 
G01 X41.6828 Y7.0140 
G01 X42.1172 Y7.0140 
G01 X42.5186 Y7.1802 
G01 X42.8257 Y7.4874 
G01 X42.9920 Y7.8888 
G01 X42.9920 Y9.0293 
G01 X43.0174 Y9.1242 
G01 X43.0666 Y9.2093 
G01 X43.1360 Y9.2788 
G01 X43.3506 Y9.4934 
G01 X43.4357 Y9.5426 
G01 X43.5307 Y9.5680 
G01 X46.3458 Y9.5680 
G01 X46.5633 Y9.6581 
G01 X49.0856 Y12.1804 
G01 X49.2699 Y12.3646 
G01 X49.3600 Y12.5822 
G01 X49.3600 Y34.1538 
G01 X49.2699 Y34.3713 
G01 X49.1033 Y34.5379 
G01 X48.8858 Y34.6280 
G01 X40.5222 Y34.6280 
G01 X40.3047 Y34.5379 
G01 X39.1196 Y33.3528 
G01 X39.0675 Y33.3007 
G01 X39.0038 Y33.2639 
G01 X38.9358 Y33.2358 
G01 X38.8628 Y33.2262 
G01 X38.7892 Y33.2262 
G01 X38.7182 Y33.2452 
G01 X38.4459 Y33.3580 
G01 X37.8141 Y33.3580 
G01 X37.2305 Y33.1162 
G01 X36.7838 Y32.6695 
G01 X36.5420 Y32.0859 
G01 X36.5420 Y31.4541 
G01 X36.7838 Y30.8705 
G01 X37.2305 Y30.4238 
G01 X37.8141 Y30.1820 
G01 X38.4459 Y30.1820 
G01 X39.0295 Y30.4238 
G01 X39.4762 Y30.8705 
G01 X39.7180 Y31.4541 
G01 X39.7180 Y32.1713 
G01 X39.7434 Y32.2662 
G01 X39.7926 Y32.3513 
G01 X39.8620 Y32.4208 
G01 X40.8106 Y33.3694 
G01 X40.8957 Y33.4186 
G01 X40.9907 Y33.4440 
G01 X44.2664 Y33.4440 
G01 X44.3613 Y33.4186 
G01 X44.4159 Y33.3870 
G01 X44.5159 Y33.2999 
G01 X44.5466 Y33.2467 
G01 X44.5904 Y33.1199 
G01 X44.5904 Y33.0217 
G01 X44.5650 Y32.9267 
G01 X44.5335 Y32.8721 
G01 X44.3438 Y32.6695 
G01 X44.1020 Y32.0859 
G01 X44.1020 Y31.4298 
G01 X44.1058 Y31.3789 
G01 X44.0963 Y31.3057 
G01 X44.0772 Y31.2344 
G01 X44.0405 Y31.1708 
G01 X43.9959 Y31.1126 
G01 X40.3919 Y27.5131 
G01 X40.1908 Y27.3120 
G01 X40.1387 Y27.2599 
G01 X40.0750 Y27.2231 
G01 X40.0070 Y27.1950 
G01 X39.9340 Y27.1854 
G01 X39.8604 Y27.1854 
G01 X39.7894 Y27.2044 
G01 X39.7214 Y27.2326 
G01 X39.6630 Y27.2774 
G01 X39.6109 Y27.3294 
G01 X39.5741 Y27.3932 
G01 X39.4762 Y27.6295 
G01 X39.0295 Y28.0762 
G01 X38.4459 Y28.3180 
G01 X37.8141 Y28.3180 
G01 X37.2305 Y28.0762 
G01 X36.7838 Y27.6295 
G01 X36.6311 Y27.2610 
G01 X36.6029 Y27.1930 
G01 X36.5581 Y27.1346 
G01 X36.5061 Y27.0826 
G01 X36.4424 Y27.0458 
G01 X36.3744 Y27.0176 
G01 X36.3014 Y27.0080 
G01 X35.9502 Y27.0080 
G01 X35.7326 Y26.9179 
G01 X35.5661 Y26.7513 
G01 X35.4760 Y26.5338 
G01 X35.4760 Y15.0699 
G01 X35.4760 Y14.9963 
G01 X35.4570 Y14.9253 
G01 X35.4180 Y14.8312 
G01 X35.4180 Y12.8888 
G01 X35.5842 Y12.4874 
G01 X35.7013 Y12.3704 
G01 X35.7505 Y12.2852 
G01 X35.7649 Y12.2313 
G01 X35.7759 Y12.0921 
G01 X35.7505 Y11.9971 
G01 X35.7149 Y11.9355 
G01 X35.6319 Y11.8426 
G01 X35.5467 Y11.7934 
G01 X35.4928 Y11.7790 
G01 X34.9342 Y11.7680 
G01 X34.7167 Y11.6779 
G01 X34.5262 Y11.4874 
G01 X33.7868 Y10.7480 
G01 X33.7348 Y10.6960 
G01 X33.6710 Y10.6592 
G01 X33.6031 Y10.6310 
G01 X33.5301 Y10.6214 
G01 X33.4565 Y10.6214 
G01 X33.3854 Y10.6405 
G01 X33.2272 Y10.7060 
G01 X32.7928 Y10.7060 
G01 X32.3914 Y10.5397 
G00 Z2.0000 
G00 X32.4210 Y10.3317 
G01 Z-0.1700 F150.00 
G01 X32.5723 Y10.4328 F200.00 
G01 X32.7405 Y10.5025 
G01 X32.9190 Y10.5380 
G01 X33.1010 Y10.5380 
G01 X33.2795 Y10.5025 
G01 X33.4477 Y10.4328 
G01 X33.5990 Y10.3317 
G01 X34.7127 Y11.4363 
G01 X34.7917 Y11.5153 
G01 X34.8883 Y11.5711 
G01 X34.9962 Y11.6000 
G01 X45.5444 Y11.6000 
G01 X47.3280 Y13.3836 
G01 X47.3280 Y25.9920 
G01 X46.9077 Y25.9920 
G01 X46.7731 Y25.8049 
G01 X46.6151 Y25.6469 
G01 X46.4342 Y25.5155 
G01 X46.2351 Y25.4140 
G01 X46.0225 Y25.3450 
G01 X45.8018 Y25.3100 
G01 X45.5782 Y25.3100 
G01 X45.3575 Y25.3450 
G01 X45.1449 Y25.4140 
G01 X44.9458 Y25.5155 
G01 X44.7649 Y25.6469 
G01 X44.6069 Y25.8049 
G01 X44.4755 Y25.9858 
G01 X44.3740 Y26.1849 
G01 X44.3050 Y26.3975 
G01 X44.2700 Y26.6182 
G01 X44.2700 Y26.8418 
G01 X44.3050 Y27.0625 
G01 X44.3740 Y27.2751 
G01 X44.4755 Y27.4742 
G01 X44.6069 Y27.6551 
G01 X44.7649 Y27.8131 
G01 X44.9458 Y27.9445 
G01 X45.1449 Y28.0460 
G01 X45.3575 Y28.1150 
G01 X45.5782 Y28.1500 
G01 X45.8018 Y28.1500 
G01 X46.0225 Y28.1150 
G01 X46.2351 Y28.0460 
G01 X46.4342 Y27.9445 
G01 X46.6151 Y27.8131 
G01 X46.7731 Y27.6551 
G01 X46.9045 Y27.4742 
G01 X47.0060 Y27.2751 
G01 X47.0750 Y27.0625 
G01 X47.1100 Y26.8418 
G01 X47.8078 Y26.8400 
G01 X47.9157 Y26.8111 
G01 X48.0123 Y26.7553 
G01 X48.0913 Y26.6763 
G01 X48.1471 Y26.5797 
G01 X48.1760 Y26.4718 
G01 X48.1760 Y13.1522 
G01 X48.1471 Y13.0443 
G01 X48.0913 Y12.9477 
G01 X48.0123 Y12.8687 
G01 X45.9803 Y10.8367 
G01 X45.8837 Y10.7809 
G01 X45.7758 Y10.7520 
G01 X35.2276 Y10.7520 
G01 X33.9340 Y9.4584 
G01 X33.9340 Y8.0150 
G01 X33.8985 Y7.8365 
G01 X33.8288 Y7.6683 
G01 X33.7277 Y7.5170 
G01 X33.5990 Y7.3883 
G01 X33.4477 Y7.2872 
G01 X33.2795 Y7.2175 
G01 X33.1010 Y7.1820 
G01 X32.9190 Y7.1820 
G01 X32.7405 Y7.2175 
G01 X32.5723 Y7.2872 
G01 X32.4210 Y7.3883 
G01 X32.2923 Y7.5170 
G01 X32.1912 Y7.6683 
G01 X32.1215 Y7.8365 
G01 X32.0860 Y8.0150 
G01 X32.0860 Y9.7050 
G01 X32.1215 Y9.8835 
G01 X32.1912 Y10.0517 
G01 X32.2923 Y10.2030 
G01 X32.4210 Y10.3317 
G00 Z2.0000 
G00 X35.9210 Y12.3883 
G01 Z-0.1700 F150.00 
G01 X35.7923 Y12.5170 F200.00 
G01 X35.6912 Y12.6683 
G01 X35.6215 Y12.8365 
G01 X35.5860 Y13.0150 
G01 X35.5860 Y14.7050 
G01 X35.6215 Y14.8835 
G01 X35.6440 Y14.9378 
G01 X35.6440 Y26.4718 
G01 X35.6729 Y26.5797 
G01 X35.7287 Y26.6763 
G01 X35.8077 Y26.7553 
G01 X35.9043 Y26.8111 
G01 X36.0122 Y26.8400 
G01 X36.7100 Y26.8400 
G01 X36.7450 Y27.0625 
G01 X36.8140 Y27.2751 
G01 X36.9155 Y27.4742 
G01 X37.0469 Y27.6551 
G01 X37.2049 Y27.8131 
G01 X37.3858 Y27.9445 
G01 X37.5849 Y28.0460 
G01 X37.7975 Y28.1150 
G01 X38.0182 Y28.1500 
G01 X38.2418 Y28.1500 
G01 X38.4625 Y28.1150 
G01 X38.6751 Y28.0460 
G01 X38.8742 Y27.9445 
G01 X39.0551 Y27.8131 
G01 X39.2131 Y27.6551 
G01 X39.3445 Y27.4742 
G01 X39.4460 Y27.2751 
G01 X39.5150 Y27.0625 
G01 X39.5500 Y26.8418 
G01 X39.5500 Y26.6182 
G01 X39.5150 Y26.3975 
G01 X39.4460 Y26.1849 
G01 X39.3445 Y25.9858 
G01 X39.2131 Y25.8049 
G01 X39.0551 Y25.6469 
G01 X38.8742 Y25.5155 
G01 X38.6751 Y25.4140 
G01 X38.4625 Y25.3450 
G01 X38.2418 Y25.3100 
G01 X38.0182 Y25.3100 
G01 X37.7975 Y25.3450 
G01 X37.5849 Y25.4140 
G01 X37.3858 Y25.5155 
G01 X37.2049 Y25.6469 
G01 X37.0469 Y25.8049 
G01 X36.9155 Y25.9858 
G01 X36.4920 Y25.9920 
G01 X36.4920 Y15.5380 
G01 X36.6010 Y15.5380 
G01 X36.7795 Y15.5025 
G01 X36.9477 Y15.4328 
G01 X37.0990 Y15.3317 
G01 X37.2277 Y15.2030 
G01 X37.3288 Y15.0517 
G01 X37.3985 Y14.8835 
G01 X37.4340 Y14.7050 
G01 X37.4340 Y13.0150 
G01 X37.3985 Y12.8365 
G01 X37.3288 Y12.6683 
G01 X37.2277 Y12.5170 
G01 X37.0990 Y12.3883 
G01 X36.9477 Y12.2872 
G01 X36.7795 Y12.2175 
G01 X36.6010 Y12.1820 
G01 X36.4190 Y12.1820 
G01 X36.2405 Y12.2175 
G01 X36.0723 Y12.2872 
G01 X35.9210 Y12.3883 
G00 Z2.0000 
G00 X41.1823 Y10.2030 
G01 Z-0.1700 F150.00 
G01 X41.3110 Y10.3317 F200.00 
G01 X41.4623 Y10.4328 
G01 X41.6305 Y10.5025 
G01 X41.8090 Y10.5380 
G01 X41.9910 Y10.5380 
G01 X42.1695 Y10.5025 
G01 X42.3377 Y10.4328 
G01 X42.4890 Y10.3317 
G01 X42.6177 Y10.2030 
G01 X42.8407 Y10.4203 
G01 X42.9197 Y10.4993 
G01 X43.0163 Y10.5551 
G01 X43.1242 Y10.5840 
G01 X46.0524 Y10.5840 
G01 X48.3440 Y12.8756 
G01 X48.3440 Y28.5320 
G01 X44.8796 Y28.5320 
G01 X43.4403 Y27.0927 
G01 X43.3437 Y27.0369 
G01 X43.2358 Y27.0080 
G01 X43.0960 Y27.0080 
G01 X43.0960 Y24.5596 
G01 X44.8330 Y22.8226 
G01 X44.9458 Y22.9045 
G01 X45.1449 Y23.0060 
G01 X45.3575 Y23.0750 
G01 X45.5782 Y23.1100 
G01 X45.8018 Y23.1100 
G01 X46.0225 Y23.0750 
G01 X46.2351 Y23.0060 
G01 X46.4342 Y22.9045 
G01 X46.6151 Y22.7731 
G01 X46.7731 Y22.6151 
G01 X46.9045 Y22.4342 
G01 X47.0060 Y22.2351 
G01 X47.0750 Y22.0225 
G01 X47.1100 Y21.8018 
G01 X47.1100 Y21.5782 
G01 X47.0750 Y21.3575 
G01 X47.0060 Y21.1449 
G01 X46.9045 Y20.9458 
G01 X46.7731 Y20.7649 
G01 X46.6151 Y20.6069 
G01 X46.4342 Y20.4755 
G01 X46.2351 Y20.3740 
G01 X46.0225 Y20.3050 
G01 X45.8018 Y20.2700 
G01 X45.5782 Y20.2700 
G01 X45.3575 Y20.3050 
G01 X45.1449 Y20.3740 
G01 X44.9458 Y20.4755 
G01 X44.7649 Y20.6069 
G01 X44.6069 Y20.7649 
G01 X44.4755 Y20.9458 
G01 X44.3740 Y21.1449 
G01 X44.3050 Y21.3575 
G01 X44.2700 Y21.5782 
G01 X44.2700 Y21.8018 
G01 X44.3050 Y22.0225 
G01 X44.3366 Y22.1198 
G01 X42.4117 Y24.0447 
G01 X42.3327 Y24.1237 
G01 X42.2769 Y24.2203 
G01 X42.2480 Y24.3282 
G01 X42.2480 Y27.4878 
G01 X42.2769 Y27.5957 
G01 X42.3327 Y27.6923 
G01 X42.4117 Y27.7713 
G01 X42.5083 Y27.8271 
G01 X42.6162 Y27.8560 
G01 X43.0044 Y27.8560 
G01 X44.3647 Y29.2163 
G01 X44.4437 Y29.2953 
G01 X44.5403 Y29.3511 
G01 X44.6482 Y29.3800 
G01 X48.3440 Y29.3800 
G01 X48.3440 Y33.6120 
G01 X40.8156 Y33.6120 
G01 X39.4638 Y32.2602 
G01 X39.5150 Y32.1025 
G01 X39.5500 Y31.8818 
G01 X39.5500 Y31.6582 
G01 X39.5150 Y31.4375 
G01 X39.4460 Y31.2249 
G01 X39.3445 Y31.0258 
G01 X39.2131 Y30.8449 
G01 X39.0551 Y30.6869 
G01 X38.8742 Y30.5555 
G01 X38.6751 Y30.4540 
G01 X38.4625 Y30.3850 
G01 X38.2418 Y30.3500 
G01 X38.0182 Y30.3500 
G01 X37.7975 Y30.3850 
G01 X37.5849 Y30.4540 
G01 X37.3858 Y30.5555 
G01 X37.2049 Y30.6869 
G01 X37.0469 Y30.8449 
G01 X36.9155 Y31.0258 
G01 X36.8140 Y31.2249 
G01 X36.7450 Y31.4375 
G01 X36.7100 Y31.6582 
G01 X36.7100 Y31.8818 
G01 X36.7450 Y32.1025 
G01 X36.8140 Y32.3151 
G01 X36.9155 Y32.5142 
G01 X37.0469 Y32.6951 
G01 X37.2049 Y32.8531 
G01 X37.3858 Y32.9845 
G01 X37.5849 Y33.0860 
G01 X37.7975 Y33.1550 
G01 X38.0182 Y33.1900 
G01 X38.2418 Y33.1900 
G01 X38.4625 Y33.1550 
G01 X38.6751 Y33.0860 
G01 X38.8742 Y32.9845 
G01 X38.9406 Y32.9363 
G01 X40.3797 Y34.3753 
G01 X40.4763 Y34.4311 
G01 X40.5842 Y34.4600 
G01 X48.8238 Y34.4600 
G01 X48.9317 Y34.4311 
G01 X49.0283 Y34.3753 
G01 X49.1073 Y34.2963 
G01 X49.1631 Y34.1997 
G01 X49.1920 Y34.0918 
G01 X49.1920 Y12.6442 
G01 X49.1631 Y12.5363 
G01 X49.1073 Y12.4397 
G01 X46.4883 Y9.8207 
G01 X46.3917 Y9.7649 
G01 X46.2838 Y9.7360 
G01 X43.3556 Y9.7360 
G01 X42.8240 Y9.2044 
G01 X42.8240 Y8.0150 
G01 X42.7885 Y7.8365 
G01 X42.7188 Y7.6683 
G01 X42.6177 Y7.5170 
G01 X42.4890 Y7.3883 
G01 X42.3377 Y7.2872 
G01 X42.1695 Y7.2175 
G01 X41.9910 Y7.1820 
G01 X41.8090 Y7.1820 
G01 X41.6305 Y7.2175 
G01 X41.4623 Y7.2872 
G01 X41.3110 Y7.3883 
G01 X41.1823 Y7.5170 
G01 X41.0812 Y7.6683 
G01 X41.0115 Y7.8365 
G01 X40.9760 Y8.0150 
G01 X40.9760 Y9.7050 
G01 X41.0115 Y9.8835 
G01 X41.0812 Y10.0517 
G01 X41.1823 Y10.2030 
G00 Z2.0000 
G00 X44.8110 Y12.3883 
G01 Z-0.1700 F150.00 
G01 X44.6823 Y12.5170 F200.00 
G01 X44.5812 Y12.6683 
G01 X44.5115 Y12.8365 
G01 X44.4760 Y13.0150 
G01 X44.4760 Y14.3604 
G01 X38.5145 Y20.3219 
G01 X38.4625 Y20.3050 
G01 X38.2418 Y20.2700 
G01 X38.0182 Y20.2700 
G01 X37.7975 Y20.3050 
G01 X37.5849 Y20.3740 
G01 X37.3858 Y20.4755 
G01 X37.2049 Y20.6069 
G01 X37.0469 Y20.7649 
G01 X36.9155 Y20.9458 
G01 X36.8140 Y21.1449 
G01 X36.7450 Y21.3575 
G01 X36.7100 Y21.5782 
G01 X36.7100 Y21.8018 
G01 X36.7450 Y22.0225 
G01 X36.8140 Y22.2351 
G01 X36.9155 Y22.4342 
G01 X37.0469 Y22.6151 
G01 X37.2049 Y22.7731 
G01 X37.3858 Y22.9045 
G01 X37.5849 Y23.0060 
G01 X37.7975 Y23.0750 
G01 X38.0182 Y23.1100 
G01 X38.2418 Y23.1100 
G01 X38.4625 Y23.0750 
G01 X38.6751 Y23.0060 
G01 X38.8742 Y22.9045 
G01 X39.0551 Y22.7731 
G01 X39.2131 Y22.6151 
G01 X39.3445 Y22.4342 
G01 X39.4292 Y22.2680 
G01 X40.2160 Y22.2680 
G01 X40.2160 Y26.9798 
G01 X40.2449 Y27.0877 
G01 X40.3007 Y27.1843 
G01 X40.3797 Y27.2633 
G01 X44.3660 Y31.2496 
G01 X44.3050 Y31.4375 
G01 X44.2700 Y31.6582 
G01 X44.2700 Y31.8818 
G01 X44.3050 Y32.1025 
G01 X44.3740 Y32.3151 
G01 X44.4755 Y32.5142 
G01 X44.6069 Y32.6951 
G01 X44.7649 Y32.8531 
G01 X44.9458 Y32.9845 
G01 X45.1449 Y33.0860 
G01 X45.3575 Y33.1550 
G01 X45.5782 Y33.1900 
G01 X45.8018 Y33.1900 
G01 X46.0225 Y33.1550 
G01 X46.2351 Y33.0860 
G01 X46.4342 Y32.9845 
G01 X46.6151 Y32.8531 
G01 X46.7731 Y32.6951 
G01 X46.9045 Y32.5142 
G01 X47.0060 Y32.3151 
G01 X47.0750 Y32.1025 
G01 X47.1100 Y31.8818 
G01 X47.1100 Y31.6582 
G01 X47.0750 Y31.4375 
G01 X47.0060 Y31.2249 
G01 X46.9045 Y31.0258 
G01 X46.7731 Y30.8449 
G01 X46.6151 Y30.6869 
G01 X46.4342 Y30.5555 
G01 X46.2351 Y30.4540 
G01 X46.0225 Y30.3850 
G01 X45.8018 Y30.3500 
G01 X45.5782 Y30.3500 
G01 X45.3575 Y30.3850 
G01 X45.1449 Y30.4540 
G01 X44.9458 Y30.5555 
G01 X41.0640 Y26.7484 
G01 X41.0640 Y21.7882 
G01 X41.0351 Y21.6803 
G01 X40.9793 Y21.5837 
G01 X40.9003 Y21.5047 
G01 X40.8037 Y21.4489 
G01 X40.6958 Y21.4200 
G01 X39.5249 Y21.4200 
G01 X39.5150 Y21.3575 
G01 X39.4460 Y21.1449 
G01 X39.3445 Y20.9458 
G01 X39.2373 Y20.7983 
G01 X44.7574 Y15.2782 
G01 X44.8110 Y15.3317 
G01 X44.9623 Y15.4328 
G01 X45.1305 Y15.5025 
G01 X45.3090 Y15.5380 
G01 X45.4910 Y15.5380 
G01 X45.6695 Y15.5025 
G01 X45.8377 Y15.4328 
G01 X45.9890 Y15.3317 
G01 X46.1177 Y15.2030 
G01 X46.2188 Y15.0517 
G01 X46.2885 Y14.8835 
G01 X46.3240 Y14.7050 
G01 X46.3240 Y13.0150 
G01 X46.2885 Y12.8365 
G01 X46.2188 Y12.6683 
G01 X46.1177 Y12.5170 
G01 X45.9890 Y12.3883 
G01 X45.8377 Y12.2872 
G01 X45.6695 Y12.2175 
G01 X45.4910 Y12.1820 
G01 X45.3090 Y12.1820 
G01 X45.1305 Y12.2175 
G01 X44.9623 Y12.2872 
G01 X44.8110 Y12.3883 
G00 Z2.0000 
G00 X50.0723 Y10.2030 
G01 Z-0.1700 F150.00 
G01 X50.2010 Y10.3317 F200.00 
G01 X50.3523 Y10.4328 
G01 X50.5205 Y10.5025 
G01 X50.6990 Y10.5380 
G01 X50.8810 Y10.5380 
G01 X51.0595 Y10.5025 
G01 X51.2277 Y10.4328 
G01 X51.3790 Y10.3317 
G01 X51.5077 Y10.2030 
G01 X51.6088 Y10.0517 
G01 X51.6785 Y9.8835 
G01 X51.7140 Y9.7050 
G01 X51.7140 Y8.3216 
G01 X54.0236 Y6.0120 
G01 X62.0653 Y6.0120 
G01 X69.2990 Y12.6327 
