(.../pcb-gcode-3.6.2.4/pcb-gcode.ulp)
(Copyright 2005 - 2012 by John Johnson)
(See readme.txt for licensing terms.)
(This file generated from the board:)
(.../2016-05-23 - RX luster spodnji stuk/pisarnaInGarderoba-v2.brd)
(Current profile is .../pcb-gcode-3.6.2.4/profiles/generic.pp  )
(This file generated 31.5.2016 14:01:49)
(Settings from pcb-machine.h)
(spindle on time = 3.0000)
(  Tool Size)
(0.1800 )
(spindle speed = 14000.0000)
(tool change at 0.0000 0.0000 5.0000 )
(feed rate xy = F200.00 )
(feed rate z  = F150.00 )
(Z Axis Settings)
(  High     Up        Down     Drill)
(3.0000 	2.0000 	-0.1700 	-2.0000 )
(Settings from pcb-defaults.h)
(isolate min = 0.0800)
(isolate max = 0.3500)
(isolate step = 0.1000)
(Generated top outlines, top drill, )
(Unit of measure: mm)
(Metric Mode)
G21
(Absolute Coordinates)
G90
S14000
G00 Z3.0000 
G00 X0.0000 Y0.0000 
M03
G04 P3.000000
G00 Z2.0000 
G00 X14.6410 Y-7.3883 
G01 Z-0.1700 F150.00 
G01 X14.7923 Y-7.2872 F200.00 
G01 X14.9605 Y-7.2175 
G01 X15.1390 Y-7.1820 
G01 X15.3210 Y-7.1820 
G01 X15.4995 Y-7.2175 
G01 X15.6677 Y-7.2872 
G01 X15.8190 Y-7.3883 
G01 X15.9477 Y-7.5170 
G01 X16.0488 Y-7.6683 
G01 X16.1185 Y-7.8365 
G01 X16.1540 Y-8.0150 
G01 X16.1540 Y-9.7050 
G01 X16.1185 Y-9.8835 
G01 X16.0488 Y-10.0517 
G01 X15.9477 Y-10.2030 
G01 X15.8190 Y-10.3317 
G01 X15.6677 Y-10.4328 
G01 X15.4995 Y-10.5025 
G01 X15.3210 Y-10.5380 
G01 X15.1390 Y-10.5380 
G01 X14.9605 Y-10.5025 
G01 X14.7923 Y-10.4328 
G01 X14.6410 Y-10.3317 
G01 X14.5123 Y-10.2030 
G01 X14.4112 Y-10.0517 
G01 X14.3415 Y-9.8835 
G01 X14.3060 Y-9.7050 
G01 X14.3060 Y-8.0150 
G01 X14.3415 Y-7.8365 
G01 X14.4112 Y-7.6683 
G01 X14.5123 Y-7.5170 
G01 X14.6410 Y-7.3883 
G00 Z2.0000 
G00 X18.1410 Y-12.3883 
G01 Z-0.1700 F150.00 
G01 X18.2923 Y-12.2872 F200.00 
G01 X18.4605 Y-12.2175 
G01 X18.6390 Y-12.1820 
G01 X18.8210 Y-12.1820 
G01 X18.9995 Y-12.2175 
G01 X19.1677 Y-12.2872 
G01 X19.3190 Y-12.3883 
G01 X19.4477 Y-12.5170 
G01 X19.5488 Y-12.6683 
G01 X19.6185 Y-12.8365 
G01 X19.6540 Y-13.0150 
G01 X19.6540 Y-14.7050 
G01 X19.6185 Y-14.8835 
G01 X19.5488 Y-15.0517 
G01 X19.4477 Y-15.2030 
G01 X19.3190 Y-15.3317 
G01 X19.1677 Y-15.4328 
G01 X18.9995 Y-15.5025 
G01 X18.8210 Y-15.5380 
G01 X18.6390 Y-15.5380 
G01 X18.4605 Y-15.5025 
G01 X18.2923 Y-15.4328 
G01 X18.1410 Y-15.3317 
G01 X18.0123 Y-15.2030 
G01 X17.9112 Y-15.0517 
G01 X17.8415 Y-14.8835 
G01 X17.8060 Y-14.7050 
G01 X17.8060 Y-13.0150 
G01 X17.8415 Y-12.8365 
G01 X17.9112 Y-12.6683 
G01 X18.0123 Y-12.5170 
G01 X18.1410 Y-12.3883 
G00 Z2.0000 
G00 X23.4023 Y-10.2030 
G01 Z-0.1700 F150.00 
G01 X23.3012 Y-10.0517 F200.00 
G01 X23.2315 Y-9.8835 
G01 X23.1960 Y-9.7050 
G01 X23.1960 Y-8.0150 
G01 X23.2315 Y-7.8365 
G01 X23.3012 Y-7.6683 
G01 X23.4023 Y-7.5170 
G01 X23.5310 Y-7.3883 
G01 X23.6823 Y-7.2872 
G01 X23.8505 Y-7.2175 
G01 X24.0290 Y-7.1820 
G01 X24.2110 Y-7.1820 
G01 X24.3895 Y-7.2175 
G01 X24.5577 Y-7.2872 
G01 X24.7090 Y-7.3883 
G01 X24.8377 Y-7.5170 
G01 X24.9388 Y-7.6683 
G01 X25.0085 Y-7.8365 
G01 X25.0440 Y-8.0150 
G01 X25.0440 Y-9.7050 
G01 X25.0085 Y-9.8835 
G01 X24.9388 Y-10.0517 
G01 X24.8377 Y-10.2030 
G01 X24.7090 Y-10.3317 
G01 X24.5577 Y-10.4328 
G01 X24.3895 Y-10.5025 
G01 X24.2110 Y-10.5380 
G01 X24.0290 Y-10.5380 
G01 X23.8505 Y-10.5025 
G01 X23.6823 Y-10.4328 
G01 X23.5310 Y-10.3317 
G01 X23.4023 Y-10.2030 
G00 Z2.0000 
G00 X27.0310 Y-12.3883 
G01 Z-0.1700 F150.00 
G01 X27.1823 Y-12.2872 F200.00 
G01 X27.3505 Y-12.2175 
G01 X27.5290 Y-12.1820 
G01 X27.7110 Y-12.1820 
G01 X27.8895 Y-12.2175 
G01 X28.0577 Y-12.2872 
G01 X28.2090 Y-12.3883 
G01 X28.3377 Y-12.5170 
G01 X28.4388 Y-12.6683 
G01 X28.5085 Y-12.8365 
G01 X28.5440 Y-13.0150 
G01 X28.5440 Y-14.7050 
G01 X28.5085 Y-14.8835 
G01 X28.4388 Y-15.0517 
G01 X28.3377 Y-15.2030 
G01 X28.2090 Y-15.3317 
G01 X28.0577 Y-15.4328 
G01 X27.8895 Y-15.5025 
G01 X27.7110 Y-15.5380 
G01 X27.5290 Y-15.5380 
G01 X27.3505 Y-15.5025 
G01 X27.1823 Y-15.4328 
G01 X27.0310 Y-15.3317 
G01 X26.9023 Y-15.2030 
G01 X26.8012 Y-15.0517 
G01 X26.7315 Y-14.8835 
G01 X26.6960 Y-14.7050 
G01 X26.6960 Y-13.0150 
G01 X26.7315 Y-12.8365 
G01 X26.8012 Y-12.6683 
G01 X26.9023 Y-12.5170 
G01 X27.0310 Y-12.3883 
G00 Z2.0000 
G00 X32.2923 Y-10.2030 
G01 Z-0.1700 F150.00 
G01 X32.1912 Y-10.0517 F200.00 
G01 X32.1215 Y-9.8835 
G01 X32.0860 Y-9.7050 
G01 X32.0860 Y-8.0150 
G01 X32.1215 Y-7.8365 
G01 X32.1912 Y-7.6683 
G01 X32.2923 Y-7.5170 
G01 X32.4210 Y-7.3883 
G01 X32.5723 Y-7.2872 
G01 X32.7405 Y-7.2175 
G01 X32.9190 Y-7.1820 
G01 X33.1010 Y-7.1820 
G01 X33.2795 Y-7.2175 
G01 X33.4477 Y-7.2872 
G01 X33.5990 Y-7.3883 
G01 X33.7277 Y-7.5170 
G01 X33.8288 Y-7.6683 
G01 X33.8985 Y-7.8365 
G01 X33.9340 Y-8.0150 
G01 X33.9340 Y-9.7050 
G01 X33.8985 Y-9.8835 
G01 X33.8288 Y-10.0517 
G01 X33.7277 Y-10.2030 
G01 X33.5990 Y-10.3317 
G01 X33.4477 Y-10.4328 
G01 X33.2795 Y-10.5025 
G01 X33.1010 Y-10.5380 
G01 X32.9190 Y-10.5380 
G01 X32.7405 Y-10.5025 
G01 X32.5723 Y-10.4328 
G01 X32.4210 Y-10.3317 
G01 X32.2923 Y-10.2030 
G00 Z2.0000 
G00 X35.9210 Y-12.3883 
G01 Z-0.1700 F150.00 
G01 X36.0723 Y-12.2872 F200.00 
G01 X36.2405 Y-12.2175 
G01 X36.4190 Y-12.1820 
G01 X36.6010 Y-12.1820 
G01 X36.7795 Y-12.2175 
G01 X36.9477 Y-12.2872 
G01 X37.0990 Y-12.3883 
G01 X37.2277 Y-12.5170 
G01 X37.3288 Y-12.6683 
G01 X37.3985 Y-12.8365 
G01 X37.4340 Y-13.0150 
G01 X37.4340 Y-14.7050 
G01 X37.3985 Y-14.8835 
G01 X37.3288 Y-15.0517 
G01 X37.2277 Y-15.2030 
G01 X37.0990 Y-15.3317 
G01 X36.9477 Y-15.4328 
G01 X36.7795 Y-15.5025 
G01 X36.6010 Y-15.5380 
G01 X36.4190 Y-15.5380 
G01 X36.2405 Y-15.5025 
G01 X36.0723 Y-15.4328 
G01 X35.9210 Y-15.3317 
G01 X35.7923 Y-15.2030 
G01 X35.6912 Y-15.0517 
G01 X35.6215 Y-14.8835 
G01 X35.5860 Y-14.7050 
G01 X35.5860 Y-13.0150 
G01 X35.6215 Y-12.8365 
G01 X35.6912 Y-12.6683 
G01 X35.7923 Y-12.5170 
G01 X35.9210 Y-12.3883 
G00 Z2.0000 
G00 X41.1823 Y-10.2030 
G01 Z-0.1700 F150.00 
G01 X41.0812 Y-10.0517 F200.00 
G01 X41.0115 Y-9.8835 
G01 X40.9760 Y-9.7050 
G01 X40.9760 Y-8.0150 
G01 X41.0115 Y-7.8365 
G01 X41.0812 Y-7.6683 
G01 X41.1823 Y-7.5170 
G01 X41.3110 Y-7.3883 
G01 X41.4623 Y-7.2872 
G01 X41.6305 Y-7.2175 
G01 X41.8090 Y-7.1820 
G01 X41.9910 Y-7.1820 
G01 X42.1695 Y-7.2175 
G01 X42.3377 Y-7.2872 
G01 X42.4890 Y-7.3883 
G01 X42.6177 Y-7.5170 
G01 X42.7188 Y-7.6683 
G01 X42.7885 Y-7.8365 
G01 X42.8240 Y-8.0150 
G01 X42.8240 Y-9.7050 
G01 X42.7885 Y-9.8835 
G01 X42.7188 Y-10.0517 
G01 X42.6177 Y-10.2030 
G01 X42.4890 Y-10.3317 
G01 X42.3377 Y-10.4328 
G01 X42.1695 Y-10.5025 
G01 X41.9910 Y-10.5380 
G01 X41.8090 Y-10.5380 
G01 X41.6305 Y-10.5025 
G01 X41.4623 Y-10.4328 
G01 X41.3110 Y-10.3317 
G01 X41.1823 Y-10.2030 
G00 Z2.0000 
G00 X44.8110 Y-12.3883 
G01 Z-0.1700 F150.00 
G01 X44.9623 Y-12.2872 F200.00 
G01 X45.1305 Y-12.2175 
G01 X45.3090 Y-12.1820 
G01 X45.4910 Y-12.1820 
G01 X45.6695 Y-12.2175 
G01 X45.8377 Y-12.2872 
G01 X45.9890 Y-12.3883 
G01 X46.1177 Y-12.5170 
G01 X46.2188 Y-12.6683 
G01 X46.2885 Y-12.8365 
G01 X46.3240 Y-13.0150 
G01 X46.3240 Y-14.7050 
G01 X46.2885 Y-14.8835 
G01 X46.2188 Y-15.0517 
G01 X46.1177 Y-15.2030 
G01 X45.9890 Y-15.3317 
G01 X45.8377 Y-15.4328 
G01 X45.6695 Y-15.5025 
G01 X45.4910 Y-15.5380 
G01 X45.3090 Y-15.5380 
G01 X45.1305 Y-15.5025 
G01 X44.9623 Y-15.4328 
G01 X44.8110 Y-15.3317 
G01 X44.6823 Y-15.2030 
G01 X44.5812 Y-15.0517 
G01 X44.5115 Y-14.8835 
G01 X44.4760 Y-14.7050 
G01 X44.4760 Y-13.0150 
G01 X44.5115 Y-12.8365 
G01 X44.5812 Y-12.6683 
G01 X44.6823 Y-12.5170 
G01 X44.8110 Y-12.3883 
G00 Z2.0000 
G00 X50.0723 Y-10.2030 
G01 Z-0.1700 F150.00 
G01 X49.9712 Y-10.0517 F200.00 
G01 X49.9015 Y-9.8835 
G01 X49.8660 Y-9.7050 
G01 X49.8660 Y-8.0150 
G01 X49.9015 Y-7.8365 
G01 X49.9712 Y-7.6683 
G01 X50.0723 Y-7.5170 
G01 X50.2010 Y-7.3883 
G01 X50.3523 Y-7.2872 
G01 X50.5205 Y-7.2175 
G01 X50.6990 Y-7.1820 
G01 X50.8810 Y-7.1820 
G01 X51.0595 Y-7.2175 
G01 X51.2277 Y-7.2872 
G01 X51.3790 Y-7.3883 
G01 X51.5077 Y-7.5170 
G01 X51.6088 Y-7.6683 
G01 X51.6785 Y-7.8365 
G01 X51.7140 Y-8.0150 
G01 X51.7140 Y-9.7050 
G01 X51.6785 Y-9.8835 
G01 X51.6088 Y-10.0517 
G01 X51.5077 Y-10.2030 
G01 X51.3790 Y-10.3317 
G01 X51.2277 Y-10.4328 
G01 X51.0595 Y-10.5025 
G01 X50.8810 Y-10.5380 
G01 X50.6990 Y-10.5380 
G01 X50.5205 Y-10.5025 
G01 X50.3523 Y-10.4328 
G01 X50.2010 Y-10.3317 
G01 X50.0723 Y-10.2030 
G00 Z2.0000 
G00 X53.7010 Y-12.3883 
G01 Z-0.1700 F150.00 
G01 X53.8523 Y-12.2872 F200.00 
G01 X54.0205 Y-12.2175 
G01 X54.1990 Y-12.1820 
G01 X54.3810 Y-12.1820 
G01 X54.5595 Y-12.2175 
G01 X54.7277 Y-12.2872 
G01 X54.8790 Y-12.3883 
G01 X55.0077 Y-12.5170 
G01 X55.1088 Y-12.6683 
G01 X55.1785 Y-12.8365 
G01 X55.2140 Y-13.0150 
G01 X55.2140 Y-14.7050 
G01 X55.1785 Y-14.8835 
G01 X55.1088 Y-15.0517 
G01 X55.0077 Y-15.2030 
G01 X54.8790 Y-15.3317 
G01 X54.7277 Y-15.4328 
G01 X54.5595 Y-15.5025 
G01 X54.3810 Y-15.5380 
G01 X54.1990 Y-15.5380 
G01 X54.0205 Y-15.5025 
G01 X53.8523 Y-15.4328 
G01 X53.7010 Y-15.3317 
G01 X53.5723 Y-15.2030 
G01 X53.4712 Y-15.0517 
G01 X53.4015 Y-14.8835 
G01 X53.3660 Y-14.7050 
G01 X53.3660 Y-13.0150 
G01 X53.4015 Y-12.8365 
G01 X53.4712 Y-12.6683 
G01 X53.5723 Y-12.5170 
G01 X53.7010 Y-12.3883 
G00 Z2.0000 
G00 X58.9623 Y-10.2030 
G01 Z-0.1700 F150.00 
G01 X58.8612 Y-10.0517 F200.00 
G01 X58.7915 Y-9.8835 
G01 X58.7560 Y-9.7050 
G01 X58.7560 Y-8.0150 
G01 X58.7915 Y-7.8365 
G01 X58.8612 Y-7.6683 
G01 X58.9623 Y-7.5170 
G01 X59.0910 Y-7.3883 
G01 X59.2423 Y-7.2872 
G01 X59.4105 Y-7.2175 
G01 X59.5890 Y-7.1820 
G01 X59.7710 Y-7.1820 
G01 X59.9495 Y-7.2175 
G01 X60.1177 Y-7.2872 
G01 X60.2690 Y-7.3883 
G01 X60.3977 Y-7.5170 
G01 X60.4988 Y-7.6683 
G01 X60.5685 Y-7.8365 
G01 X60.6040 Y-8.0150 
G01 X60.6040 Y-9.7050 
G01 X60.5685 Y-9.8835 
G01 X60.4988 Y-10.0517 
G01 X60.3977 Y-10.2030 
G01 X60.2690 Y-10.3317 
G01 X60.1177 Y-10.4328 
G01 X59.9495 Y-10.5025 
G01 X59.7710 Y-10.5380 
G01 X59.5890 Y-10.5380 
G01 X59.4105 Y-10.5025 
G01 X59.2423 Y-10.4328 
G01 X59.0910 Y-10.3317 
G01 X58.9623 Y-10.2030 
G00 Z2.0000 
G00 X62.5910 Y-12.3883 
G01 Z-0.1700 F150.00 
G01 X62.7423 Y-12.2872 F200.00 
G01 X62.9105 Y-12.2175 
G01 X63.0890 Y-12.1820 
G01 X63.2710 Y-12.1820 
G01 X63.4495 Y-12.2175 
G01 X63.6177 Y-12.2872 
G01 X63.7690 Y-12.3883 
G01 X63.8977 Y-12.5170 
G01 X63.9988 Y-12.6683 
G01 X64.0685 Y-12.8365 
G01 X64.1040 Y-13.0150 
G01 X64.1040 Y-14.7050 
G01 X64.0685 Y-14.8835 
G01 X63.9988 Y-15.0517 
G01 X63.8977 Y-15.2030 
G01 X63.7690 Y-15.3317 
G01 X63.6177 Y-15.4328 
G01 X63.4495 Y-15.5025 
G01 X63.2710 Y-15.5380 
G01 X63.0890 Y-15.5380 
G01 X62.9105 Y-15.5025 
G01 X62.7423 Y-15.4328 
G01 X62.5910 Y-15.3317 
G01 X62.4623 Y-15.2030 
G01 X62.3612 Y-15.0517 
G01 X62.2915 Y-14.8835 
G01 X62.2560 Y-14.7050 
G01 X62.2560 Y-13.0150 
G01 X62.2915 Y-12.8365 
G01 X62.3612 Y-12.6683 
G01 X62.4623 Y-12.5170 
G01 X62.5910 Y-12.3883 
G00 Z2.0000 
G00 X70.3923 Y-10.2030 
G01 Z-0.1700 F150.00 
G01 X70.2912 Y-10.0517 F200.00 
G01 X70.2215 Y-9.8835 
G01 X70.1860 Y-9.7050 
G01 X70.1860 Y-8.0150 
G01 X70.2215 Y-7.8365 
G01 X70.2912 Y-7.6683 
G01 X70.3923 Y-7.5170 
G01 X70.5210 Y-7.3883 
G01 X70.6723 Y-7.2872 
G01 X70.8405 Y-7.2175 
G01 X71.0190 Y-7.1820 
G01 X71.2010 Y-7.1820 
G01 X71.3795 Y-7.2175 
G01 X71.5477 Y-7.2872 
G01 X71.6990 Y-7.3883 
G01 X71.8277 Y-7.5170 
G01 X71.9288 Y-7.6683 
G01 X71.9985 Y-7.8365 
G01 X72.0340 Y-8.0150 
G01 X72.0340 Y-9.7050 
G01 X71.9985 Y-9.8835 
G01 X71.9288 Y-10.0517 
G01 X71.8277 Y-10.2030 
G01 X71.6990 Y-10.3317 
G01 X71.5477 Y-10.4328 
G01 X71.3795 Y-10.5025 
G01 X71.2010 Y-10.5380 
G01 X71.0190 Y-10.5380 
G01 X70.8405 Y-10.5025 
G01 X70.6723 Y-10.4328 
G01 X70.5210 Y-10.3317 
G01 X70.3923 Y-10.2030 
G00 Z2.0000 
G00 X74.0210 Y-12.3883 
G01 Z-0.1700 F150.00 
G01 X74.1723 Y-12.2872 F200.00 
G01 X74.3405 Y-12.2175 
G01 X74.5190 Y-12.1820 
G01 X74.7010 Y-12.1820 
G01 X74.8795 Y-12.2175 
G01 X75.0477 Y-12.2872 
G01 X75.1990 Y-12.3883 
G01 X75.3277 Y-12.5170 
G01 X75.4288 Y-12.6683 
G01 X75.4985 Y-12.8365 
G01 X75.5340 Y-13.0150 
G01 X75.5340 Y-14.7050 
G01 X75.4985 Y-14.8835 
G01 X75.4288 Y-15.0517 
G01 X75.3277 Y-15.2030 
G01 X75.1990 Y-15.3317 
G01 X75.0477 Y-15.4328 
G01 X74.8795 Y-15.5025 
G01 X74.7010 Y-15.5380 
G01 X74.5190 Y-15.5380 
G01 X74.3405 Y-15.5025 
G01 X74.1723 Y-15.4328 
G01 X74.0210 Y-15.3317 
G01 X73.8923 Y-15.2030 
G01 X73.7912 Y-15.0517 
G01 X73.7215 Y-14.8835 
G01 X73.6860 Y-14.7050 
G01 X73.6860 Y-13.0150 
G01 X73.7215 Y-12.8365 
G01 X73.7912 Y-12.6683 
G01 X73.8923 Y-12.5170 
G01 X74.0210 Y-12.3883 
G00 Z2.0000 
G00 X84.3670 Y-15.6635 
G01 Z-0.1700 F150.00 
G01 X84.5083 Y-15.5608 F200.00 
G01 X84.6640 Y-15.4815 
G01 X84.8301 Y-15.4275 
G01 X85.0027 Y-15.4002 
G01 X85.1773 Y-15.4002 
G01 X85.3499 Y-15.4275 
G01 X85.5160 Y-15.4815 
G01 X85.6717 Y-15.5608 
G01 X85.8130 Y-15.6635 
G01 X85.9365 Y-15.7870 
G01 X86.0392 Y-15.9283 
G01 X86.1185 Y-16.0840 
G01 X86.1725 Y-16.2501 
G01 X86.1998 Y-16.4227 
G01 X86.1998 Y-16.5973 
G01 X86.1725 Y-16.7699 
G01 X86.1185 Y-16.9360 
G01 X86.0392 Y-17.0917 
G01 X85.9365 Y-17.2330 
G01 X85.8130 Y-17.3565 
G01 X85.6717 Y-17.4592 
G01 X85.5160 Y-17.5385 
G01 X85.3499 Y-17.5925 
G01 X85.1773 Y-17.6198 
G01 X85.0027 Y-17.6198 
G01 X84.8301 Y-17.5925 
G01 X84.6640 Y-17.5385 
G01 X84.5083 Y-17.4592 
G01 X84.3670 Y-17.3565 
G01 X84.2435 Y-17.2330 
G01 X84.1408 Y-17.0917 
G01 X84.0615 Y-16.9360 
G01 X84.0075 Y-16.7699 
G01 X83.9802 Y-16.5973 
G01 X83.9802 Y-16.4227 
G01 X84.0075 Y-16.2501 
G01 X84.0615 Y-16.0840 
G01 X84.1408 Y-15.9283 
G01 X84.2435 Y-15.7870 
G01 X84.3670 Y-15.6635 
G00 Z2.0000 
G00 X84.5497 Y-18.6960 
G01 Z-0.1700 F150.00 
G01 X84.6847 Y-18.6058 F200.00 
G01 X84.8346 Y-18.5437 
G01 X84.9938 Y-18.5120 
G01 X85.1562 Y-18.5120 
G01 X85.3153 Y-18.5437 
G01 X85.4653 Y-18.6058 
G01 X85.6003 Y-18.6960 
G01 X85.7150 Y-18.8107 
G01 X85.8052 Y-18.9457 
G01 X85.8673 Y-19.0956 
G01 X85.8990 Y-19.2548 
G01 X85.8990 Y-20.7252 
G01 X85.8673 Y-20.8844 
G01 X85.8052 Y-21.0343 
G01 X85.7150 Y-21.1693 
G01 X85.6003 Y-21.2840 
G01 X85.4653 Y-21.3742 
G01 X85.3153 Y-21.4363 
G01 X85.1562 Y-21.4680 
G01 X84.9938 Y-21.4680 
G01 X84.8346 Y-21.4363 
G01 X84.6847 Y-21.3742 
G01 X84.5497 Y-21.2840 
G01 X84.4350 Y-21.1693 
G01 X84.3448 Y-21.0343 
G01 X84.2827 Y-20.8844 
G01 X84.2510 Y-20.7252 
G01 X84.2510 Y-19.2548 
G01 X84.2827 Y-19.0956 
G01 X84.3448 Y-18.9457 
G01 X84.4350 Y-18.8107 
G01 X84.5497 Y-18.6960 
G00 Z2.0000 
G00 X89.5497 Y-18.6960 
G01 Z-0.1700 F150.00 
G01 X89.6847 Y-18.6058 F200.00 
G01 X89.8346 Y-18.5437 
G01 X89.9938 Y-18.5120 
G01 X90.1562 Y-18.5120 
G01 X90.3153 Y-18.5437 
G01 X90.4653 Y-18.6058 
G01 X90.6003 Y-18.6960 
G01 X90.7150 Y-18.8107 
G01 X90.8052 Y-18.9457 
G01 X90.8673 Y-19.0956 
G01 X90.8990 Y-19.2548 
G01 X90.8990 Y-20.7252 
G01 X90.8673 Y-20.8844 
G01 X90.8052 Y-21.0343 
G01 X90.7150 Y-21.1693 
G01 X90.6003 Y-21.2840 
G01 X90.4653 Y-21.3742 
G01 X90.3153 Y-21.4363 
G01 X90.1562 Y-21.4680 
G01 X89.9938 Y-21.4680 
G01 X89.8346 Y-21.4363 
G01 X89.6847 Y-21.3742 
G01 X89.5497 Y-21.2840 
G01 X89.4350 Y-21.1693 
G01 X89.3448 Y-21.0343 
G01 X89.2827 Y-20.8844 
G01 X89.2510 Y-20.7252 
G01 X89.2510 Y-19.2548 
G01 X89.2827 Y-19.0956 
G01 X89.3448 Y-18.9457 
G01 X89.4350 Y-18.8107 
G01 X89.5497 Y-18.6960 
G00 Z2.0000 
G00 X89.5883 Y-17.4592 
G01 Z-0.1700 F150.00 
G01 X89.4470 Y-17.3565 F200.00 
G01 X89.3235 Y-17.2330 
G01 X89.2208 Y-17.0917 
G01 X89.1415 Y-16.9360 
G01 X89.0875 Y-16.7699 
G01 X89.0602 Y-16.5973 
G01 X89.0602 Y-16.4227 
G01 X89.0875 Y-16.2501 
G01 X89.1415 Y-16.0840 
G01 X89.2208 Y-15.9283 
G01 X89.3235 Y-15.7870 
G01 X89.4470 Y-15.6635 
G01 X89.5883 Y-15.5608 
G01 X89.7440 Y-15.4815 
G01 X89.9101 Y-15.4275 
G01 X90.0827 Y-15.4002 
G01 X90.2573 Y-15.4002 
G01 X90.4299 Y-15.4275 
G01 X90.5960 Y-15.4815 
G01 X90.7517 Y-15.5608 
G01 X90.8930 Y-15.6635 
G01 X91.0165 Y-15.7870 
G01 X91.1192 Y-15.9283 
G01 X91.1985 Y-16.0840 
G01 X91.2525 Y-16.2501 
G01 X91.2798 Y-16.4227 
G01 X91.2798 Y-16.5973 
G01 X91.2525 Y-16.7699 
G01 X91.1985 Y-16.9360 
G01 X91.1192 Y-17.0917 
G01 X91.0165 Y-17.2330 
G01 X90.8930 Y-17.3565 
G01 X90.7517 Y-17.4592 
G01 X90.5960 Y-17.5385 
G01 X90.4299 Y-17.5925 
G01 X90.2573 Y-17.6198 
G01 X90.0827 Y-17.6198 
G01 X89.9101 Y-17.5925 
G01 X89.7440 Y-17.5385 
G01 X89.5883 Y-17.4592 
G00 Z2.0000 
G00 X68.3631 Y-20.7649 
G01 Z-0.1700 F150.00 
G01 X68.4945 Y-20.9458 F200.00 
G01 X68.5960 Y-21.1449 
G01 X68.6650 Y-21.3575 
G01 X68.7000 Y-21.5782 
G01 X68.7000 Y-21.8018 
G01 X68.6650 Y-22.0225 
G01 X68.5960 Y-22.2351 
G01 X68.4945 Y-22.4342 
G01 X68.3631 Y-22.6151 
G01 X68.2051 Y-22.7731 
G01 X68.0242 Y-22.9045 
G01 X67.8251 Y-23.0060 
G01 X67.6125 Y-23.0750 
G01 X67.3918 Y-23.1100 
G01 X67.1682 Y-23.1100 
G01 X66.9475 Y-23.0750 
G01 X66.7349 Y-23.0060 
G01 X66.5358 Y-22.9045 
G01 X66.3549 Y-22.7731 
G01 X66.1969 Y-22.6151 
G01 X66.0655 Y-22.4342 
G01 X65.9640 Y-22.2351 
G01 X65.8950 Y-22.0225 
G01 X65.8600 Y-21.8018 
G01 X65.8600 Y-21.5782 
G01 X65.8950 Y-21.3575 
G01 X65.9640 Y-21.1449 
G01 X66.0655 Y-20.9458 
G01 X66.1969 Y-20.7649 
G01 X66.3549 Y-20.6069 
G01 X66.5358 Y-20.4755 
G01 X66.7349 Y-20.3740 
G01 X66.9475 Y-20.3050 
G01 X67.1682 Y-20.2700 
G01 X67.3918 Y-20.2700 
G01 X67.6125 Y-20.3050 
G01 X67.8251 Y-20.3740 
G01 X68.0242 Y-20.4755 
G01 X68.2051 Y-20.6069 
G01 X68.3631 Y-20.7649 
G00 Z2.0000 
G00 X68.3631 Y-25.8049 
G01 Z-0.1700 F150.00 
G01 X68.4945 Y-25.9858 F200.00 
G01 X68.5960 Y-26.1849 
G01 X68.6650 Y-26.3975 
G01 X68.7000 Y-26.6182 
G01 X68.7000 Y-26.8418 
G01 X68.6650 Y-27.0625 
G01 X68.5960 Y-27.2751 
G01 X68.4945 Y-27.4742 
G01 X68.3631 Y-27.6551 
G01 X68.2051 Y-27.8131 
G01 X68.0242 Y-27.9445 
G01 X67.8251 Y-28.0460 
G01 X67.6125 Y-28.1150 
G01 X67.3918 Y-28.1500 
G01 X67.1682 Y-28.1500 
G01 X66.9475 Y-28.1150 
G01 X66.7349 Y-28.0460 
G01 X66.5358 Y-27.9445 
G01 X66.3549 Y-27.8131 
G01 X66.1969 Y-27.6551 
G01 X66.0655 Y-27.4742 
G01 X65.9640 Y-27.2751 
G01 X65.8950 Y-27.0625 
G01 X65.8600 Y-26.8418 
G01 X65.8600 Y-26.6182 
G01 X65.8950 Y-26.3975 
G01 X65.9640 Y-26.1849 
G01 X66.0655 Y-25.9858 
G01 X66.1969 Y-25.8049 
G01 X66.3549 Y-25.6469 
G01 X66.5358 Y-25.5155 
G01 X66.7349 Y-25.4140 
G01 X66.9475 Y-25.3450 
G01 X67.1682 Y-25.3100 
G01 X67.3918 Y-25.3100 
G01 X67.6125 Y-25.3450 
G01 X67.8251 Y-25.4140 
G01 X68.0242 Y-25.5155 
G01 X68.2051 Y-25.6469 
G01 X68.3631 Y-25.8049 
G00 Z2.0000 
G00 X68.3631 Y-30.8449 
G01 Z-0.1700 F150.00 
G01 X68.4945 Y-31.0258 F200.00 
G01 X68.5960 Y-31.2249 
G01 X68.6650 Y-31.4375 
G01 X68.7000 Y-31.6582 
G01 X68.7000 Y-31.8818 
G01 X68.6650 Y-32.1025 
G01 X68.5960 Y-32.3151 
G01 X68.4945 Y-32.5142 
G01 X68.3631 Y-32.6951 
G01 X68.2051 Y-32.8531 
G01 X68.0242 Y-32.9845 
G01 X67.8251 Y-33.0860 
G01 X67.6125 Y-33.1550 
G01 X67.3918 Y-33.1900 
G01 X67.1682 Y-33.1900 
G01 X66.9475 Y-33.1550 
G01 X66.7349 Y-33.0860 
G01 X66.5358 Y-32.9845 
G01 X66.3549 Y-32.8531 
G01 X66.1969 Y-32.6951 
G01 X66.0655 Y-32.5142 
G01 X65.9640 Y-32.3151 
G01 X65.8950 Y-32.1025 
G01 X65.8600 Y-31.8818 
G01 X65.8600 Y-31.6582 
G01 X65.8950 Y-31.4375 
G01 X65.9640 Y-31.2249 
G01 X66.0655 Y-31.0258 
G01 X66.1969 Y-30.8449 
G01 X66.3549 Y-30.6869 
G01 X66.5358 Y-30.5555 
G01 X66.7349 Y-30.4540 
G01 X66.9475 Y-30.3850 
G01 X67.1682 Y-30.3500 
G01 X67.3918 Y-30.3500 
G01 X67.6125 Y-30.3850 
G01 X67.8251 Y-30.4540 
G01 X68.0242 Y-30.5555 
G01 X68.2051 Y-30.6869 
G01 X68.3631 Y-30.8449 
G00 Z2.0000 
G00 X60.8031 Y-30.8449 
G01 Z-0.1700 F150.00 
G01 X60.9345 Y-31.0258 F200.00 
G01 X61.0360 Y-31.2249 
G01 X61.1050 Y-31.4375 
G01 X61.1400 Y-31.6582 
G01 X61.1400 Y-31.8818 
G01 X61.1050 Y-32.1025 
G01 X61.0360 Y-32.3151 
G01 X60.9345 Y-32.5142 
G01 X60.8031 Y-32.6951 
G01 X60.6451 Y-32.8531 
G01 X60.4642 Y-32.9845 
G01 X60.2651 Y-33.0860 
G01 X60.0525 Y-33.1550 
G01 X59.8318 Y-33.1900 
G01 X59.6082 Y-33.1900 
G01 X59.3875 Y-33.1550 
G01 X59.1749 Y-33.0860 
G01 X58.9758 Y-32.9845 
G01 X58.7949 Y-32.8531 
G01 X58.6369 Y-32.6951 
G01 X58.5055 Y-32.5142 
G01 X58.4040 Y-32.3151 
G01 X58.3350 Y-32.1025 
G01 X58.3000 Y-31.8818 
G01 X58.3000 Y-31.6582 
G01 X58.3350 Y-31.4375 
G01 X58.4040 Y-31.2249 
G01 X58.5055 Y-31.0258 
G01 X58.6369 Y-30.8449 
G01 X58.7949 Y-30.6869 
G01 X58.9758 Y-30.5555 
G01 X59.1749 Y-30.4540 
G01 X59.3875 Y-30.3850 
G01 X59.6082 Y-30.3500 
G01 X59.8318 Y-30.3500 
G01 X60.0525 Y-30.3850 
G01 X60.2651 Y-30.4540 
G01 X60.4642 Y-30.5555 
G01 X60.6451 Y-30.6869 
G01 X60.8031 Y-30.8449 
G00 Z2.0000 
G00 X60.6451 Y-27.8131 
G01 Z-0.1700 F150.00 
G01 X60.4642 Y-27.9445 F200.00 
G01 X60.2651 Y-28.0460 
G01 X60.0525 Y-28.1150 
G01 X59.8318 Y-28.1500 
G01 X59.6082 Y-28.1500 
G01 X59.3875 Y-28.1150 
G01 X59.1749 Y-28.0460 
G01 X58.9758 Y-27.9445 
G01 X58.7949 Y-27.8131 
G01 X58.6369 Y-27.6551 
G01 X58.5055 Y-27.4742 
G01 X58.4040 Y-27.2751 
G01 X58.3350 Y-27.0625 
G01 X58.3000 Y-26.8418 
G01 X58.3000 Y-26.6182 
G01 X58.3350 Y-26.3975 
G01 X58.4040 Y-26.1849 
G01 X58.5055 Y-25.9858 
G01 X58.6369 Y-25.8049 
G01 X58.7949 Y-25.6469 
G01 X58.9758 Y-25.5155 
G01 X59.1749 Y-25.4140 
G01 X59.3875 Y-25.3450 
G01 X59.6082 Y-25.3100 
G01 X59.8318 Y-25.3100 
G01 X60.0525 Y-25.3450 
G01 X60.2651 Y-25.4140 
G01 X60.4642 Y-25.5155 
G01 X60.6451 Y-25.6469 
G01 X60.8031 Y-25.8049 
G01 X60.9345 Y-25.9858 
G01 X61.0360 Y-26.1849 
G01 X61.1050 Y-26.3975 
G01 X61.1400 Y-26.6182 
G01 X61.1400 Y-26.8418 
G01 X61.1050 Y-27.0625 
G01 X61.0360 Y-27.2751 
G01 X60.9345 Y-27.4742 
G01 X60.8031 Y-27.6551 
G01 X60.6451 Y-27.8131 
G00 Z2.0000 
G00 X60.6451 Y-22.7731 
G01 Z-0.1700 F150.00 
G01 X60.4642 Y-22.9045 F200.00 
G01 X60.2651 Y-23.0060 
G01 X60.0525 Y-23.0750 
G01 X59.8318 Y-23.1100 
G01 X59.6082 Y-23.1100 
G01 X59.3875 Y-23.0750 
G01 X59.1749 Y-23.0060 
G01 X58.9758 Y-22.9045 
G01 X58.7949 Y-22.7731 
G01 X58.6369 Y-22.6151 
G01 X58.5055 Y-22.4342 
G01 X58.4040 Y-22.2351 
G01 X58.3350 Y-22.0225 
G01 X58.3000 Y-21.8018 
G01 X58.3000 Y-21.5782 
G01 X58.3350 Y-21.3575 
G01 X58.4040 Y-21.1449 
G01 X58.5055 Y-20.9458 
G01 X58.6369 Y-20.7649 
G01 X58.7949 Y-20.6069 
G01 X58.9758 Y-20.4755 
G01 X59.1749 Y-20.3740 
G01 X59.3875 Y-20.3050 
G01 X59.6082 Y-20.2700 
G01 X59.8318 Y-20.2700 
G01 X60.0525 Y-20.3050 
G01 X60.2651 Y-20.3740 
G01 X60.4642 Y-20.4755 
G01 X60.6451 Y-20.6069 
G01 X60.8031 Y-20.7649 
G01 X60.9345 Y-20.9458 
G01 X61.0360 Y-21.1449 
G01 X61.1050 Y-21.3575 
G01 X61.1400 Y-21.5782 
G01 X61.1400 Y-21.8018 
G01 X61.1050 Y-22.0225 
G01 X61.0360 Y-22.2351 
G01 X60.9345 Y-22.4342 
G01 X60.8031 Y-22.6151 
G01 X60.6451 Y-22.7731 
G00 Z2.0000 
G00 X46.6151 Y-22.7731 
G01 Z-0.1700 F150.00 
G01 X46.4342 Y-22.9045 F200.00 
G01 X46.2351 Y-23.0060 
G01 X46.0225 Y-23.0750 
G01 X45.8018 Y-23.1100 
G01 X45.5782 Y-23.1100 
G01 X45.3575 Y-23.0750 
G01 X45.1449 Y-23.0060 
G01 X44.9458 Y-22.9045 
G01 X44.7649 Y-22.7731 
G01 X44.6069 Y-22.6151 
G01 X44.4755 Y-22.4342 
G01 X44.3740 Y-22.2351 
G01 X44.3050 Y-22.0225 
G01 X44.2700 Y-21.8018 
G01 X44.2700 Y-21.5782 
G01 X44.3050 Y-21.3575 
G01 X44.3740 Y-21.1449 
G01 X44.4755 Y-20.9458 
G01 X44.6069 Y-20.7649 
G01 X44.7649 Y-20.6069 
G01 X44.9458 Y-20.4755 
G01 X45.1449 Y-20.3740 
G01 X45.3575 Y-20.3050 
G01 X45.5782 Y-20.2700 
G01 X45.8018 Y-20.2700 
G01 X46.0225 Y-20.3050 
G01 X46.2351 Y-20.3740 
G01 X46.4342 Y-20.4755 
G01 X46.6151 Y-20.6069 
G01 X46.7731 Y-20.7649 
G01 X46.9045 Y-20.9458 
G01 X47.0060 Y-21.1449 
G01 X47.0750 Y-21.3575 
G01 X47.1100 Y-21.5782 
G01 X47.1100 Y-21.8018 
G01 X47.0750 Y-22.0225 
G01 X47.0060 Y-22.2351 
G01 X46.9045 Y-22.4342 
G01 X46.7731 Y-22.6151 
G01 X46.6151 Y-22.7731 
G00 Z2.0000 
G00 X46.6151 Y-25.6469 
G01 Z-0.1700 F150.00 
G01 X46.7731 Y-25.8049 F200.00 
G01 X46.9045 Y-25.9858 
G01 X47.0060 Y-26.1849 
G01 X47.0750 Y-26.3975 
G01 X47.1100 Y-26.6182 
G01 X47.1100 Y-26.8418 
G01 X47.0750 Y-27.0625 
G01 X47.0060 Y-27.2751 
G01 X46.9045 Y-27.4742 
G01 X46.7731 Y-27.6551 
G01 X46.6151 Y-27.8131 
G01 X46.4342 Y-27.9445 
G01 X46.2351 Y-28.0460 
G01 X46.0225 Y-28.1150 
G01 X45.8018 Y-28.1500 
G01 X45.5782 Y-28.1500 
G01 X45.3575 Y-28.1150 
G01 X45.1449 Y-28.0460 
G01 X44.9458 Y-27.9445 
G01 X44.7649 Y-27.8131 
G01 X44.6069 Y-27.6551 
G01 X44.4755 Y-27.4742 
G01 X44.3740 Y-27.2751 
G01 X44.3050 Y-27.0625 
G01 X44.2700 Y-26.8418 
G01 X44.2700 Y-26.6182 
G01 X44.3050 Y-26.3975 
G01 X44.3740 Y-26.1849 
G01 X44.4755 Y-25.9858 
G01 X44.6069 Y-25.8049 
G01 X44.7649 Y-25.6469 
G01 X44.9458 Y-25.5155 
G01 X45.1449 Y-25.4140 
G01 X45.3575 Y-25.3450 
G01 X45.5782 Y-25.3100 
G01 X45.8018 Y-25.3100 
G01 X46.0225 Y-25.3450 
G01 X46.2351 Y-25.4140 
G01 X46.4342 Y-25.5155 
G01 X46.6151 Y-25.6469 
G00 Z2.0000 
G00 X46.6151 Y-30.6869 
G01 Z-0.1700 F150.00 
G01 X46.7731 Y-30.8449 F200.00 
G01 X46.9045 Y-31.0258 
G01 X47.0060 Y-31.2249 
G01 X47.0750 Y-31.4375 
G01 X47.1100 Y-31.6582 
G01 X47.1100 Y-31.8818 
G01 X47.0750 Y-32.1025 
G01 X47.0060 Y-32.3151 
G01 X46.9045 Y-32.5142 
G01 X46.7731 Y-32.6951 
G01 X46.6151 Y-32.8531 
G01 X46.4342 Y-32.9845 
G01 X46.2351 Y-33.0860 
G01 X46.0225 Y-33.1550 
G01 X45.8018 Y-33.1900 
G01 X45.5782 Y-33.1900 
G01 X45.3575 Y-33.1550 
G01 X45.1449 Y-33.0860 
G01 X44.9458 Y-32.9845 
G01 X44.7649 Y-32.8531 
G01 X44.6069 Y-32.6951 
G01 X44.4755 Y-32.5142 
G01 X44.3740 Y-32.3151 
G01 X44.3050 Y-32.1025 
G01 X44.2700 Y-31.8818 
G01 X44.2700 Y-31.6582 
G01 X44.3050 Y-31.4375 
G01 X44.3740 Y-31.2249 
G01 X44.4755 Y-31.0258 
G01 X44.6069 Y-30.8449 
G01 X44.7649 Y-30.6869 
G01 X44.9458 Y-30.5555 
G01 X45.1449 Y-30.4540 
G01 X45.3575 Y-30.3850 
G01 X45.5782 Y-30.3500 
G01 X45.8018 Y-30.3500 
G01 X46.0225 Y-30.3850 
G01 X46.2351 Y-30.4540 
G01 X46.4342 Y-30.5555 
G01 X46.6151 Y-30.6869 
G00 Z2.0000 
G00 X39.2131 Y-30.8449 
G01 Z-0.1700 F150.00 
G01 X39.3445 Y-31.0258 F200.00 
G01 X39.4460 Y-31.2249 
G01 X39.5150 Y-31.4375 
G01 X39.5500 Y-31.6582 
G01 X39.5500 Y-31.8818 
G01 X39.5150 Y-32.1025 
G01 X39.4460 Y-32.3151 
G01 X39.3445 Y-32.5142 
G01 X39.2131 Y-32.6951 
G01 X39.0551 Y-32.8531 
G01 X38.8742 Y-32.9845 
G01 X38.6751 Y-33.0860 
G01 X38.4625 Y-33.1550 
G01 X38.2418 Y-33.1900 
G01 X38.0182 Y-33.1900 
G01 X37.7975 Y-33.1550 
G01 X37.5849 Y-33.0860 
G01 X37.3858 Y-32.9845 
G01 X37.2049 Y-32.8531 
G01 X37.0469 Y-32.6951 
G01 X36.9155 Y-32.5142 
G01 X36.8140 Y-32.3151 
G01 X36.7450 Y-32.1025 
G01 X36.7100 Y-31.8818 
G01 X36.7100 Y-31.6582 
G01 X36.7450 Y-31.4375 
G01 X36.8140 Y-31.2249 
G01 X36.9155 Y-31.0258 
G01 X37.0469 Y-30.8449 
G01 X37.2049 Y-30.6869 
G01 X37.3858 Y-30.5555 
G01 X37.5849 Y-30.4540 
G01 X37.7975 Y-30.3850 
G01 X38.0182 Y-30.3500 
G01 X38.2418 Y-30.3500 
G01 X38.4625 Y-30.3850 
G01 X38.6751 Y-30.4540 
G01 X38.8742 Y-30.5555 
G01 X39.0551 Y-30.6869 
G01 X39.2131 Y-30.8449 
G00 Z2.0000 
G00 X39.0551 Y-27.8131 
G01 Z-0.1700 F150.00 
G01 X38.8742 Y-27.9445 F200.00 
G01 X38.6751 Y-28.0460 
G01 X38.4625 Y-28.1150 
G01 X38.2418 Y-28.1500 
G01 X38.0182 Y-28.1500 
G01 X37.7975 Y-28.1150 
G01 X37.5849 Y-28.0460 
G01 X37.3858 Y-27.9445 
G01 X37.2049 Y-27.8131 
G01 X37.0469 Y-27.6551 
G01 X36.9155 Y-27.4742 
G01 X36.8140 Y-27.2751 
G01 X36.7450 Y-27.0625 
G01 X36.7100 Y-26.8418 
G01 X36.7100 Y-26.6182 
G01 X36.7450 Y-26.3975 
G01 X36.8140 Y-26.1849 
G01 X36.9155 Y-25.9858 
G01 X37.0469 Y-25.8049 
G01 X37.2049 Y-25.6469 
G01 X37.3858 Y-25.5155 
G01 X37.5849 Y-25.4140 
G01 X37.7975 Y-25.3450 
G01 X38.0182 Y-25.3100 
G01 X38.2418 Y-25.3100 
G01 X38.4625 Y-25.3450 
G01 X38.6751 Y-25.4140 
G01 X38.8742 Y-25.5155 
G01 X39.0551 Y-25.6469 
G01 X39.2131 Y-25.8049 
G01 X39.3445 Y-25.9858 
G01 X39.4460 Y-26.1849 
G01 X39.5150 Y-26.3975 
G01 X39.5500 Y-26.6182 
G01 X39.5500 Y-26.8418 
G01 X39.5150 Y-27.0625 
G01 X39.4460 Y-27.2751 
G01 X39.3445 Y-27.4742 
G01 X39.2131 Y-27.6551 
G01 X39.0551 Y-27.8131 
G00 Z2.0000 
G00 X39.0551 Y-22.7731 
G01 Z-0.1700 F150.00 
G01 X38.8742 Y-22.9045 F200.00 
G01 X38.6751 Y-23.0060 
G01 X38.4625 Y-23.0750 
G01 X38.2418 Y-23.1100 
G01 X38.0182 Y-23.1100 
G01 X37.7975 Y-23.0750 
G01 X37.5849 Y-23.0060 
G01 X37.3858 Y-22.9045 
G01 X37.2049 Y-22.7731 
G01 X37.0469 Y-22.6151 
G01 X36.9155 Y-22.4342 
G01 X36.8140 Y-22.2351 
G01 X36.7450 Y-22.0225 
G01 X36.7100 Y-21.8018 
G01 X36.7100 Y-21.5782 
G01 X36.7450 Y-21.3575 
G01 X36.8140 Y-21.1449 
G01 X36.9155 Y-20.9458 
G01 X37.0469 Y-20.7649 
G01 X37.2049 Y-20.6069 
G01 X37.3858 Y-20.4755 
G01 X37.5849 Y-20.3740 
G01 X37.7975 Y-20.3050 
G01 X38.0182 Y-20.2700 
G01 X38.2418 Y-20.2700 
G01 X38.4625 Y-20.3050 
G01 X38.6751 Y-20.3740 
G01 X38.8742 Y-20.4755 
G01 X39.0551 Y-20.6069 
G01 X39.2131 Y-20.7649 
G01 X39.3445 Y-20.9458 
G01 X39.4460 Y-21.1449 
G01 X39.5150 Y-21.3575 
G01 X39.5500 Y-21.5782 
G01 X39.5500 Y-21.8018 
G01 X39.5150 Y-22.0225 
G01 X39.4460 Y-22.2351 
G01 X39.3445 Y-22.4342 
G01 X39.2131 Y-22.6151 
G01 X39.0551 Y-22.7731 
G00 Z2.0000 
G00 X25.0251 Y-22.7731 
G01 Z-0.1700 F150.00 
G01 X24.8442 Y-22.9045 F200.00 
G01 X24.6451 Y-23.0060 
G01 X24.4325 Y-23.0750 
G01 X24.2118 Y-23.1100 
G01 X23.9882 Y-23.1100 
G01 X23.7675 Y-23.0750 
G01 X23.5549 Y-23.0060 
G01 X23.3558 Y-22.9045 
G01 X23.1749 Y-22.7731 
G01 X23.0169 Y-22.6151 
G01 X22.8855 Y-22.4342 
G01 X22.7840 Y-22.2351 
G01 X22.7150 Y-22.0225 
G01 X22.6800 Y-21.8018 
G01 X22.6800 Y-21.5782 
G01 X22.7150 Y-21.3575 
G01 X22.7840 Y-21.1449 
G01 X22.8855 Y-20.9458 
G01 X23.0169 Y-20.7649 
G01 X23.1749 Y-20.6069 
G01 X23.3558 Y-20.4755 
G01 X23.5549 Y-20.3740 
G01 X23.7675 Y-20.3050 
G01 X23.9882 Y-20.2700 
G01 X24.2118 Y-20.2700 
G01 X24.4325 Y-20.3050 
G01 X24.6451 Y-20.3740 
G01 X24.8442 Y-20.4755 
G01 X25.0251 Y-20.6069 
G01 X25.1831 Y-20.7649 
G01 X25.3145 Y-20.9458 
G01 X25.4160 Y-21.1449 
G01 X25.4850 Y-21.3575 
G01 X25.5200 Y-21.5782 
G01 X25.5200 Y-21.8018 
G01 X25.4850 Y-22.0225 
G01 X25.4160 Y-22.2351 
G01 X25.3145 Y-22.4342 
G01 X25.1831 Y-22.6151 
G01 X25.0251 Y-22.7731 
G00 Z2.0000 
G00 X25.0251 Y-25.6469 
G01 Z-0.1700 F150.00 
G01 X25.1831 Y-25.8049 F200.00 
G01 X25.3145 Y-25.9858 
G01 X25.4160 Y-26.1849 
G01 X25.4850 Y-26.3975 
G01 X25.5200 Y-26.6182 
G01 X25.5200 Y-26.8418 
G01 X25.4850 Y-27.0625 
G01 X25.4160 Y-27.2751 
G01 X25.3145 Y-27.4742 
G01 X25.1831 Y-27.6551 
G01 X25.0251 Y-27.8131 
G01 X24.8442 Y-27.9445 
G01 X24.6451 Y-28.0460 
G01 X24.4325 Y-28.1150 
G01 X24.2118 Y-28.1500 
G01 X23.9882 Y-28.1500 
G01 X23.7675 Y-28.1150 
G01 X23.5549 Y-28.0460 
G01 X23.3558 Y-27.9445 
G01 X23.1749 Y-27.8131 
G01 X23.0169 Y-27.6551 
G01 X22.8855 Y-27.4742 
G01 X22.7840 Y-27.2751 
G01 X22.7150 Y-27.0625 
G01 X22.6800 Y-26.8418 
G01 X22.6800 Y-26.6182 
G01 X22.7150 Y-26.3975 
G01 X22.7840 Y-26.1849 
G01 X22.8855 Y-25.9858 
G01 X23.0169 Y-25.8049 
G01 X23.1749 Y-25.6469 
G01 X23.3558 Y-25.5155 
G01 X23.5549 Y-25.4140 
G01 X23.7675 Y-25.3450 
G01 X23.9882 Y-25.3100 
G01 X24.2118 Y-25.3100 
G01 X24.4325 Y-25.3450 
G01 X24.6451 Y-25.4140 
G01 X24.8442 Y-25.5155 
G01 X25.0251 Y-25.6469 
G00 Z2.0000 
G00 X25.0251 Y-30.6869 
G01 Z-0.1700 F150.00 
G01 X25.1831 Y-30.8449 F200.00 
G01 X25.3145 Y-31.0258 
G01 X25.4160 Y-31.2249 
G01 X25.4850 Y-31.4375 
G01 X25.5200 Y-31.6582 
G01 X25.5200 Y-31.8818 
G01 X25.4850 Y-32.1025 
G01 X25.4160 Y-32.3151 
G01 X25.3145 Y-32.5142 
G01 X25.1831 Y-32.6951 
G01 X25.0251 Y-32.8531 
G01 X24.8442 Y-32.9845 
G01 X24.6451 Y-33.0860 
G01 X24.4325 Y-33.1550 
G01 X24.2118 Y-33.1900 
G01 X23.9882 Y-33.1900 
G01 X23.7675 Y-33.1550 
G01 X23.5549 Y-33.0860 
G01 X23.3558 Y-32.9845 
G01 X23.1749 Y-32.8531 
G01 X23.0169 Y-32.6951 
G01 X22.8855 Y-32.5142 
G01 X22.7840 Y-32.3151 
G01 X22.7150 Y-32.1025 
G01 X22.6800 Y-31.8818 
G01 X22.6800 Y-31.6582 
G01 X22.7150 Y-31.4375 
G01 X22.7840 Y-31.2249 
G01 X22.8855 Y-31.0258 
G01 X23.0169 Y-30.8449 
G01 X23.1749 Y-30.6869 
G01 X23.3558 Y-30.5555 
G01 X23.5549 Y-30.4540 
G01 X23.7675 Y-30.3850 
G01 X23.9882 Y-30.3500 
G01 X24.2118 Y-30.3500 
G01 X24.4325 Y-30.3850 
G01 X24.6451 Y-30.4540 
G01 X24.8442 Y-30.5555 
G01 X25.0251 Y-30.6869 
G00 Z2.0000 
G00 X17.6231 Y-30.8449 
G01 Z-0.1700 F150.00 
G01 X17.7545 Y-31.0258 F200.00 
G01 X17.8560 Y-31.2249 
G01 X17.9250 Y-31.4375 
G01 X17.9600 Y-31.6582 
G01 X17.9600 Y-31.8818 
G01 X17.9250 Y-32.1025 
G01 X17.8560 Y-32.3151 
G01 X17.7545 Y-32.5142 
G01 X17.6231 Y-32.6951 
G01 X17.4651 Y-32.8531 
G01 X17.2842 Y-32.9845 
G01 X17.0851 Y-33.0860 
G01 X16.8725 Y-33.1550 
G01 X16.6518 Y-33.1900 
G01 X16.4282 Y-33.1900 
G01 X16.2075 Y-33.1550 
G01 X15.9949 Y-33.0860 
G01 X15.7958 Y-32.9845 
G01 X15.6149 Y-32.8531 
G01 X15.4569 Y-32.6951 
G01 X15.3255 Y-32.5142 
G01 X15.2240 Y-32.3151 
G01 X15.1550 Y-32.1025 
G01 X15.1200 Y-31.8818 
G01 X15.1200 Y-31.6582 
G01 X15.1550 Y-31.4375 
G01 X15.2240 Y-31.2249 
G01 X15.3255 Y-31.0258 
G01 X15.4569 Y-30.8449 
G01 X15.6149 Y-30.6869 
G01 X15.7958 Y-30.5555 
G01 X15.9949 Y-30.4540 
G01 X16.2075 Y-30.3850 
G01 X16.4282 Y-30.3500 
G01 X16.6518 Y-30.3500 
G01 X16.8725 Y-30.3850 
G01 X17.0851 Y-30.4540 
G01 X17.2842 Y-30.5555 
G01 X17.4651 Y-30.6869 
G01 X17.6231 Y-30.8449 
G00 Z2.0000 
G00 X17.4651 Y-27.8131 
G01 Z-0.1700 F150.00 
G01 X17.2842 Y-27.9445 F200.00 
G01 X17.0851 Y-28.0460 
G01 X16.8725 Y-28.1150 
G01 X16.6518 Y-28.1500 
G01 X16.4282 Y-28.1500 
G01 X16.2075 Y-28.1150 
G01 X15.9949 Y-28.0460 
G01 X15.7958 Y-27.9445 
G01 X15.6149 Y-27.8131 
G01 X15.4569 Y-27.6551 
G01 X15.3255 Y-27.4742 
G01 X15.2240 Y-27.2751 
G01 X15.1550 Y-27.0625 
G01 X15.1200 Y-26.8418 
G01 X15.1200 Y-26.6182 
G01 X15.1550 Y-26.3975 
G01 X15.2240 Y-26.1849 
G01 X15.3255 Y-25.9858 
G01 X15.4569 Y-25.8049 
G01 X15.6149 Y-25.6469 
G01 X15.7958 Y-25.5155 
G01 X15.9949 Y-25.4140 
G01 X16.2075 Y-25.3450 
G01 X16.4282 Y-25.3100 
G01 X16.6518 Y-25.3100 
G01 X16.8725 Y-25.3450 
G01 X17.0851 Y-25.4140 
G01 X17.2842 Y-25.5155 
G01 X17.4651 Y-25.6469 
G01 X17.6231 Y-25.8049 
G01 X17.7545 Y-25.9858 
G01 X17.8560 Y-26.1849 
G01 X17.9250 Y-26.3975 
G01 X17.9600 Y-26.6182 
G01 X17.9600 Y-26.8418 
G01 X17.9250 Y-27.0625 
G01 X17.8560 Y-27.2751 
G01 X17.7545 Y-27.4742 
G01 X17.6231 Y-27.6551 
G01 X17.4651 Y-27.8131 
G00 Z2.0000 
G00 X17.4651 Y-22.7731 
G01 Z-0.1700 F150.00 
G01 X17.2842 Y-22.9045 F200.00 
G01 X17.0851 Y-23.0060 
G01 X16.8725 Y-23.0750 
G01 X16.6518 Y-23.1100 
G01 X16.4282 Y-23.1100 
G01 X16.2075 Y-23.0750 
G01 X15.9949 Y-23.0060 
G01 X15.7958 Y-22.9045 
G01 X15.6149 Y-22.7731 
G01 X15.4569 Y-22.6151 
G01 X15.3255 Y-22.4342 
G01 X15.2240 Y-22.2351 
G01 X15.1550 Y-22.0225 
G01 X15.1200 Y-21.8018 
G01 X15.1200 Y-21.5782 
G01 X15.1550 Y-21.3575 
G01 X15.2240 Y-21.1449 
G01 X15.3255 Y-20.9458 
G01 X15.4569 Y-20.7649 
G01 X15.6149 Y-20.6069 
G01 X15.7958 Y-20.4755 
G01 X15.9949 Y-20.3740 
G01 X16.2075 Y-20.3050 
G01 X16.4282 Y-20.2700 
G01 X16.6518 Y-20.2700 
G01 X16.8725 Y-20.3050 
G01 X17.0851 Y-20.3740 
G01 X17.2842 Y-20.4755 
G01 X17.4651 Y-20.6069 
G01 X17.6231 Y-20.7649 
G01 X17.7545 Y-20.9458 
G01 X17.8560 Y-21.1449 
G01 X17.9250 Y-21.3575 
G01 X17.9600 Y-21.5782 
G01 X17.9600 Y-21.8018 
G01 X17.9250 Y-22.0225 
G01 X17.8560 Y-22.2351 
G01 X17.7545 Y-22.4342 
G01 X17.6231 Y-22.6151 
G01 X17.4651 Y-22.7731 
G00 Z2.0000 
G00 X17.4134 Y-46.1441 
G01 Z-0.1700 F150.00 
G01 X17.5193 Y-46.2899 F200.00 
G01 X17.6011 Y-46.4505 
G01 X17.6568 Y-46.6219 
G01 X17.6850 Y-46.7999 
G01 X17.6850 Y-46.9801 
G01 X17.6568 Y-47.1581 
G01 X17.6011 Y-47.3295 
G01 X17.5193 Y-47.4901 
G01 X17.4134 Y-47.6359 
G01 X17.2859 Y-47.7634 
G01 X17.1401 Y-47.8693 
G01 X16.9795 Y-47.9511 
G01 X16.8081 Y-48.0068 
G01 X16.6301 Y-48.0350 
G01 X16.4499 Y-48.0350 
G01 X16.2719 Y-48.0068 
G01 X16.1005 Y-47.9511 
G01 X15.9399 Y-47.8693 
G01 X15.7941 Y-47.7634 
G01 X15.6666 Y-47.6359 
G01 X15.5607 Y-47.4901 
G01 X15.4789 Y-47.3295 
G01 X15.4232 Y-47.1581 
G01 X15.3950 Y-46.9801 
G01 X15.3950 Y-46.7999 
G01 X15.4232 Y-46.6219 
G01 X15.4789 Y-46.4505 
G01 X15.5607 Y-46.2899 
G01 X15.6666 Y-46.1441 
G01 X15.7941 Y-46.0166 
G01 X15.9399 Y-45.9107 
G01 X16.1005 Y-45.8289 
G01 X16.2719 Y-45.7732 
G01 X16.4499 Y-45.7450 
G01 X16.6301 Y-45.7450 
G01 X16.8081 Y-45.7732 
G01 X16.9795 Y-45.8289 
G01 X17.1401 Y-45.9107 
G01 X17.2859 Y-46.0166 
G01 X17.4134 Y-46.1441 
G00 Z2.0000 
G00 X19.4466 Y-46.1441 
G01 Z-0.1700 F150.00 
G01 X19.5741 Y-46.0166 F200.00 
G01 X19.7199 Y-45.9107 
G01 X19.8805 Y-45.8289 
G01 X20.0519 Y-45.7732 
G01 X20.2299 Y-45.7450 
G01 X20.4101 Y-45.7450 
G01 X20.5881 Y-45.7732 
G01 X20.7595 Y-45.8289 
G01 X20.9201 Y-45.9107 
G01 X21.0659 Y-46.0166 
G01 X21.1934 Y-46.1441 
G01 X21.2993 Y-46.2899 
G01 X21.3811 Y-46.4505 
G01 X21.4368 Y-46.6219 
G01 X21.4650 Y-46.7999 
G01 X21.4650 Y-46.9801 
G01 X21.4368 Y-47.1581 
G01 X21.3811 Y-47.3295 
G01 X21.2993 Y-47.4901 
G01 X21.1934 Y-47.6359 
G01 X21.0659 Y-47.7634 
G01 X20.9201 Y-47.8693 
G01 X20.7595 Y-47.9511 
G01 X20.5881 Y-48.0068 
G01 X20.4101 Y-48.0350 
G01 X20.2299 Y-48.0350 
G01 X20.0519 Y-48.0068 
G01 X19.8805 Y-47.9511 
G01 X19.7199 Y-47.8693 
G01 X19.5741 Y-47.7634 
G01 X19.4466 Y-47.6359 
G01 X19.3407 Y-47.4901 
G01 X19.2589 Y-47.3295 
G01 X19.2032 Y-47.1581 
G01 X19.1750 Y-46.9801 
G01 X19.1750 Y-46.7999 
G01 X19.2032 Y-46.6219 
G01 X19.2589 Y-46.4505 
G01 X19.3407 Y-46.2899 
G01 X19.4466 Y-46.1441 
G00 Z2.0000 
G00 X23.2266 Y-46.1441 
G01 Z-0.1700 F150.00 
G01 X23.3541 Y-46.0166 F200.00 
G01 X23.4999 Y-45.9107 
G01 X23.6605 Y-45.8289 
G01 X23.8319 Y-45.7732 
G01 X24.0099 Y-45.7450 
G01 X24.1901 Y-45.7450 
G01 X24.3681 Y-45.7732 
G01 X24.5395 Y-45.8289 
G01 X24.7001 Y-45.9107 
G01 X24.8459 Y-46.0166 
G01 X24.9734 Y-46.1441 
G01 X25.0793 Y-46.2899 
G01 X25.1611 Y-46.4505 
G01 X25.2168 Y-46.6219 
G01 X25.2450 Y-46.7999 
G01 X25.2450 Y-46.9801 
G01 X25.2168 Y-47.1581 
G01 X25.1611 Y-47.3295 
G01 X25.0793 Y-47.4901 
G01 X24.9734 Y-47.6359 
G01 X24.8459 Y-47.7634 
G01 X24.7001 Y-47.8693 
G01 X24.5395 Y-47.9511 
G01 X24.3681 Y-48.0068 
G01 X24.1901 Y-48.0350 
G01 X24.0099 Y-48.0350 
G01 X23.8319 Y-48.0068 
G01 X23.6605 Y-47.9511 
G01 X23.4999 Y-47.8693 
G01 X23.3541 Y-47.7634 
G01 X23.2266 Y-47.6359 
G01 X23.1207 Y-47.4901 
G01 X23.0389 Y-47.3295 
G01 X22.9832 Y-47.1581 
G01 X22.9550 Y-46.9801 
G01 X22.9550 Y-46.7999 
G01 X22.9832 Y-46.6219 
G01 X23.0389 Y-46.4505 
G01 X23.1207 Y-46.2899 
G01 X23.2266 Y-46.1441 
G00 Z2.0000 
G00 X21.1031 Y-51.4273 
G01 Z-0.1700 F150.00 
G01 X21.2135 Y-51.5924 F200.00 
G01 X21.2895 Y-51.7759 
G01 X21.3282 Y-51.9707 
G01 X21.3282 Y-52.1693 
G01 X21.2895 Y-52.3641 
G01 X21.2135 Y-52.5476 
G01 X21.1031 Y-52.7127 
G01 X20.9627 Y-52.8531 
G01 X20.7976 Y-52.9635 
G01 X20.6141 Y-53.0395 
G01 X20.4193 Y-53.0782 
G01 X20.2207 Y-53.0782 
G01 X20.0259 Y-53.0395 
G01 X19.8424 Y-52.9635 
G01 X19.6773 Y-52.8531 
G01 X19.5369 Y-52.7127 
G01 X19.4265 Y-52.5476 
G01 X19.3505 Y-52.3641 
G01 X19.3118 Y-52.1693 
G01 X19.3118 Y-51.9707 
G01 X19.3505 Y-51.7759 
G01 X19.4265 Y-51.5924 
G01 X19.5369 Y-51.4273 
G01 X19.6773 Y-51.2869 
G01 X19.8424 Y-51.1765 
G01 X20.0259 Y-51.1005 
G01 X20.2207 Y-51.0618 
G01 X20.4193 Y-51.0618 
G01 X20.6141 Y-51.1005 
G01 X20.7976 Y-51.1765 
G01 X20.9627 Y-51.2869 
G01 X21.1031 Y-51.4273 
G00 Z2.0000 
G00 X23.4873 Y-55.0969 
G01 Z-0.1700 F150.00 
G01 X23.6524 Y-54.9865 F200.00 
G01 X23.8359 Y-54.9105 
G01 X24.0307 Y-54.8718 
G01 X24.2293 Y-54.8718 
G01 X24.4241 Y-54.9105 
G01 X24.6076 Y-54.9865 
G01 X24.7727 Y-55.0969 
G01 X24.9131 Y-55.2373 
G01 X25.0235 Y-55.4024 
G01 X25.0995 Y-55.5859 
G01 X25.1382 Y-55.7807 
G01 X25.1382 Y-55.9793 
G01 X25.0995 Y-56.1741 
G01 X25.0235 Y-56.3576 
G01 X24.9131 Y-56.5227 
G01 X24.7727 Y-56.6631 
G01 X24.6076 Y-56.7735 
G01 X24.4241 Y-56.8495 
G01 X24.2293 Y-56.8882 
G01 X24.0307 Y-56.8882 
G01 X23.8359 Y-56.8495 
G01 X23.6524 Y-56.7735 
G01 X23.4873 Y-56.6631 
G01 X23.3469 Y-56.5227 
G01 X23.2365 Y-56.3576 
G01 X23.1605 Y-56.1741 
G01 X23.1218 Y-55.9793 
G01 X23.1218 Y-55.7807 
G01 X23.1605 Y-55.5859 
G01 X23.2365 Y-55.4024 
G01 X23.3469 Y-55.2373 
G01 X23.4873 Y-55.0969 
G00 Z2.0000 
G00 X29.6969 Y-52.7127 
G01 Z-0.1700 F150.00 
G01 X29.5865 Y-52.5476 F200.00 
G01 X29.5105 Y-52.3641 
G01 X29.4718 Y-52.1693 
G01 X29.4718 Y-51.9707 
G01 X29.5105 Y-51.7759 
G01 X29.5865 Y-51.5924 
G01 X29.6969 Y-51.4273 
G01 X29.8373 Y-51.2869 
G01 X30.0024 Y-51.1765 
G01 X30.1859 Y-51.1005 
G01 X30.3807 Y-51.0618 
G01 X30.5793 Y-51.0618 
G01 X30.7741 Y-51.1005 
G01 X30.9576 Y-51.1765 
G01 X31.1227 Y-51.2869 
G01 X31.2631 Y-51.4273 
G01 X31.3735 Y-51.5924 
G01 X31.4495 Y-51.7759 
G01 X31.4882 Y-51.9707 
G01 X31.4882 Y-52.1693 
G01 X31.4495 Y-52.3641 
G01 X31.3735 Y-52.5476 
G01 X31.2631 Y-52.7127 
G01 X31.1227 Y-52.8531 
G01 X30.9576 Y-52.9635 
G01 X30.7741 Y-53.0395 
G01 X30.5793 Y-53.0782 
G01 X30.3807 Y-53.0782 
G01 X30.1859 Y-53.0395 
G01 X30.0024 Y-52.9635 
G01 X29.8373 Y-52.8531 
G01 X29.6969 Y-52.7127 
G00 Z2.0000 
G00 X33.5069 Y-52.7127 
G01 Z-0.1700 F150.00 
G01 X33.3965 Y-52.5476 F200.00 
G01 X33.3205 Y-52.3641 
G01 X33.2818 Y-52.1693 
G01 X33.2818 Y-51.9707 
G01 X33.3205 Y-51.7759 
G01 X33.3965 Y-51.5924 
G01 X33.5069 Y-51.4273 
G01 X33.6473 Y-51.2869 
G01 X33.8124 Y-51.1765 
G01 X33.9959 Y-51.1005 
G01 X34.1907 Y-51.0618 
G01 X34.3893 Y-51.0618 
G01 X34.5841 Y-51.1005 
G01 X34.7676 Y-51.1765 
G01 X34.9327 Y-51.2869 
G01 X35.0731 Y-51.4273 
G01 X35.1835 Y-51.5924 
G01 X35.2595 Y-51.7759 
G01 X35.2982 Y-51.9707 
G01 X35.2982 Y-52.1693 
G01 X35.2595 Y-52.3641 
G01 X35.1835 Y-52.5476 
G01 X35.0731 Y-52.7127 
G01 X34.9327 Y-52.8531 
G01 X34.7676 Y-52.9635 
G01 X34.5841 Y-53.0395 
G01 X34.3893 Y-53.0782 
G01 X34.1907 Y-53.0782 
G01 X33.9959 Y-53.0395 
G01 X33.8124 Y-52.9635 
G01 X33.6473 Y-52.8531 
G01 X33.5069 Y-52.7127 
G00 Z2.0000 
G00 X33.4133 Y-55.7537 
G01 Z-0.1700 F150.00 
G01 X33.5493 Y-55.8446 F200.00 
G01 X33.6650 Y-55.9603 
G01 X33.7559 Y-56.0963 
G01 X33.8185 Y-56.2474 
G01 X33.8504 Y-56.4078 
G01 X33.8504 Y-57.8922 
G01 X33.8185 Y-58.0526 
G01 X33.7559 Y-58.2037 
G01 X33.6650 Y-58.3397 
G01 X33.5493 Y-58.4554 
G01 X33.4133 Y-58.5463 
G01 X33.2622 Y-58.6089 
G01 X33.1018 Y-58.6408 
G01 X32.9382 Y-58.6408 
G01 X32.7778 Y-58.6089 
G01 X32.6267 Y-58.5463 
G01 X32.4907 Y-58.4554 
G01 X32.3750 Y-58.3397 
G01 X32.2841 Y-58.2037 
G01 X32.2215 Y-58.0526 
G01 X32.1896 Y-57.8922 
G01 X32.1896 Y-56.4078 
G01 X32.2215 Y-56.2474 
G01 X32.2841 Y-56.0963 
G01 X32.3750 Y-55.9603 
G01 X32.4907 Y-55.8446 
G01 X32.6267 Y-55.7537 
G01 X32.7778 Y-55.6911 
G01 X32.9382 Y-55.6592 
G01 X33.1018 Y-55.6592 
G01 X33.2622 Y-55.6911 
G01 X33.4133 Y-55.7537 
G00 Z2.0000 
G00 X35.0307 Y-55.8446 
G01 Z-0.1700 F150.00 
G01 X35.1667 Y-55.7537 F200.00 
G01 X35.3178 Y-55.6911 
G01 X35.4782 Y-55.6592 
G01 X35.6418 Y-55.6592 
G01 X35.8022 Y-55.6911 
G01 X35.9533 Y-55.7537 
G01 X36.0893 Y-55.8446 
G01 X36.2050 Y-55.9603 
G01 X36.2959 Y-56.0963 
G01 X36.3585 Y-56.2474 
G01 X36.3904 Y-56.4078 
G01 X36.3904 Y-57.8922 
G01 X36.3585 Y-58.0526 
G01 X36.2959 Y-58.2037 
G01 X36.2050 Y-58.3397 
G01 X36.0893 Y-58.4554 
G01 X35.9533 Y-58.5463 
G01 X35.8022 Y-58.6089 
G01 X35.6418 Y-58.6408 
G01 X35.4782 Y-58.6408 
G01 X35.3178 Y-58.6089 
G01 X35.1667 Y-58.5463 
G01 X35.0307 Y-58.4554 
G01 X34.9150 Y-58.3397 
G01 X34.8241 Y-58.2037 
G01 X34.7615 Y-58.0526 
G01 X34.7296 Y-57.8922 
G01 X34.7296 Y-56.4078 
G01 X34.7615 Y-56.2474 
G01 X34.8241 Y-56.0963 
G01 X34.9150 Y-55.9603 
G01 X35.0307 Y-55.8446 
G00 Z2.0000 
G00 X35.0307 Y-63.4646 
G01 Z-0.1700 F150.00 
G01 X35.1667 Y-63.3737 F200.00 
G01 X35.3178 Y-63.3111 
G01 X35.4782 Y-63.2792 
G01 X35.6418 Y-63.2792 
G01 X35.8022 Y-63.3111 
G01 X35.9533 Y-63.3737 
G01 X36.0893 Y-63.4646 
G01 X36.2050 Y-63.5802 
G01 X36.2959 Y-63.7163 
G01 X36.3585 Y-63.8674 
G01 X36.3904 Y-64.0278 
G01 X36.3904 Y-65.5122 
G01 X36.3585 Y-65.6726 
G01 X36.2959 Y-65.8237 
G01 X36.2050 Y-65.9597 
G01 X36.0893 Y-66.0754 
G01 X35.9533 Y-66.1663 
G01 X35.8022 Y-66.2289 
G01 X35.6418 Y-66.2608 
G01 X35.4782 Y-66.2608 
G01 X35.3178 Y-66.2289 
G01 X35.1667 Y-66.1663 
G01 X35.0307 Y-66.0754 
G01 X34.9150 Y-65.9597 
G01 X34.8241 Y-65.8237 
G01 X34.7615 Y-65.6726 
G01 X34.7296 Y-65.5122 
G01 X34.7296 Y-64.0278 
G01 X34.7615 Y-63.8674 
G01 X34.8241 Y-63.7163 
G01 X34.9150 Y-63.5802 
G01 X35.0307 Y-63.4646 
G00 Z2.0000 
G00 X33.6650 Y-63.5802 
G01 Z-0.1700 F150.00 
G01 X33.7559 Y-63.7163 F200.00 
G01 X33.8185 Y-63.8674 
G01 X33.8504 Y-64.0278 
G01 X33.8504 Y-65.5122 
G01 X33.8185 Y-65.6726 
G01 X33.7559 Y-65.8237 
G01 X33.6650 Y-65.9597 
G01 X33.5493 Y-66.0754 
G01 X33.4133 Y-66.1663 
G01 X33.2622 Y-66.2289 
G01 X33.1018 Y-66.2608 
G01 X32.9382 Y-66.2608 
G01 X32.7778 Y-66.2289 
G01 X32.6267 Y-66.1663 
G01 X32.4907 Y-66.0754 
G01 X32.3750 Y-65.9597 
G01 X32.2841 Y-65.8237 
G01 X32.2215 Y-65.6726 
G01 X32.1896 Y-65.5122 
G01 X32.1896 Y-64.0278 
G01 X32.2215 Y-63.8674 
G01 X32.2841 Y-63.7163 
G01 X32.3750 Y-63.5802 
G01 X32.4907 Y-63.4646 
G01 X32.6267 Y-63.3737 
G01 X32.7778 Y-63.3111 
G01 X32.9382 Y-63.2792 
G01 X33.1018 Y-63.2792 
G01 X33.2622 Y-63.3111 
G01 X33.4133 Y-63.3737 
G01 X33.5493 Y-63.4646 
G01 X33.6650 Y-63.5802 
G00 Z2.0000 
G00 X33.3640 Y-67.7496 
G01 Z-0.1700 F150.00 
G01 X33.8504 Y-68.2360 F200.00 
G01 X33.8504 Y-68.9240 
G01 X33.3640 Y-69.4104 
G01 X32.6760 Y-69.4104 
G01 X32.1896 Y-68.9240 
G01 X32.1896 Y-68.2360 
G01 X32.6760 Y-67.7496 
G01 X33.3640 Y-67.7496 
G00 Z2.0000 
G00 X36.4860 Y-67.7496 
G01 Z-0.1700 F150.00 
G01 X37.1740 Y-67.7496 F200.00 
G01 X37.6604 Y-68.2360 
G01 X37.6604 Y-68.9240 
G01 X37.1740 Y-69.4104 
G01 X36.4860 Y-69.4104 
G01 X35.9996 Y-68.9240 
G01 X35.9996 Y-68.2360 
G01 X36.4860 Y-67.7496 
G00 Z2.0000 
G00 X40.7203 Y-69.2050 
G01 Z-0.1700 F150.00 
G01 X40.8563 Y-69.1141 F200.00 
G01 X41.0074 Y-69.0515 
G01 X41.1678 Y-69.0196 
G01 X42.6522 Y-69.0196 
G01 X42.8126 Y-69.0515 
G01 X42.9637 Y-69.1141 
G01 X43.0997 Y-69.2050 
G01 X43.2154 Y-69.3207 
G01 X43.3063 Y-69.4567 
G01 X43.3689 Y-69.6078 
G01 X43.4008 Y-69.7682 
G01 X43.4008 Y-69.9318 
G01 X43.3689 Y-70.0922 
G01 X43.3063 Y-70.2433 
G01 X43.2154 Y-70.3793 
G01 X43.0997 Y-70.4950 
G01 X42.9637 Y-70.5859 
G01 X42.8126 Y-70.6485 
G01 X42.6522 Y-70.6804 
G01 X41.1678 Y-70.6804 
G01 X41.0074 Y-70.6485 
G01 X40.8563 Y-70.5859 
G01 X40.7203 Y-70.4950 
G01 X40.6046 Y-70.3793 
G01 X40.5137 Y-70.2433 
G01 X40.4511 Y-70.0922 
G01 X40.4192 Y-69.9318 
G01 X40.4192 Y-69.7682 
G01 X40.4511 Y-69.6078 
G01 X40.5137 Y-69.4567 
G01 X40.6046 Y-69.3207 
G01 X40.7203 Y-69.2050 
G00 Z2.0000 
G00 X40.7203 Y-71.7450 
G01 Z-0.1700 F150.00 
G01 X40.8563 Y-71.6541 F200.00 
G01 X41.0074 Y-71.5915 
G01 X41.1678 Y-71.5596 
G01 X42.6522 Y-71.5596 
G01 X42.8126 Y-71.5915 
G01 X42.9637 Y-71.6541 
G01 X43.0997 Y-71.7450 
G01 X43.2154 Y-71.8607 
G01 X43.3063 Y-71.9967 
G01 X43.3689 Y-72.1478 
G01 X43.4008 Y-72.3082 
G01 X43.4008 Y-72.4718 
G01 X43.3689 Y-72.6322 
G01 X43.3063 Y-72.7833 
G01 X43.2154 Y-72.9193 
G01 X43.0997 Y-73.0350 
G01 X42.9637 Y-73.1259 
G01 X42.8126 Y-73.1885 
G01 X42.6522 Y-73.2204 
G01 X41.1678 Y-73.2204 
G01 X41.0074 Y-73.1885 
G01 X40.8563 Y-73.1259 
G01 X40.7203 Y-73.0350 
G01 X40.6046 Y-72.9193 
G01 X40.5137 Y-72.7833 
G01 X40.4511 Y-72.6322 
G01 X40.4192 Y-72.4718 
G01 X40.4192 Y-72.3082 
G01 X40.4511 Y-72.1478 
G01 X40.5137 Y-71.9967 
G01 X40.6046 Y-71.8607 
G01 X40.7203 Y-71.7450 
G00 Z2.0000 
G00 X40.7203 Y-74.2850 
G01 Z-0.1700 F150.00 
G01 X40.8563 Y-74.1941 F200.00 
G01 X41.0074 Y-74.1315 
G01 X41.1678 Y-74.0996 
G01 X42.6522 Y-74.0996 
G01 X42.8126 Y-74.1315 
G01 X42.9637 Y-74.1941 
G01 X43.0997 Y-74.2850 
G01 X43.2154 Y-74.4006 
G01 X43.3063 Y-74.5367 
G01 X43.3689 Y-74.6878 
G01 X43.4008 Y-74.8482 
G01 X43.4008 Y-75.0118 
G01 X43.3689 Y-75.1722 
G01 X43.3063 Y-75.3233 
G01 X43.2154 Y-75.4593 
G01 X43.0997 Y-75.5750 
G01 X42.9637 Y-75.6659 
G01 X42.8126 Y-75.7285 
G01 X42.6522 Y-75.7604 
G01 X41.1678 Y-75.7604 
G01 X41.0074 Y-75.7285 
G01 X40.8563 Y-75.6659 
G01 X40.7203 Y-75.5750 
G01 X40.6046 Y-75.4593 
G01 X40.5137 Y-75.3233 
G01 X40.4511 Y-75.1722 
G01 X40.4192 Y-75.0118 
G01 X40.4192 Y-74.8482 
G01 X40.4511 Y-74.6878 
G01 X40.5137 Y-74.5367 
G01 X40.6046 Y-74.4006 
G01 X40.7203 Y-74.2850 
G00 Z2.0000 
G00 X40.7203 Y-76.8250 
G01 Z-0.1700 F150.00 
G01 X40.8563 Y-76.7341 F200.00 
G01 X41.0074 Y-76.6715 
G01 X41.1678 Y-76.6396 
G01 X42.6522 Y-76.6396 
G01 X42.8126 Y-76.6715 
G01 X42.9637 Y-76.7341 
G01 X43.0997 Y-76.8250 
G01 X43.2154 Y-76.9407 
G01 X43.3063 Y-77.0767 
G01 X43.3689 Y-77.2278 
G01 X43.4008 Y-77.3882 
G01 X43.4008 Y-77.5518 
G01 X43.3689 Y-77.7122 
G01 X43.3063 Y-77.8633 
G01 X43.2154 Y-77.9993 
G01 X43.0997 Y-78.1150 
G01 X42.9637 Y-78.2059 
G01 X42.8126 Y-78.2685 
G01 X42.6522 Y-78.3004 
G01 X41.1678 Y-78.3004 
G01 X41.0074 Y-78.2685 
G01 X40.8563 Y-78.2059 
G01 X40.7203 Y-78.1150 
G01 X40.6046 Y-77.9993 
G01 X40.5137 Y-77.8633 
G01 X40.4511 Y-77.7122 
G01 X40.4192 Y-77.5518 
G01 X40.4192 Y-77.3882 
G01 X40.4511 Y-77.2278 
G01 X40.5137 Y-77.0767 
G01 X40.6046 Y-76.9407 
G01 X40.7203 Y-76.8250 
G00 Z2.0000 
G00 X40.7203 Y-79.3650 
G01 Z-0.1700 F150.00 
G01 X40.8563 Y-79.2741 F200.00 
G01 X41.0074 Y-79.2115 
G01 X41.1678 Y-79.1796 
G01 X42.6522 Y-79.1796 
G01 X42.8126 Y-79.2115 
G01 X42.9637 Y-79.2741 
G01 X43.0997 Y-79.3650 
G01 X43.2154 Y-79.4806 
G01 X43.3063 Y-79.6167 
G01 X43.3689 Y-79.7678 
G01 X43.4008 Y-79.9282 
G01 X43.4008 Y-80.0918 
G01 X43.3689 Y-80.2522 
G01 X43.3063 Y-80.4033 
G01 X43.2154 Y-80.5393 
G01 X43.0997 Y-80.6550 
G01 X42.9637 Y-80.7459 
G01 X42.8126 Y-80.8085 
G01 X42.6522 Y-80.8404 
G01 X41.1678 Y-80.8404 
G01 X41.0074 Y-80.8085 
G01 X40.8563 Y-80.7459 
G01 X40.7203 Y-80.6550 
G01 X40.6046 Y-80.5393 
G01 X40.5137 Y-80.4033 
G01 X40.4511 Y-80.2522 
G01 X40.4192 Y-80.0918 
G01 X40.4192 Y-79.9282 
G01 X40.4511 Y-79.7678 
G01 X40.5137 Y-79.6167 
G01 X40.6046 Y-79.4806 
G01 X40.7203 Y-79.3650 
G00 Z2.0000 
G00 X40.7203 Y-81.9050 
G01 Z-0.1700 F150.00 
G01 X40.8563 Y-81.8141 F200.00 
G01 X41.0074 Y-81.7515 
G01 X41.1678 Y-81.7196 
G01 X42.6522 Y-81.7196 
G01 X42.8126 Y-81.7515 
G01 X42.9637 Y-81.8141 
G01 X43.0997 Y-81.9050 
G01 X43.2154 Y-82.0207 
G01 X43.3063 Y-82.1567 
G01 X43.3689 Y-82.3078 
G01 X43.4008 Y-82.4682 
G01 X43.4008 Y-82.6318 
G01 X43.3689 Y-82.7922 
G01 X43.3063 Y-82.9433 
G01 X43.2154 Y-83.0793 
G01 X43.0997 Y-83.1950 
G01 X42.9637 Y-83.2859 
G01 X42.8126 Y-83.3485 
G01 X42.6522 Y-83.3804 
G01 X41.1678 Y-83.3804 
G01 X41.0074 Y-83.3485 
G01 X40.8563 Y-83.2859 
G01 X40.7203 Y-83.1950 
G01 X40.6046 Y-83.0793 
G01 X40.5137 Y-82.9433 
G01 X40.4511 Y-82.7922 
G01 X40.4192 Y-82.6318 
G01 X40.4192 Y-82.4682 
G01 X40.4511 Y-82.3078 
G01 X40.5137 Y-82.1567 
G01 X40.6046 Y-82.0207 
G01 X40.7203 Y-81.9050 
G00 Z2.0000 
G00 X40.7203 Y-84.4450 
G01 Z-0.1700 F150.00 
G01 X40.8563 Y-84.3541 F200.00 
G01 X41.0074 Y-84.2915 
G01 X41.1678 Y-84.2596 
G01 X42.6522 Y-84.2596 
G01 X42.8126 Y-84.2915 
G01 X42.9637 Y-84.3541 
G01 X43.0997 Y-84.4450 
G01 X43.2154 Y-84.5606 
G01 X43.3063 Y-84.6967 
G01 X43.3689 Y-84.8478 
G01 X43.4008 Y-85.0082 
G01 X43.4008 Y-85.1718 
G01 X43.3689 Y-85.3322 
G01 X43.3063 Y-85.4833 
G01 X43.2154 Y-85.6193 
G01 X43.0997 Y-85.7350 
G01 X42.9637 Y-85.8259 
G01 X42.8126 Y-85.8885 
G01 X42.6522 Y-85.9204 
G01 X41.1678 Y-85.9204 
G01 X41.0074 Y-85.8885 
G01 X40.8563 Y-85.8259 
G01 X40.7203 Y-85.7350 
G01 X40.6046 Y-85.6193 
G01 X40.5137 Y-85.4833 
G01 X40.4511 Y-85.3322 
G01 X40.4192 Y-85.1718 
G01 X40.4192 Y-85.0082 
G01 X40.4511 Y-84.8478 
G01 X40.5137 Y-84.6967 
G01 X40.6046 Y-84.5606 
G01 X40.7203 Y-84.4450 
G00 Z2.0000 
G00 X37.6604 Y-87.2860 
G01 Z-0.1700 F150.00 
G01 X37.6604 Y-87.9740 F200.00 
G01 X37.1740 Y-88.4604 
G01 X36.4860 Y-88.4604 
G01 X35.9996 Y-87.9740 
G01 X35.9996 Y-87.2860 
G01 X36.4860 Y-86.7996 
G01 X37.1740 Y-86.7996 
G01 X37.6604 Y-87.2860 
G00 Z2.0000 
G00 X33.8504 Y-87.2860 
G01 Z-0.1700 F150.00 
G01 X33.8504 Y-87.9740 F200.00 
G01 X33.3640 Y-88.4604 
G01 X32.6760 Y-88.4604 
G01 X32.1896 Y-87.9740 
G01 X32.1896 Y-87.2860 
G01 X32.6760 Y-86.7996 
G01 X33.3640 Y-86.7996 
G01 X33.8504 Y-87.2860 
G00 Z2.0000 
G00 X30.0404 Y-87.2860 
G01 Z-0.1700 F150.00 
G01 X30.0404 Y-87.9740 F200.00 
G01 X29.5540 Y-88.4604 
G01 X28.8660 Y-88.4604 
G01 X28.3796 Y-87.9740 
G01 X28.3796 Y-87.2860 
G01 X28.8660 Y-86.7996 
G01 X29.5540 Y-86.7996 
G01 X30.0404 Y-87.2860 
G00 Z2.0000 
G00 X26.2304 Y-87.2860 
G01 Z-0.1700 F150.00 
G01 X26.2304 Y-87.9740 F200.00 
G01 X25.7440 Y-88.4604 
G01 X25.0560 Y-88.4604 
G01 X24.5696 Y-87.9740 
G01 X24.5696 Y-87.2860 
G01 X25.0560 Y-86.7996 
G01 X25.7440 Y-86.7996 
G01 X26.2304 Y-87.2860 
G00 Z2.0000 
G00 X26.2304 Y-80.3540 
G01 Z-0.1700 F150.00 
G01 X25.7440 Y-80.8404 F200.00 
G01 X25.0560 Y-80.8404 
G01 X24.5696 Y-80.3540 
G01 X24.5696 Y-79.6660 
G01 X25.0560 Y-79.1796 
G01 X25.7440 Y-79.1796 
G01 X26.2304 Y-79.6660 
G01 X26.2304 Y-80.3540 
G00 Z2.0000 
G00 X28.3796 Y-80.3540 
G01 Z-0.1700 F150.00 
G01 X28.3796 Y-79.6660 F200.00 
G01 X28.8660 Y-79.1796 
G01 X29.5540 Y-79.1796 
G01 X30.0404 Y-79.6660 
G01 X30.0404 Y-80.3540 
G01 X29.5540 Y-80.8404 
G01 X28.8660 Y-80.8404 
G01 X28.3796 Y-80.3540 
G00 Z2.0000 
G00 X28.3796 Y-76.5440 
G01 Z-0.1700 F150.00 
G01 X28.3796 Y-75.8560 F200.00 
G01 X28.8660 Y-75.3696 
G01 X29.5540 Y-75.3696 
G01 X30.0404 Y-75.8560 
G01 X30.0404 Y-76.5440 
G01 X29.5540 Y-77.0304 
G01 X28.8660 Y-77.0304 
G01 X28.3796 Y-76.5440 
G00 Z2.0000 
G00 X26.2304 Y-76.5440 
G01 Z-0.1700 F150.00 
G01 X25.7440 Y-77.0304 F200.00 
G01 X25.0560 Y-77.0304 
G01 X24.5696 Y-76.5440 
G01 X24.5696 Y-75.8560 
G01 X25.0560 Y-75.3696 
G01 X25.7440 Y-75.3696 
G01 X26.2304 Y-75.8560 
G01 X26.2304 Y-76.5440 
G00 Z2.0000 
G00 X32.1896 Y-76.5440 
G01 Z-0.1700 F150.00 
G01 X32.1896 Y-75.8560 F200.00 
G01 X32.6760 Y-75.3696 
G01 X33.3640 Y-75.3696 
G01 X33.8504 Y-75.8560 
G01 X33.8504 Y-76.5440 
G01 X33.3640 Y-77.0304 
G01 X32.6760 Y-77.0304 
G01 X32.1896 Y-76.5440 
G00 Z2.0000 
G00 X32.6760 Y-79.1796 
G01 Z-0.1700 F150.00 
G01 X33.3640 Y-79.1796 F200.00 
G01 X33.8504 Y-79.6660 
G01 X33.8504 Y-80.3540 
G01 X33.3640 Y-80.8404 
G01 X32.6760 Y-80.8404 
G01 X32.1896 Y-80.3540 
G01 X32.1896 Y-79.6660 
G01 X32.6760 Y-79.1796 
G00 Z2.0000 
G00 X36.4860 Y-79.1796 
G01 Z-0.1700 F150.00 
G01 X37.1740 Y-79.1796 F200.00 
G01 X37.6604 Y-79.6660 
G01 X37.6604 Y-80.3540 
G01 X37.1740 Y-80.8404 
G01 X36.4860 Y-80.8404 
G01 X35.9996 Y-80.3540 
G01 X35.9996 Y-79.6660 
G01 X36.4860 Y-79.1796 
G00 Z2.0000 
G00 X36.4860 Y-77.0304 
G01 Z-0.1700 F150.00 
G01 X35.9996 Y-76.5440 F200.00 
G01 X35.9996 Y-75.8560 
G01 X36.4860 Y-75.3696 
G01 X37.1740 Y-75.3696 
G01 X37.6604 Y-75.8560 
G01 X37.6604 Y-76.5440 
G01 X37.1740 Y-77.0304 
G01 X36.4860 Y-77.0304 
G00 Z2.0000 
G00 X48.1337 Y-77.0767 
G01 Z-0.1700 F150.00 
G01 X48.2246 Y-76.9407 F200.00 
G01 X48.3402 Y-76.8250 
G01 X48.4763 Y-76.7341 
G01 X48.6274 Y-76.6715 
G01 X48.7878 Y-76.6396 
G01 X50.2722 Y-76.6396 
G01 X50.4326 Y-76.6715 
G01 X50.5837 Y-76.7341 
G01 X50.7197 Y-76.8250 
G01 X50.8354 Y-76.9407 
G01 X50.9263 Y-77.0767 
G01 X50.9889 Y-77.2278 
G01 X51.0208 Y-77.3882 
G01 X51.0208 Y-77.5518 
G01 X50.9889 Y-77.7122 
G01 X50.9263 Y-77.8633 
G01 X50.8354 Y-77.9993 
G01 X50.7197 Y-78.1150 
G01 X50.5837 Y-78.2059 
G01 X50.4326 Y-78.2685 
G01 X50.2722 Y-78.3004 
G01 X48.7878 Y-78.3004 
G01 X48.6274 Y-78.2685 
G01 X48.4763 Y-78.2059 
G01 X48.3402 Y-78.1150 
G01 X48.2246 Y-77.9993 
G01 X48.1337 Y-77.8633 
G01 X48.0711 Y-77.7122 
G01 X48.0392 Y-77.5518 
G01 X48.0392 Y-77.3882 
G01 X48.0711 Y-77.2278 
G01 X48.1337 Y-77.0767 
G00 Z2.0000 
G00 X48.2246 Y-75.4593 
G01 Z-0.1700 F150.00 
G01 X48.1337 Y-75.3233 F200.00 
G01 X48.0711 Y-75.1722 
G01 X48.0392 Y-75.0118 
G01 X48.0392 Y-74.8482 
G01 X48.0711 Y-74.6878 
G01 X48.1337 Y-74.5367 
G01 X48.2246 Y-74.4006 
G01 X48.3402 Y-74.2850 
G01 X48.4763 Y-74.1941 
G01 X48.6274 Y-74.1315 
G01 X48.7878 Y-74.0996 
G01 X50.2722 Y-74.0996 
G01 X50.4326 Y-74.1315 
G01 X50.5837 Y-74.1941 
G01 X50.7197 Y-74.2850 
G01 X50.8354 Y-74.4006 
G01 X50.9263 Y-74.5367 
G01 X50.9889 Y-74.6878 
G01 X51.0208 Y-74.8482 
G01 X51.0208 Y-75.0118 
G01 X50.9889 Y-75.1722 
G01 X50.9263 Y-75.3233 
G01 X50.8354 Y-75.4593 
G01 X50.7197 Y-75.5750 
G01 X50.5837 Y-75.6659 
G01 X50.4326 Y-75.7285 
G01 X50.2722 Y-75.7604 
G01 X48.7878 Y-75.7604 
G01 X48.6274 Y-75.7285 
G01 X48.4763 Y-75.6659 
G01 X48.3402 Y-75.5750 
G01 X48.2246 Y-75.4593 
G00 Z2.0000 
G00 X48.2246 Y-72.9193 
G01 Z-0.1700 F150.00 
G01 X48.1337 Y-72.7833 F200.00 
G01 X48.0711 Y-72.6322 
G01 X48.0392 Y-72.4718 
G01 X48.0392 Y-72.3082 
G01 X48.0711 Y-72.1478 
G01 X48.1337 Y-71.9967 
G01 X48.2246 Y-71.8607 
G01 X48.3402 Y-71.7450 
G01 X48.4763 Y-71.6541 
G01 X48.6274 Y-71.5915 
G01 X48.7878 Y-71.5596 
G01 X50.2722 Y-71.5596 
G01 X50.4326 Y-71.5915 
G01 X50.5837 Y-71.6541 
G01 X50.7197 Y-71.7450 
G01 X50.8354 Y-71.8607 
G01 X50.9263 Y-71.9967 
G01 X50.9889 Y-72.1478 
G01 X51.0208 Y-72.3082 
G01 X51.0208 Y-72.4718 
G01 X50.9889 Y-72.6322 
G01 X50.9263 Y-72.7833 
G01 X50.8354 Y-72.9193 
G01 X50.7197 Y-73.0350 
G01 X50.5837 Y-73.1259 
G01 X50.4326 Y-73.1885 
G01 X50.2722 Y-73.2204 
G01 X48.7878 Y-73.2204 
G01 X48.6274 Y-73.1885 
G01 X48.4763 Y-73.1259 
G01 X48.3402 Y-73.0350 
G01 X48.2246 Y-72.9193 
G00 Z2.0000 
G00 X48.2246 Y-70.3793 
G01 Z-0.1700 F150.00 
G01 X48.1337 Y-70.2433 F200.00 
G01 X48.0711 Y-70.0922 
G01 X48.0392 Y-69.9318 
G01 X48.0392 Y-69.7682 
G01 X48.0711 Y-69.6078 
G01 X48.1337 Y-69.4567 
G01 X48.2246 Y-69.3207 
G01 X48.3402 Y-69.2050 
G01 X48.4763 Y-69.1141 
G01 X48.6274 Y-69.0515 
G01 X48.7878 Y-69.0196 
G01 X50.2722 Y-69.0196 
G01 X50.4326 Y-69.0515 
G01 X50.5837 Y-69.1141 
G01 X50.7197 Y-69.2050 
G01 X50.8354 Y-69.3207 
G01 X50.9263 Y-69.4567 
G01 X50.9889 Y-69.6078 
G01 X51.0208 Y-69.7682 
G01 X51.0208 Y-69.9318 
G01 X50.9889 Y-70.0922 
G01 X50.9263 Y-70.2433 
G01 X50.8354 Y-70.3793 
G01 X50.7197 Y-70.4950 
G01 X50.5837 Y-70.5859 
G01 X50.4326 Y-70.6485 
G01 X50.2722 Y-70.6804 
G01 X48.7878 Y-70.6804 
G01 X48.6274 Y-70.6485 
G01 X48.4763 Y-70.5859 
G01 X48.3402 Y-70.4950 
G01 X48.2246 Y-70.3793 
G00 Z2.0000 
G00 X50.7646 Y-65.2993 
G01 Z-0.1700 F150.00 
G01 X50.6737 Y-65.1633 F200.00 
G01 X50.6111 Y-65.0122 
G01 X50.5792 Y-64.8518 
G01 X50.5792 Y-64.6882 
G01 X50.6111 Y-64.5278 
G01 X50.6737 Y-64.3767 
G01 X50.7646 Y-64.2407 
G01 X50.8802 Y-64.1250 
G01 X51.0163 Y-64.0341 
G01 X51.1674 Y-63.9715 
G01 X51.3278 Y-63.9396 
G01 X52.8122 Y-63.9396 
G01 X52.9726 Y-63.9715 
G01 X53.1237 Y-64.0341 
G01 X53.2597 Y-64.1250 
G01 X53.3754 Y-64.2407 
G01 X53.4663 Y-64.3767 
G01 X53.5289 Y-64.5278 
G01 X53.5608 Y-64.6882 
G01 X53.5608 Y-64.8518 
G01 X53.5289 Y-65.0122 
G01 X53.4663 Y-65.1633 
G01 X53.3754 Y-65.2993 
G01 X53.2597 Y-65.4150 
G01 X53.1237 Y-65.5059 
G01 X52.9726 Y-65.5685 
G01 X52.8122 Y-65.6004 
G01 X51.3278 Y-65.6004 
G01 X51.1674 Y-65.5685 
G01 X51.0163 Y-65.5059 
G01 X50.8802 Y-65.4150 
G01 X50.7646 Y-65.2993 
G00 Z2.0000 
G00 X50.7646 Y-62.7593 
G01 Z-0.1700 F150.00 
G01 X50.6737 Y-62.6233 F200.00 
G01 X50.6111 Y-62.4722 
G01 X50.5792 Y-62.3118 
G01 X50.5792 Y-62.1482 
G01 X50.6111 Y-61.9878 
G01 X50.6737 Y-61.8367 
G01 X50.7646 Y-61.7007 
G01 X50.8802 Y-61.5850 
G01 X51.0163 Y-61.4941 
G01 X51.1674 Y-61.4315 
G01 X51.3278 Y-61.3996 
G01 X52.8122 Y-61.3996 
G01 X52.9726 Y-61.4315 
G01 X53.1237 Y-61.4941 
G01 X53.2597 Y-61.5850 
G01 X53.3754 Y-61.7007 
G01 X53.4663 Y-61.8367 
G01 X53.5289 Y-61.9878 
G01 X53.5608 Y-62.1482 
G01 X53.5608 Y-62.3118 
G01 X53.5289 Y-62.4722 
G01 X53.4663 Y-62.6233 
G01 X53.3754 Y-62.7593 
G01 X53.2597 Y-62.8750 
G01 X53.1237 Y-62.9659 
G01 X52.9726 Y-63.0285 
G01 X52.8122 Y-63.0604 
G01 X51.3278 Y-63.0604 
G01 X51.1674 Y-63.0285 
G01 X51.0163 Y-62.9659 
G01 X50.8802 Y-62.8750 
G01 X50.7646 Y-62.7593 
G00 Z2.0000 
G00 X58.3846 Y-62.7593 
G01 Z-0.1700 F150.00 
G01 X58.2937 Y-62.6233 F200.00 
G01 X58.2311 Y-62.4722 
G01 X58.1992 Y-62.3118 
G01 X58.1992 Y-62.1482 
G01 X58.2311 Y-61.9878 
G01 X58.2937 Y-61.8367 
G01 X58.3846 Y-61.7007 
G01 X58.5003 Y-61.5850 
G01 X58.6363 Y-61.4941 
G01 X58.7874 Y-61.4315 
G01 X58.9478 Y-61.3996 
G01 X60.4322 Y-61.3996 
G01 X60.5926 Y-61.4315 
G01 X60.7437 Y-61.4941 
G01 X60.8797 Y-61.5850 
G01 X60.9954 Y-61.7007 
G01 X61.0863 Y-61.8367 
G01 X61.1489 Y-61.9878 
G01 X61.1808 Y-62.1482 
G01 X61.1808 Y-62.3118 
G01 X61.1489 Y-62.4722 
G01 X61.0863 Y-62.6233 
G01 X60.9954 Y-62.7593 
G01 X60.8797 Y-62.8750 
G01 X60.7437 Y-62.9659 
G01 X60.5926 Y-63.0285 
G01 X60.4322 Y-63.0604 
G01 X58.9478 Y-63.0604 
G01 X58.7874 Y-63.0285 
G01 X58.6363 Y-62.9659 
G01 X58.5003 Y-62.8750 
G01 X58.3846 Y-62.7593 
G00 Z2.0000 
G00 X58.5003 Y-64.1250 
G01 Z-0.1700 F150.00 
G01 X58.6363 Y-64.0341 F200.00 
G01 X58.7874 Y-63.9715 
G01 X58.9478 Y-63.9396 
G01 X60.4322 Y-63.9396 
G01 X60.5926 Y-63.9715 
G01 X60.7437 Y-64.0341 
G01 X60.8797 Y-64.1250 
G01 X60.9954 Y-64.2407 
G01 X61.0863 Y-64.3767 
G01 X61.1489 Y-64.5278 
G01 X61.1808 Y-64.6882 
G01 X61.1808 Y-64.8518 
G01 X61.1489 Y-65.0122 
G01 X61.0863 Y-65.1633 
G01 X60.9954 Y-65.2993 
G01 X60.8797 Y-65.4150 
G01 X60.7437 Y-65.5059 
G01 X60.5926 Y-65.5685 
G01 X60.4322 Y-65.6004 
G01 X58.9478 Y-65.6004 
G01 X58.7874 Y-65.5685 
G01 X58.6363 Y-65.5059 
G01 X58.5003 Y-65.4150 
G01 X58.3846 Y-65.2993 
G01 X58.2937 Y-65.1633 
G01 X58.2311 Y-65.0122 
G01 X58.1992 Y-64.8518 
G01 X58.1992 Y-64.6882 
G01 X58.2311 Y-64.5278 
G01 X58.2937 Y-64.3767 
G01 X58.3846 Y-64.2407 
G01 X58.5003 Y-64.1250 
G00 Z2.0000 
G00 X59.1622 Y-70.2896 
G01 Z-0.1700 F150.00 
G01 X59.3226 Y-70.3215 F200.00 
G01 X59.4737 Y-70.3841 
G01 X59.6097 Y-70.4750 
G01 X59.7254 Y-70.5906 
G01 X59.8163 Y-70.7267 
G01 X59.8789 Y-70.8778 
G01 X59.9108 Y-71.0382 
G01 X59.9108 Y-71.2018 
G01 X59.8789 Y-71.3622 
G01 X59.8163 Y-71.5133 
G01 X59.7254 Y-71.6493 
G01 X59.6097 Y-71.7650 
G01 X59.4737 Y-71.8559 
G01 X59.3226 Y-71.9185 
G01 X59.1622 Y-71.9504 
G01 X57.6778 Y-71.9504 
G01 X57.5174 Y-71.9185 
G01 X57.3663 Y-71.8559 
G01 X57.2302 Y-71.7650 
G01 X57.1146 Y-71.6493 
G01 X57.0237 Y-71.5133 
G01 X56.9611 Y-71.3622 
G01 X56.9292 Y-71.2018 
G01 X56.9292 Y-71.0382 
G01 X56.9611 Y-70.8778 
G01 X57.0237 Y-70.7267 
G01 X57.1146 Y-70.5906 
G01 X57.2302 Y-70.4750 
G01 X57.3663 Y-70.3841 
G01 X57.5174 Y-70.3215 
G01 X57.6778 Y-70.2896 
G01 X59.1622 Y-70.2896 
G00 Z2.0000 
G00 X59.1622 Y-72.8296 
G01 Z-0.1700 F150.00 
G01 X59.3226 Y-72.8615 F200.00 
G01 X59.4737 Y-72.9241 
G01 X59.6097 Y-73.0150 
G01 X59.7254 Y-73.1307 
G01 X59.8163 Y-73.2667 
G01 X59.8789 Y-73.4178 
G01 X59.9108 Y-73.5782 
G01 X59.9108 Y-73.7418 
G01 X59.8789 Y-73.9022 
G01 X59.8163 Y-74.0533 
G01 X59.7254 Y-74.1893 
G01 X59.6097 Y-74.3050 
G01 X59.4737 Y-74.3959 
G01 X59.3226 Y-74.4585 
G01 X59.1622 Y-74.4904 
G01 X57.6778 Y-74.4904 
G01 X57.5174 Y-74.4585 
G01 X57.3663 Y-74.3959 
G01 X57.2302 Y-74.3050 
G01 X57.1146 Y-74.1893 
G01 X57.0237 Y-74.0533 
G01 X56.9611 Y-73.9022 
G01 X56.9292 Y-73.7418 
G01 X56.9292 Y-73.5782 
G01 X56.9611 Y-73.4178 
G01 X57.0237 Y-73.2667 
G01 X57.1146 Y-73.1307 
G01 X57.2302 Y-73.0150 
G01 X57.3663 Y-72.9241 
G01 X57.5174 Y-72.8615 
G01 X57.6778 Y-72.8296 
G01 X59.1622 Y-72.8296 
G00 Z2.0000 
G00 X59.3460 Y-77.9096 
G01 Z-0.1700 F150.00 
G01 X60.0340 Y-77.9096 F200.00 
G01 X60.5204 Y-78.3960 
G01 X60.5204 Y-79.0840 
G01 X60.0340 Y-79.5704 
G01 X59.3460 Y-79.5704 
G01 X58.8596 Y-79.0840 
G01 X58.8596 Y-78.3960 
G01 X59.3460 Y-77.9096 
G00 Z2.0000 
G00 X56.7104 Y-78.3960 
G01 Z-0.1700 F150.00 
G01 X56.7104 Y-79.0840 F200.00 
G01 X56.2240 Y-79.5704 
G01 X55.5360 Y-79.5704 
G01 X55.0496 Y-79.0840 
G01 X55.0496 Y-78.3960 
G01 X55.5360 Y-77.9096 
G01 X56.2240 Y-77.9096 
G01 X56.7104 Y-78.3960 
G00 Z2.0000 
G00 X62.6696 Y-78.3960 
G01 Z-0.1700 F150.00 
G01 X63.1560 Y-77.9096 F200.00 
G01 X63.8440 Y-77.9096 
G01 X64.3304 Y-78.3960 
G01 X64.3304 Y-79.0840 
G01 X63.8440 Y-79.5704 
G01 X63.1560 Y-79.5704 
G01 X62.6696 Y-79.0840 
G01 X62.6696 Y-78.3960 
G00 Z2.0000 
G00 X66.4796 Y-78.3960 
G01 Z-0.1700 F150.00 
G01 X66.9660 Y-77.9096 F200.00 
G01 X67.6540 Y-77.9096 
G01 X68.1404 Y-78.3960 
G01 X68.1404 Y-79.0840 
G01 X67.6540 Y-79.5704 
G01 X66.9660 Y-79.5704 
G01 X66.4796 Y-79.0840 
G01 X66.4796 Y-78.3960 
G00 Z2.0000 
G00 X66.7822 Y-74.4904 
G01 Z-0.1700 F150.00 
G01 X65.2978 Y-74.4904 F200.00 
G01 X65.1374 Y-74.4585 
G01 X64.9863 Y-74.3959 
G01 X64.8503 Y-74.3050 
G01 X64.7346 Y-74.1893 
G01 X64.6437 Y-74.0533 
G01 X64.5811 Y-73.9022 
G01 X64.5492 Y-73.7418 
G01 X64.5492 Y-73.5782 
G01 X64.5811 Y-73.4178 
G01 X64.6437 Y-73.2667 
G01 X64.7346 Y-73.1307 
G01 X64.8503 Y-73.0150 
G01 X64.9863 Y-72.9241 
G01 X65.1374 Y-72.8615 
G01 X65.2978 Y-72.8296 
G01 X66.7822 Y-72.8296 
G01 X66.9426 Y-72.8615 
G01 X67.0937 Y-72.9241 
G01 X67.2297 Y-73.0150 
G01 X67.3454 Y-73.1307 
G01 X67.4363 Y-73.2667 
G01 X67.4989 Y-73.4178 
G01 X67.5308 Y-73.5782 
G01 X67.5308 Y-73.7418 
G01 X67.4989 Y-73.9022 
G01 X67.4363 Y-74.0533 
G01 X67.3454 Y-74.1893 
G01 X67.2297 Y-74.3050 
G01 X67.0937 Y-74.3959 
G01 X66.9426 Y-74.4585 
G01 X66.7822 Y-74.4904 
G00 Z2.0000 
G00 X66.7822 Y-71.9504 
G01 Z-0.1700 F150.00 
G01 X65.2978 Y-71.9504 F200.00 
G01 X65.1374 Y-71.9185 
G01 X64.9863 Y-71.8559 
G01 X64.8503 Y-71.7650 
G01 X64.7346 Y-71.6493 
G01 X64.6437 Y-71.5133 
G01 X64.5811 Y-71.3622 
G01 X64.5492 Y-71.2018 
G01 X64.5492 Y-71.0382 
G01 X64.5811 Y-70.8778 
G01 X64.6437 Y-70.7267 
G01 X64.7346 Y-70.5906 
G01 X64.8503 Y-70.4750 
G01 X64.9863 Y-70.3841 
G01 X65.1374 Y-70.3215 
G01 X65.2978 Y-70.2896 
G01 X66.7822 Y-70.2896 
G01 X66.9426 Y-70.3215 
G01 X67.0937 Y-70.3841 
G01 X67.2297 Y-70.4750 
G01 X67.3454 Y-70.5906 
G01 X67.4363 Y-70.7267 
G01 X67.4989 Y-70.8778 
G01 X67.5308 Y-71.0382 
G01 X67.5308 Y-71.2018 
G01 X67.4989 Y-71.3622 
G01 X67.4363 Y-71.5133 
G01 X67.3454 Y-71.6493 
G01 X67.2297 Y-71.7650 
G01 X67.0937 Y-71.8559 
G01 X66.9426 Y-71.9185 
G01 X66.7822 Y-71.9504 
G00 Z2.0000 
G00 X72.8296 Y-71.6478 
G01 Z-0.1700 F150.00 
G01 X72.8615 Y-71.4874 F200.00 
G01 X72.9241 Y-71.3363 
G01 X73.0150 Y-71.2002 
G01 X73.1307 Y-71.0846 
G01 X73.2667 Y-70.9937 
G01 X73.4178 Y-70.9311 
G01 X73.5782 Y-70.8992 
G01 X73.7418 Y-70.8992 
G01 X73.9022 Y-70.9311 
G01 X74.0533 Y-70.9937 
G01 X74.1893 Y-71.0846 
G01 X74.3050 Y-71.2002 
G01 X74.3959 Y-71.3363 
G01 X74.4585 Y-71.4874 
G01 X74.4904 Y-71.6478 
G01 X74.4904 Y-73.1322 
G01 X74.4585 Y-73.2926 
G01 X74.3959 Y-73.4437 
G01 X74.3050 Y-73.5797 
G01 X74.1893 Y-73.6954 
G01 X74.0533 Y-73.7863 
G01 X73.9022 Y-73.8489 
G01 X73.7418 Y-73.8808 
G01 X73.5782 Y-73.8808 
G01 X73.4178 Y-73.8489 
G01 X73.2667 Y-73.7863 
G01 X73.1307 Y-73.6954 
G01 X73.0150 Y-73.5797 
G01 X72.9241 Y-73.4437 
G01 X72.8615 Y-73.2926 
G01 X72.8296 Y-73.1322 
G01 X72.8296 Y-71.6478 
G00 Z2.0000 
G00 X75.3696 Y-71.6478 
G01 Z-0.1700 F150.00 
G01 X75.4015 Y-71.4874 F200.00 
G01 X75.4641 Y-71.3363 
G01 X75.5550 Y-71.2002 
G01 X75.6706 Y-71.0846 
G01 X75.8067 Y-70.9937 
G01 X75.9578 Y-70.9311 
G01 X76.1182 Y-70.8992 
G01 X76.2818 Y-70.8992 
G01 X76.4422 Y-70.9311 
G01 X76.5933 Y-70.9937 
G01 X76.7293 Y-71.0846 
G01 X76.8450 Y-71.2002 
G01 X76.9359 Y-71.3363 
G01 X76.9985 Y-71.4874 
G01 X77.0304 Y-71.6478 
G01 X77.0304 Y-73.1322 
G01 X76.9985 Y-73.2926 
G01 X76.9359 Y-73.4437 
G01 X76.8450 Y-73.5797 
G01 X76.7293 Y-73.6954 
G01 X76.5933 Y-73.7863 
G01 X76.4422 Y-73.8489 
G01 X76.2818 Y-73.8808 
G01 X76.1182 Y-73.8808 
G01 X75.9578 Y-73.8489 
G01 X75.8067 Y-73.7863 
G01 X75.6706 Y-73.6954 
G01 X75.5550 Y-73.5797 
G01 X75.4641 Y-73.4437 
G01 X75.4015 Y-73.2926 
G01 X75.3696 Y-73.1322 
G01 X75.3696 Y-71.6478 
G00 Z2.0000 
G00 X75.6706 Y-78.7046 
G01 Z-0.1700 F150.00 
G01 X75.8067 Y-78.6137 F200.00 
G01 X75.9578 Y-78.5511 
G01 X76.1182 Y-78.5192 
G01 X76.2818 Y-78.5192 
G01 X76.4422 Y-78.5511 
G01 X76.5933 Y-78.6137 
G01 X76.7293 Y-78.7046 
G01 X76.8450 Y-78.8203 
G01 X76.9359 Y-78.9563 
G01 X76.9985 Y-79.1074 
G01 X77.0304 Y-79.2678 
G01 X77.0304 Y-80.7522 
G01 X76.9985 Y-80.9126 
G01 X76.9359 Y-81.0637 
G01 X76.8450 Y-81.1997 
G01 X76.7293 Y-81.3154 
G01 X76.5933 Y-81.4063 
G01 X76.4422 Y-81.4689 
G01 X76.2818 Y-81.5008 
G01 X76.1182 Y-81.5008 
G01 X75.9578 Y-81.4689 
G01 X75.8067 Y-81.4063 
G01 X75.6706 Y-81.3154 
G01 X75.5550 Y-81.1997 
G01 X75.4641 Y-81.0637 
G01 X75.4015 Y-80.9126 
G01 X75.3696 Y-80.7522 
G01 X75.3696 Y-79.2678 
G01 X75.4015 Y-79.1074 
G01 X75.4641 Y-78.9563 
G01 X75.5550 Y-78.8203 
G01 X75.6706 Y-78.7046 
G00 Z2.0000 
G00 X74.3050 Y-78.8203 
G01 Z-0.1700 F150.00 
G01 X74.3959 Y-78.9563 F200.00 
G01 X74.4585 Y-79.1074 
G01 X74.4904 Y-79.2678 
G01 X74.4904 Y-80.7522 
G01 X74.4585 Y-80.9126 
G01 X74.3959 Y-81.0637 
G01 X74.3050 Y-81.1997 
G01 X74.1893 Y-81.3154 
G01 X74.0533 Y-81.4063 
G01 X73.9022 Y-81.4689 
G01 X73.7418 Y-81.5008 
G01 X73.5782 Y-81.5008 
G01 X73.4178 Y-81.4689 
G01 X73.2667 Y-81.4063 
G01 X73.1307 Y-81.3154 
G01 X73.0150 Y-81.1997 
G01 X72.9241 Y-81.0637 
G01 X72.8615 Y-80.9126 
G01 X72.8296 Y-80.7522 
G01 X72.8296 Y-79.2678 
G01 X72.8615 Y-79.1074 
G01 X72.9241 Y-78.9563 
G01 X73.0150 Y-78.8203 
G01 X73.1307 Y-78.7046 
G01 X73.2667 Y-78.6137 
G01 X73.4178 Y-78.5511 
G01 X73.5782 Y-78.5192 
G01 X73.7418 Y-78.5192 
G01 X73.9022 Y-78.5511 
G01 X74.0533 Y-78.6137 
G01 X74.1893 Y-78.7046 
G01 X74.3050 Y-78.8203 
G00 Z2.0000 
G00 X68.1404 Y-86.0160 
G01 Z-0.1700 F150.00 
G01 X68.1404 Y-86.7040 F200.00 
G01 X67.6540 Y-87.1904 
G01 X66.9660 Y-87.1904 
G01 X66.4796 Y-86.7040 
G01 X66.4796 Y-86.0160 
G01 X66.9660 Y-85.5296 
G01 X67.6540 Y-85.5296 
G01 X68.1404 Y-86.0160 
G00 Z2.0000 
G00 X64.3304 Y-86.0160 
G01 Z-0.1700 F150.00 
G01 X64.3304 Y-86.7040 F200.00 
G01 X63.8440 Y-87.1904 
G01 X63.1560 Y-87.1904 
G01 X62.6696 Y-86.7040 
G01 X62.6696 Y-86.0160 
G01 X63.1560 Y-85.5296 
G01 X63.8440 Y-85.5296 
G01 X64.3304 Y-86.0160 
G00 Z2.0000 
G00 X60.5204 Y-86.0160 
G01 Z-0.1700 F150.00 
G01 X60.5204 Y-86.7040 F200.00 
G01 X60.0340 Y-87.1904 
G01 X59.3460 Y-87.1904 
G01 X58.8596 Y-86.7040 
G01 X58.8596 Y-86.0160 
G01 X59.3460 Y-85.5296 
G01 X60.0340 Y-85.5296 
G01 X60.5204 Y-86.0160 
G00 Z2.0000 
G00 X56.7104 Y-86.0160 
G01 Z-0.1700 F150.00 
G01 X56.7104 Y-86.7040 F200.00 
G01 X56.2240 Y-87.1904 
G01 X55.5360 Y-87.1904 
G01 X55.0496 Y-86.7040 
G01 X55.0496 Y-86.0160 
G01 X55.5360 Y-85.5296 
G01 X56.2240 Y-85.5296 
G01 X56.7104 Y-86.0160 
G00 Z2.0000 
G00 X50.7197 Y-85.7350 
G01 Z-0.1700 F150.00 
G01 X50.5837 Y-85.8259 F200.00 
G01 X50.4326 Y-85.8885 
G01 X50.2722 Y-85.9204 
G01 X48.7878 Y-85.9204 
G01 X48.6274 Y-85.8885 
G01 X48.4763 Y-85.8259 
G01 X48.3402 Y-85.7350 
G01 X48.2246 Y-85.6193 
G01 X48.1337 Y-85.4833 
G01 X48.0711 Y-85.3322 
G01 X48.0392 Y-85.1718 
G01 X48.0392 Y-85.0082 
G01 X48.0711 Y-84.8478 
G01 X48.1337 Y-84.6967 
G01 X48.2246 Y-84.5606 
G01 X48.3402 Y-84.4450 
G01 X48.4763 Y-84.3541 
G01 X48.6274 Y-84.2915 
G01 X48.7878 Y-84.2596 
G01 X50.2722 Y-84.2596 
G01 X50.4326 Y-84.2915 
G01 X50.5837 Y-84.3541 
G01 X50.7197 Y-84.4450 
G01 X50.8354 Y-84.5606 
G01 X50.9263 Y-84.6967 
G01 X50.9889 Y-84.8478 
G01 X51.0208 Y-85.0082 
G01 X51.0208 Y-85.1718 
G01 X50.9889 Y-85.3322 
G01 X50.9263 Y-85.4833 
G01 X50.8354 Y-85.6193 
G01 X50.7197 Y-85.7350 
G00 Z2.0000 
G00 X50.7197 Y-83.1950 
G01 Z-0.1700 F150.00 
G01 X50.5837 Y-83.2859 F200.00 
G01 X50.4326 Y-83.3485 
G01 X50.2722 Y-83.3804 
G01 X48.7878 Y-83.3804 
G01 X48.6274 Y-83.3485 
G01 X48.4763 Y-83.2859 
G01 X48.3402 Y-83.1950 
G01 X48.2246 Y-83.0793 
G01 X48.1337 Y-82.9433 
G01 X48.0711 Y-82.7922 
G01 X48.0392 Y-82.6318 
G01 X48.0392 Y-82.4682 
G01 X48.0711 Y-82.3078 
G01 X48.1337 Y-82.1567 
G01 X48.2246 Y-82.0207 
G01 X48.3402 Y-81.9050 
G01 X48.4763 Y-81.8141 
G01 X48.6274 Y-81.7515 
G01 X48.7878 Y-81.7196 
G01 X50.2722 Y-81.7196 
G01 X50.4326 Y-81.7515 
G01 X50.5837 Y-81.8141 
G01 X50.7197 Y-81.9050 
G01 X50.8354 Y-82.0207 
G01 X50.9263 Y-82.1567 
G01 X50.9889 Y-82.3078 
G01 X51.0208 Y-82.4682 
G01 X51.0208 Y-82.6318 
G01 X50.9889 Y-82.7922 
G01 X50.9263 Y-82.9433 
G01 X50.8354 Y-83.0793 
G01 X50.7197 Y-83.1950 
G00 Z2.0000 
G00 X50.7197 Y-80.6550 
G01 Z-0.1700 F150.00 
G01 X50.5837 Y-80.7459 F200.00 
G01 X50.4326 Y-80.8085 
G01 X50.2722 Y-80.8404 
G01 X48.7878 Y-80.8404 
G01 X48.6274 Y-80.8085 
G01 X48.4763 Y-80.7459 
G01 X48.3402 Y-80.6550 
G01 X48.2246 Y-80.5393 
G01 X48.1337 Y-80.4033 
G01 X48.0711 Y-80.2522 
G01 X48.0392 Y-80.0918 
G01 X48.0392 Y-79.9282 
G01 X48.0711 Y-79.7678 
G01 X48.1337 Y-79.6167 
G01 X48.2246 Y-79.4806 
G01 X48.3402 Y-79.3650 
G01 X48.4763 Y-79.2741 
G01 X48.6274 Y-79.2115 
G01 X48.7878 Y-79.1796 
G01 X50.2722 Y-79.1796 
G01 X50.4326 Y-79.2115 
G01 X50.5837 Y-79.2741 
G01 X50.7197 Y-79.3650 
G01 X50.8354 Y-79.4806 
G01 X50.9263 Y-79.6167 
G01 X50.9889 Y-79.7678 
G01 X51.0208 Y-79.9282 
G01 X51.0208 Y-80.0918 
G01 X50.9889 Y-80.2522 
G01 X50.9263 Y-80.4033 
G01 X50.8354 Y-80.5393 
G01 X50.7197 Y-80.6550 
G00 Z2.0000 
G00 X53.8269 Y-56.5227 
G01 Z-0.1700 F150.00 
G01 X53.7165 Y-56.3576 F200.00 
G01 X53.6405 Y-56.1741 
G01 X53.6018 Y-55.9793 
G01 X53.6018 Y-55.7807 
G01 X53.6405 Y-55.5859 
G01 X53.7165 Y-55.4024 
G01 X53.8269 Y-55.2373 
G01 X53.9673 Y-55.0969 
G01 X54.1324 Y-54.9865 
G01 X54.3159 Y-54.9105 
G01 X54.5107 Y-54.8718 
G01 X54.7093 Y-54.8718 
G01 X54.9041 Y-54.9105 
G01 X55.0876 Y-54.9865 
G01 X55.2527 Y-55.0969 
G01 X55.3931 Y-55.2373 
G01 X55.5035 Y-55.4024 
G01 X55.5795 Y-55.5859 
G01 X55.6182 Y-55.7807 
G01 X55.6182 Y-55.9793 
G01 X55.5795 Y-56.1741 
G01 X55.5035 Y-56.3576 
G01 X55.3931 Y-56.5227 
G01 X55.2527 Y-56.6631 
G01 X55.0876 Y-56.7735 
G01 X54.9041 Y-56.8495 
G01 X54.7093 Y-56.8882 
G01 X54.5107 Y-56.8882 
G01 X54.3159 Y-56.8495 
G01 X54.1324 Y-56.7735 
G01 X53.9673 Y-56.6631 
G01 X53.8269 Y-56.5227 
G00 Z2.0000 
G00 X56.3669 Y-52.7127 
G01 Z-0.1700 F150.00 
G01 X56.2565 Y-52.5476 F200.00 
G01 X56.1805 Y-52.3641 
G01 X56.1418 Y-52.1693 
G01 X56.1418 Y-51.9707 
G01 X56.1805 Y-51.7759 
G01 X56.2565 Y-51.5924 
G01 X56.3669 Y-51.4273 
G01 X56.5073 Y-51.2869 
G01 X56.6724 Y-51.1765 
G01 X56.8559 Y-51.1005 
G01 X57.0507 Y-51.0618 
G01 X57.2493 Y-51.0618 
G01 X57.4441 Y-51.1005 
G01 X57.6276 Y-51.1765 
G01 X57.7927 Y-51.2869 
G01 X57.9331 Y-51.4273 
G01 X58.0435 Y-51.5924 
G01 X58.1195 Y-51.7759 
G01 X58.1582 Y-51.9707 
G01 X58.1582 Y-52.1693 
G01 X58.1195 Y-52.3641 
G01 X58.0435 Y-52.5476 
G01 X57.9331 Y-52.7127 
G01 X57.7927 Y-52.8531 
G01 X57.6276 Y-52.9635 
G01 X57.4441 Y-53.0395 
G01 X57.2493 Y-53.0782 
G01 X57.0507 Y-53.0782 
G01 X56.8559 Y-53.0395 
G01 X56.6724 Y-52.9635 
G01 X56.5073 Y-52.8531 
G01 X56.3669 Y-52.7127 
G00 Z2.0000 
G00 X58.8466 Y-47.6359 
G01 Z-0.1700 F150.00 
G01 X58.7407 Y-47.4901 F200.00 
G01 X58.6589 Y-47.3295 
G01 X58.6032 Y-47.1581 
G01 X58.5750 Y-46.9801 
G01 X58.5750 Y-46.7999 
G01 X58.6032 Y-46.6219 
G01 X58.6589 Y-46.4505 
G01 X58.7407 Y-46.2899 
G01 X58.8466 Y-46.1441 
G01 X58.9741 Y-46.0166 
G01 X59.1199 Y-45.9107 
G01 X59.2805 Y-45.8289 
G01 X59.4519 Y-45.7732 
G01 X59.6299 Y-45.7450 
G01 X59.8101 Y-45.7450 
G01 X59.9881 Y-45.7732 
G01 X60.1595 Y-45.8289 
G01 X60.3201 Y-45.9107 
G01 X60.4659 Y-46.0166 
G01 X60.5934 Y-46.1441 
G01 X60.6993 Y-46.2899 
G01 X60.7811 Y-46.4505 
G01 X60.8368 Y-46.6219 
G01 X60.8650 Y-46.7999 
G01 X60.8650 Y-46.9801 
G01 X60.8368 Y-47.1581 
G01 X60.7811 Y-47.3295 
G01 X60.6993 Y-47.4901 
G01 X60.5934 Y-47.6359 
G01 X60.4659 Y-47.7634 
G01 X60.3201 Y-47.8693 
G01 X60.1595 Y-47.9511 
G01 X59.9881 Y-48.0068 
G01 X59.8101 Y-48.0350 
G01 X59.6299 Y-48.0350 
G01 X59.4519 Y-48.0068 
G01 X59.2805 Y-47.9511 
G01 X59.1199 Y-47.8693 
G01 X58.9741 Y-47.7634 
G01 X58.8466 Y-47.6359 
G00 Z2.0000 
G00 X62.6266 Y-47.6359 
G01 Z-0.1700 F150.00 
G01 X62.5207 Y-47.4901 F200.00 
G01 X62.4389 Y-47.3295 
G01 X62.3832 Y-47.1581 
G01 X62.3550 Y-46.9801 
G01 X62.3550 Y-46.7999 
G01 X62.3832 Y-46.6219 
G01 X62.4389 Y-46.4505 
G01 X62.5207 Y-46.2899 
G01 X62.6266 Y-46.1441 
G01 X62.7541 Y-46.0166 
G01 X62.8999 Y-45.9107 
G01 X63.0605 Y-45.8289 
G01 X63.2319 Y-45.7732 
G01 X63.4099 Y-45.7450 
G01 X63.5901 Y-45.7450 
G01 X63.7681 Y-45.7732 
G01 X63.9395 Y-45.8289 
G01 X64.1001 Y-45.9107 
G01 X64.2459 Y-46.0166 
G01 X64.3734 Y-46.1441 
G01 X64.4793 Y-46.2899 
G01 X64.5611 Y-46.4505 
G01 X64.6168 Y-46.6219 
G01 X64.6450 Y-46.7999 
G01 X64.6450 Y-46.9801 
G01 X64.6168 Y-47.1581 
G01 X64.5611 Y-47.3295 
G01 X64.4793 Y-47.4901 
G01 X64.3734 Y-47.6359 
G01 X64.2459 Y-47.7634 
G01 X64.1001 Y-47.8693 
G01 X63.9395 Y-47.9511 
G01 X63.7681 Y-48.0068 
G01 X63.5901 Y-48.0350 
G01 X63.4099 Y-48.0350 
G01 X63.2319 Y-48.0068 
G01 X63.0605 Y-47.9511 
G01 X62.8999 Y-47.8693 
G01 X62.7541 Y-47.7634 
G01 X62.6266 Y-47.6359 
G00 Z2.0000 
G00 X66.4066 Y-47.6359 
G01 Z-0.1700 F150.00 
G01 X66.3007 Y-47.4901 F200.00 
G01 X66.2189 Y-47.3295 
G01 X66.1632 Y-47.1581 
G01 X66.1350 Y-46.9801 
G01 X66.1350 Y-46.7999 
G01 X66.1632 Y-46.6219 
G01 X66.2189 Y-46.4505 
G01 X66.3007 Y-46.2899 
G01 X66.4066 Y-46.1441 
G01 X66.5341 Y-46.0166 
G01 X66.6799 Y-45.9107 
G01 X66.8405 Y-45.8289 
G01 X67.0119 Y-45.7732 
G01 X67.1899 Y-45.7450 
G01 X67.3701 Y-45.7450 
G01 X67.5481 Y-45.7732 
G01 X67.7195 Y-45.8289 
G01 X67.8801 Y-45.9107 
G01 X68.0259 Y-46.0166 
G01 X68.1534 Y-46.1441 
G01 X68.2593 Y-46.2899 
G01 X68.3411 Y-46.4505 
G01 X68.3968 Y-46.6219 
G01 X68.4250 Y-46.7999 
G01 X68.4250 Y-46.9801 
G01 X68.3968 Y-47.1581 
G01 X68.3411 Y-47.3295 
G01 X68.2593 Y-47.4901 
G01 X68.1534 Y-47.6359 
G01 X68.0259 Y-47.7634 
G01 X67.8801 Y-47.8693 
G01 X67.7195 Y-47.9511 
G01 X67.5481 Y-48.0068 
G01 X67.3701 Y-48.0350 
G01 X67.1899 Y-48.0350 
G01 X67.0119 Y-48.0068 
G01 X66.8405 Y-47.9511 
G01 X66.6799 Y-47.8693 
G01 X66.5341 Y-47.7634 
G01 X66.4066 Y-47.6359 
G00 Z2.0000 
G00 X66.6673 Y-51.2869 
G01 Z-0.1700 F150.00 
G01 X66.8324 Y-51.1765 F200.00 
G01 X67.0159 Y-51.1005 
G01 X67.2107 Y-51.0618 
G01 X67.4093 Y-51.0618 
G01 X67.6041 Y-51.1005 
G01 X67.7876 Y-51.1765 
G01 X67.9527 Y-51.2869 
G01 X68.0931 Y-51.4273 
G01 X68.2035 Y-51.5924 
G01 X68.2795 Y-51.7759 
G01 X68.3182 Y-51.9707 
G01 X68.3182 Y-52.1693 
G01 X68.2795 Y-52.3641 
G01 X68.2035 Y-52.5476 
G01 X68.0931 Y-52.7127 
G01 X67.9527 Y-52.8531 
G01 X67.7876 Y-52.9635 
G01 X67.6041 Y-53.0395 
G01 X67.4093 Y-53.0782 
G01 X67.2107 Y-53.0782 
G01 X67.0159 Y-53.0395 
G01 X66.8324 Y-52.9635 
G01 X66.6673 Y-52.8531 
G01 X66.5269 Y-52.7127 
G01 X66.4165 Y-52.5476 
G01 X66.3405 Y-52.3641 
G01 X66.3018 Y-52.1693 
G01 X66.3018 Y-51.9707 
G01 X66.3405 Y-51.7759 
G01 X66.4165 Y-51.5924 
G01 X66.5269 Y-51.4273 
G01 X66.6673 Y-51.2869 
G00 Z2.0000 
G00 X63.0131 Y-55.2373 
G01 Z-0.1700 F150.00 
G01 X63.1235 Y-55.4024 F200.00 
G01 X63.1995 Y-55.5859 
G01 X63.2382 Y-55.7807 
G01 X63.2382 Y-55.9793 
G01 X63.1995 Y-56.1741 
G01 X63.1235 Y-56.3576 
G01 X63.0131 Y-56.5227 
G01 X62.8727 Y-56.6631 
G01 X62.7076 Y-56.7735 
G01 X62.5241 Y-56.8495 
G01 X62.3293 Y-56.8882 
G01 X62.1307 Y-56.8882 
G01 X61.9359 Y-56.8495 
G01 X61.7524 Y-56.7735 
G01 X61.5873 Y-56.6631 
G01 X61.4469 Y-56.5227 
G01 X61.3365 Y-56.3576 
G01 X61.2605 Y-56.1741 
G01 X61.2218 Y-55.9793 
G01 X61.2218 Y-55.7807 
G01 X61.2605 Y-55.5859 
G01 X61.3365 Y-55.4024 
G01 X61.4469 Y-55.2373 
G01 X61.5873 Y-55.0969 
G01 X61.7524 Y-54.9865 
G01 X61.9359 Y-54.9105 
G01 X62.1307 Y-54.8718 
G01 X62.3293 Y-54.8718 
G01 X62.5241 Y-54.9105 
G01 X62.7076 Y-54.9865 
G01 X62.8727 Y-55.0969 
G01 X63.0131 Y-55.2373 
G00 Z2.0000 
G00 X71.6069 Y-55.2373 
G01 Z-0.1700 F150.00 
G01 X71.7473 Y-55.0969 F200.00 
G01 X71.9124 Y-54.9865 
G01 X72.0959 Y-54.9105 
G01 X72.2907 Y-54.8718 
G01 X72.4893 Y-54.8718 
G01 X72.6841 Y-54.9105 
G01 X72.8676 Y-54.9865 
G01 X73.0327 Y-55.0969 
G01 X73.1731 Y-55.2373 
G01 X73.2835 Y-55.4024 
G01 X73.3595 Y-55.5859 
G01 X73.3982 Y-55.7807 
G01 X73.3982 Y-55.9793 
G01 X73.3595 Y-56.1741 
G01 X73.2835 Y-56.3576 
G01 X73.1731 Y-56.5227 
G01 X73.0327 Y-56.6631 
G01 X72.8676 Y-56.7735 
G01 X72.6841 Y-56.8495 
G01 X72.4893 Y-56.8882 
G01 X72.2907 Y-56.8882 
G01 X72.0959 Y-56.8495 
G01 X71.9124 Y-56.7735 
G01 X71.7473 Y-56.6631 
G01 X71.6069 Y-56.5227 
G01 X71.4965 Y-56.3576 
G01 X71.4205 Y-56.1741 
G01 X71.3818 Y-55.9793 
G01 X71.3818 Y-55.7807 
G01 X71.4205 Y-55.5859 
G01 X71.4965 Y-55.4024 
G01 X71.6069 Y-55.2373 
G00 Z2.0000 
G00 X73.4485 Y-50.2530 
G01 Z-0.1700 F150.00 
G01 X73.3458 Y-50.1117 F200.00 
G01 X73.2665 Y-49.9560 
G01 X73.2125 Y-49.7899 
G01 X73.1852 Y-49.6173 
G01 X73.1852 Y-49.4427 
G01 X73.2125 Y-49.2701 
G01 X73.2665 Y-49.1040 
G01 X73.3458 Y-48.9483 
G01 X73.4485 Y-48.8070 
G01 X73.5720 Y-48.6835 
G01 X73.7133 Y-48.5808 
G01 X73.8690 Y-48.5015 
G01 X74.0351 Y-48.4475 
G01 X74.2077 Y-48.4202 
G01 X74.3823 Y-48.4202 
G01 X74.5549 Y-48.4475 
G01 X74.7210 Y-48.5015 
G01 X74.8767 Y-48.5808 
G01 X75.0180 Y-48.6835 
G01 X75.1415 Y-48.8070 
G01 X75.2442 Y-48.9483 
G01 X75.3235 Y-49.1040 
G01 X75.3775 Y-49.2701 
G01 X75.4048 Y-49.4427 
G01 X75.4048 Y-49.6173 
G01 X75.3775 Y-49.7899 
G01 X75.3235 Y-49.9560 
G01 X75.2442 Y-50.1117 
G01 X75.1415 Y-50.2530 
G01 X75.0180 Y-50.3765 
G01 X74.8767 Y-50.4792 
G01 X74.7210 Y-50.5585 
G01 X74.5549 Y-50.6125 
G01 X74.3823 Y-50.6398 
G01 X74.2077 Y-50.6398 
G01 X74.0351 Y-50.6125 
G01 X73.8690 Y-50.5585 
G01 X73.7133 Y-50.4792 
G01 X73.5720 Y-50.3765 
G01 X73.4485 Y-50.2530 
G00 Z2.0000 
G00 X73.9350 Y-47.1693 
G01 Z-0.1700 F150.00 
G01 X73.8448 Y-47.0343 F200.00 
G01 X73.7827 Y-46.8843 
G01 X73.7510 Y-46.7252 
G01 X73.7510 Y-45.2548 
G01 X73.7827 Y-45.0956 
G01 X73.8448 Y-44.9457 
G01 X73.9350 Y-44.8107 
G01 X74.0497 Y-44.6960 
G01 X74.1847 Y-44.6058 
G01 X74.3346 Y-44.5437 
G01 X74.4938 Y-44.5120 
G01 X74.6562 Y-44.5120 
G01 X74.8153 Y-44.5437 
G01 X74.9653 Y-44.6058 
G01 X75.1003 Y-44.6960 
G01 X75.2150 Y-44.8107 
G01 X75.3052 Y-44.9457 
G01 X75.3673 Y-45.0956 
G01 X75.3990 Y-45.2548 
G01 X75.3990 Y-46.7252 
G01 X75.3673 Y-46.8843 
G01 X75.3052 Y-47.0343 
G01 X75.2150 Y-47.1693 
G01 X75.1003 Y-47.2840 
G01 X74.9653 Y-47.3742 
G01 X74.8153 Y-47.4363 
G01 X74.6562 Y-47.4680 
G01 X74.4938 Y-47.4680 
G01 X74.3346 Y-47.4363 
G01 X74.1847 Y-47.3742 
G01 X74.0497 Y-47.2840 
G01 X73.9350 Y-47.1693 
G00 Z2.0000 
G00 X83.9350 Y-47.1693 
G01 Z-0.1700 F150.00 
G01 X83.8448 Y-47.0343 F200.00 
G01 X83.7827 Y-46.8843 
G01 X83.7510 Y-46.7252 
G01 X83.7510 Y-45.2548 
G01 X83.7827 Y-45.0956 
G01 X83.8448 Y-44.9457 
G01 X83.9350 Y-44.8107 
G01 X84.0497 Y-44.6960 
G01 X84.1847 Y-44.6058 
G01 X84.3346 Y-44.5437 
G01 X84.4938 Y-44.5120 
G01 X84.6562 Y-44.5120 
G01 X84.8153 Y-44.5437 
G01 X84.9653 Y-44.6058 
G01 X85.1003 Y-44.6960 
G01 X85.2150 Y-44.8107 
G01 X85.3052 Y-44.9457 
G01 X85.3673 Y-45.0956 
G01 X85.3990 Y-45.2548 
G01 X85.3990 Y-46.7252 
G01 X85.3673 Y-46.8843 
G01 X85.3052 Y-47.0343 
G01 X85.2150 Y-47.1693 
G01 X85.1003 Y-47.2840 
G01 X84.9653 Y-47.3742 
G01 X84.8153 Y-47.4363 
G01 X84.6562 Y-47.4680 
G01 X84.4938 Y-47.4680 
G01 X84.3346 Y-47.4363 
G01 X84.1847 Y-47.3742 
G01 X84.0497 Y-47.2840 
G01 X83.9350 Y-47.1693 
G00 Z2.0000 
G00 X84.0290 Y-48.5015 
G01 Z-0.1700 F150.00 
G01 X84.1951 Y-48.4475 F200.00 
G01 X84.3677 Y-48.4202 
G01 X84.5423 Y-48.4202 
G01 X84.7149 Y-48.4475 
G01 X84.8810 Y-48.5015 
G01 X85.0367 Y-48.5808 
G01 X85.1780 Y-48.6835 
G01 X85.3015 Y-48.8070 
G01 X85.4042 Y-48.9483 
G01 X85.4835 Y-49.1040 
G01 X85.5375 Y-49.2701 
G01 X85.5648 Y-49.4427 
G01 X85.5648 Y-49.6173 
G01 X85.5375 Y-49.7899 
G01 X85.4835 Y-49.9560 
G01 X85.4042 Y-50.1117 
G01 X85.3015 Y-50.2530 
G01 X85.1780 Y-50.3765 
G01 X85.0367 Y-50.4792 
G01 X84.8810 Y-50.5585 
G01 X84.7149 Y-50.6125 
G01 X84.5423 Y-50.6398 
G01 X84.3677 Y-50.6398 
G01 X84.1951 Y-50.6125 
G01 X84.0290 Y-50.5585 
G01 X83.8733 Y-50.4792 
G01 X83.7320 Y-50.3765 
G01 X83.6085 Y-50.2530 
G01 X83.5058 Y-50.1117 
G01 X83.4265 Y-49.9560 
G01 X83.3725 Y-49.7899 
G01 X83.3452 Y-49.6173 
G01 X83.3452 Y-49.4427 
G01 X83.3725 Y-49.2701 
G01 X83.4265 Y-49.1040 
G01 X83.5058 Y-48.9483 
G01 X83.6085 Y-48.8070 
G01 X83.7320 Y-48.6835 
G01 X83.8733 Y-48.5808 
G01 X84.0290 Y-48.5015 
G00 Z2.0000 
G00 X84.1030 Y-57.4872 
G01 Z-0.1700 F150.00 
G01 X84.2795 Y-57.5603 F200.00 
G01 X84.4384 Y-57.6665 
G01 X84.5735 Y-57.8016 
G01 X84.6797 Y-57.9605 
G01 X84.7528 Y-58.1370 
G01 X84.7901 Y-58.3244 
G01 X84.7901 Y-58.5155 
G01 X84.7528 Y-58.7030 
G01 X84.6797 Y-58.8795 
G01 X84.5735 Y-59.0384 
G01 X84.4384 Y-59.1735 
G01 X84.2795 Y-59.2797 
G01 X84.1030 Y-59.3528 
G01 X83.9155 Y-59.3901 
G01 X83.7245 Y-59.3901 
G01 X83.5370 Y-59.3528 
G01 X83.3605 Y-59.2797 
G01 X83.2016 Y-59.1735 
G01 X83.0665 Y-59.0384 
G01 X82.9603 Y-58.8795 
G01 X82.8872 Y-58.7030 
G01 X82.8499 Y-58.5155 
G01 X82.8499 Y-58.3244 
G01 X82.8872 Y-58.1370 
G01 X82.9603 Y-57.9605 
G01 X83.0665 Y-57.8016 
G01 X83.2016 Y-57.6665 
G01 X83.3605 Y-57.5603 
G01 X83.5370 Y-57.4872 
G01 X83.7245 Y-57.4499 
G01 X83.9155 Y-57.4499 
G01 X84.1030 Y-57.4872 
G00 Z2.0000 
G00 X85.3899 Y-58.0182 
G01 Z-0.1700 F150.00 
G01 X85.9582 Y-57.4499 F200.00 
G01 X86.7618 Y-57.4499 
G01 X87.3301 Y-58.0182 
G01 X87.3301 Y-58.8218 
G01 X86.7618 Y-59.3901 
G01 X85.9582 Y-59.3901 
G01 X85.3899 Y-58.8218 
G01 X85.3899 Y-58.0182 
G00 Z2.0000 
G00 X79.0579 Y-57.9785 
G01 Z-0.1700 F150.00 
G01 X79.1282 Y-58.1481 F200.00 
G01 X79.1640 Y-58.3282 
G01 X79.1640 Y-58.5118 
G01 X79.1282 Y-58.6919 
G01 X79.0579 Y-58.8615 
G01 X78.9559 Y-59.0141 
G01 X78.8261 Y-59.1439 
G01 X78.6735 Y-59.2459 
G01 X78.5039 Y-59.3162 
G01 X78.3238 Y-59.3520 
G01 X76.6162 Y-59.3520 
G01 X76.4361 Y-59.3162 
G01 X76.2665 Y-59.2459 
G01 X76.1139 Y-59.1439 
G01 X75.9841 Y-59.0141 
G01 X75.8821 Y-58.8615 
G01 X75.8118 Y-58.6919 
G01 X75.7760 Y-58.5118 
G01 X75.7760 Y-58.3282 
G01 X75.8118 Y-58.1481 
G01 X75.8821 Y-57.9785 
G01 X75.9841 Y-57.8259 
G01 X76.1139 Y-57.6961 
G01 X76.2665 Y-57.5941 
G01 X76.4361 Y-57.5238 
G01 X76.6162 Y-57.4880 
G01 X78.3238 Y-57.4880 
G01 X78.5039 Y-57.5238 
G01 X78.6735 Y-57.5941 
G01 X78.8261 Y-57.6961 
G01 X78.9559 Y-57.8259 
G01 X79.0579 Y-57.9785 
G00 Z2.0000 
G00 X78.9559 Y-60.3659 
G01 Z-0.1700 F150.00 
G01 X79.0579 Y-60.5185 F200.00 
G01 X79.1282 Y-60.6881 
G01 X79.1640 Y-60.8682 
G01 X79.1640 Y-61.0518 
G01 X79.1282 Y-61.2319 
G01 X79.0579 Y-61.4015 
G01 X78.9559 Y-61.5541 
G01 X78.8261 Y-61.6839 
G01 X78.6735 Y-61.7859 
G01 X78.5039 Y-61.8562 
G01 X78.3238 Y-61.8920 
G01 X76.6162 Y-61.8920 
G01 X76.4361 Y-61.8562 
G01 X76.2665 Y-61.7859 
G01 X76.1139 Y-61.6839 
G01 X75.9841 Y-61.5541 
G01 X75.8821 Y-61.4015 
G01 X75.8118 Y-61.2319 
G01 X75.7760 Y-61.0518 
G01 X75.7760 Y-60.8682 
G01 X75.8118 Y-60.6881 
G01 X75.8821 Y-60.5185 
G01 X75.9841 Y-60.3659 
G01 X76.1139 Y-60.2361 
G01 X76.2665 Y-60.1341 
G01 X76.4361 Y-60.0638 
G01 X76.6162 Y-60.0280 
G01 X78.3238 Y-60.0280 
G01 X78.5039 Y-60.0638 
G01 X78.6735 Y-60.1341 
G01 X78.8261 Y-60.2361 
G01 X78.9559 Y-60.3659 
G00 Z2.0000 
G00 X78.9559 Y-62.9059 
G01 Z-0.1700 F150.00 
G01 X79.0579 Y-63.0585 F200.00 
G01 X79.1282 Y-63.2281 
G01 X79.1640 Y-63.4082 
G01 X79.1640 Y-63.5918 
G01 X79.1282 Y-63.7719 
G01 X79.0579 Y-63.9415 
G01 X78.9559 Y-64.0941 
G01 X78.8261 Y-64.2239 
G01 X78.6735 Y-64.3259 
G01 X78.5039 Y-64.3962 
G01 X78.3238 Y-64.4320 
G01 X76.6162 Y-64.4320 
G01 X76.4361 Y-64.3962 
G01 X76.2665 Y-64.3259 
G01 X76.1139 Y-64.2239 
G01 X75.9841 Y-64.0941 
G01 X75.8821 Y-63.9415 
G01 X75.8118 Y-63.7719 
G01 X75.7760 Y-63.5918 
G01 X75.7760 Y-63.4082 
G01 X75.8118 Y-63.2281 
G01 X75.8821 Y-63.0585 
G01 X75.9841 Y-62.9059 
G01 X76.1139 Y-62.7761 
G01 X76.2665 Y-62.6741 
G01 X76.4361 Y-62.6038 
G01 X76.6162 Y-62.5680 
G01 X78.3238 Y-62.5680 
G01 X78.5039 Y-62.6038 
G01 X78.6735 Y-62.6741 
G01 X78.8261 Y-62.7761 
G01 X78.9559 Y-62.9059 
G00 Z2.0000 
G00 X83.2016 Y-65.2865 
G01 Z-0.1700 F150.00 
G01 X83.3605 Y-65.1803 F200.00 
G01 X83.5370 Y-65.1072 
G01 X83.7245 Y-65.0699 
G01 X83.9155 Y-65.0699 
G01 X84.1030 Y-65.1072 
G01 X84.2795 Y-65.1803 
G01 X84.4384 Y-65.2865 
G01 X84.5735 Y-65.4216 
G01 X84.6797 Y-65.5805 
G01 X84.7528 Y-65.7570 
G01 X84.7901 Y-65.9445 
G01 X84.7901 Y-66.1355 
G01 X84.7528 Y-66.3230 
G01 X84.6797 Y-66.4995 
G01 X84.5735 Y-66.6584 
G01 X84.4384 Y-66.7935 
G01 X84.2795 Y-66.8997 
G01 X84.1030 Y-66.9728 
G01 X83.9155 Y-67.0101 
G01 X83.7245 Y-67.0101 
G01 X83.5370 Y-66.9728 
G01 X83.3605 Y-66.8997 
G01 X83.2016 Y-66.7935 
G01 X83.0665 Y-66.6584 
G01 X82.9603 Y-66.4995 
G01 X82.8872 Y-66.3230 
G01 X82.8499 Y-66.1355 
G01 X82.8499 Y-65.9445 
G01 X82.8872 Y-65.7570 
G01 X82.9603 Y-65.5805 
G01 X83.0665 Y-65.4216 
G01 X83.2016 Y-65.2865 
G00 Z2.0000 
G00 X85.3899 Y-65.6382 
G01 Z-0.1700 F150.00 
G01 X85.9582 Y-65.0699 F200.00 
G01 X86.7618 Y-65.0699 
G01 X87.3301 Y-65.6382 
G01 X87.3301 Y-66.4418 
G01 X86.7618 Y-67.0101 
G01 X85.9582 Y-67.0101 
G01 X85.3899 Y-66.4418 
G01 X85.3899 Y-65.6382 
G00 Z2.0000 
G00 X45.0927 Y-56.6631 
G01 Z-0.1700 F150.00 
G01 X44.9276 Y-56.7735 F200.00 
G01 X44.7441 Y-56.8495 
G01 X44.5493 Y-56.8882 
G01 X44.3507 Y-56.8882 
G01 X44.1559 Y-56.8495 
G01 X43.9724 Y-56.7735 
G01 X43.8073 Y-56.6631 
G01 X43.6669 Y-56.5227 
G01 X43.5565 Y-56.3576 
G01 X43.4805 Y-56.1741 
G01 X43.4418 Y-55.9793 
G01 X43.4418 Y-55.7807 
G01 X43.4805 Y-55.5859 
G01 X43.5565 Y-55.4024 
G01 X43.6669 Y-55.2373 
G01 X43.8073 Y-55.0969 
G01 X43.9724 Y-54.9865 
G01 X44.1559 Y-54.9105 
G01 X44.3507 Y-54.8718 
G01 X44.5493 Y-54.8718 
G01 X44.7441 Y-54.9105 
G01 X44.9276 Y-54.9865 
G01 X45.0927 Y-55.0969 
G01 X45.2331 Y-55.2373 
G01 X45.3435 Y-55.4024 
G01 X45.4195 Y-55.5859 
G01 X45.4582 Y-55.7807 
G01 X45.4582 Y-55.9793 
G01 X45.4195 Y-56.1741 
G01 X45.3435 Y-56.3576 
G01 X45.2331 Y-56.5227 
G01 X45.0927 Y-56.6631 
G00 Z2.0000 
G00 X45.0927 Y-52.8531 
G01 Z-0.1700 F150.00 
G01 X44.9276 Y-52.9635 F200.00 
G01 X44.7441 Y-53.0395 
G01 X44.5493 Y-53.0782 
G01 X44.3507 Y-53.0782 
G01 X44.1559 Y-53.0395 
G01 X43.9724 Y-52.9635 
G01 X43.8073 Y-52.8531 
G01 X43.6669 Y-52.7127 
G01 X43.5565 Y-52.5476 
G01 X43.4805 Y-52.3641 
G01 X43.4418 Y-52.1693 
G01 X43.4418 Y-51.9707 
G01 X43.4805 Y-51.7759 
G01 X43.5565 Y-51.5924 
G01 X43.6669 Y-51.4273 
G01 X43.8073 Y-51.2869 
G01 X43.9724 Y-51.1765 
G01 X44.1559 Y-51.1005 
G01 X44.3507 Y-51.0618 
G01 X44.5493 Y-51.0618 
G01 X44.7441 Y-51.1005 
G01 X44.9276 Y-51.1765 
G01 X45.0927 Y-51.2869 
G01 X45.2331 Y-51.4273 
G01 X45.3435 Y-51.5924 
G01 X45.4195 Y-51.7759 
G01 X45.4582 Y-51.9707 
G01 X45.4582 Y-52.1693 
G01 X45.4195 Y-52.3641 
G01 X45.3435 Y-52.5476 
G01 X45.2331 Y-52.7127 
G01 X45.0927 Y-52.8531 
G00 Z2.0000 
G00 X45.0899 Y-47.8693 
G01 Z-0.1700 F150.00 
G01 X44.9441 Y-47.7634 F200.00 
G01 X44.8166 Y-47.6359 
G01 X44.7107 Y-47.4901 
G01 X44.6289 Y-47.3295 
G01 X44.5732 Y-47.1581 
G01 X44.5450 Y-46.9801 
G01 X44.5450 Y-46.7999 
G01 X44.5732 Y-46.6219 
G01 X44.6289 Y-46.4505 
G01 X44.7107 Y-46.2899 
G01 X44.8166 Y-46.1441 
G01 X44.9441 Y-46.0166 
G01 X45.0899 Y-45.9107 
G01 X45.2505 Y-45.8289 
G01 X45.4219 Y-45.7732 
G01 X45.5999 Y-45.7450 
G01 X45.7801 Y-45.7450 
G01 X45.9581 Y-45.7732 
G01 X46.1295 Y-45.8289 
G01 X46.2901 Y-45.9107 
G01 X46.4359 Y-46.0166 
G01 X46.5634 Y-46.1441 
G01 X46.6693 Y-46.2899 
G01 X46.7511 Y-46.4505 
G01 X46.8068 Y-46.6219 
G01 X46.8350 Y-46.7999 
G01 X46.8350 Y-46.9801 
G01 X46.8068 Y-47.1581 
G01 X46.7511 Y-47.3295 
G01 X46.6693 Y-47.4901 
G01 X46.5634 Y-47.6359 
G01 X46.4359 Y-47.7634 
G01 X46.2901 Y-47.8693 
G01 X46.1295 Y-47.9511 
G01 X45.9581 Y-48.0068 
G01 X45.7801 Y-48.0350 
G01 X45.5999 Y-48.0350 
G01 X45.4219 Y-48.0068 
G01 X45.2505 Y-47.9511 
G01 X45.0899 Y-47.8693 
G00 Z2.0000 
G00 X42.6559 Y-47.7634 
G01 Z-0.1700 F150.00 
G01 X42.5101 Y-47.8693 F200.00 
G01 X42.3495 Y-47.9511 
G01 X42.1781 Y-48.0068 
G01 X42.0001 Y-48.0350 
G01 X41.8199 Y-48.0350 
G01 X41.6419 Y-48.0068 
G01 X41.4705 Y-47.9511 
G01 X41.3099 Y-47.8693 
G01 X41.1641 Y-47.7634 
G01 X41.0366 Y-47.6359 
G01 X40.9307 Y-47.4901 
G01 X40.8489 Y-47.3295 
G01 X40.7932 Y-47.1581 
G01 X40.7650 Y-46.9801 
G01 X40.7650 Y-46.7999 
G01 X40.7932 Y-46.6219 
G01 X40.8489 Y-46.4505 
G01 X40.9307 Y-46.2899 
G01 X41.0366 Y-46.1441 
G01 X41.1641 Y-46.0166 
G01 X41.3099 Y-45.9107 
G01 X41.4705 Y-45.8289 
G01 X41.6419 Y-45.7732 
G01 X41.8199 Y-45.7450 
G01 X42.0001 Y-45.7450 
G01 X42.1781 Y-45.7732 
G01 X42.3495 Y-45.8289 
G01 X42.5101 Y-45.9107 
G01 X42.6559 Y-46.0166 
G01 X42.7834 Y-46.1441 
G01 X42.8893 Y-46.2899 
G01 X42.9711 Y-46.4505 
G01 X43.0268 Y-46.6219 
G01 X43.0550 Y-46.7999 
G01 X43.0550 Y-46.9801 
G01 X43.0268 Y-47.1581 
G01 X42.9711 Y-47.3295 
G01 X42.8893 Y-47.4901 
G01 X42.7834 Y-47.6359 
G01 X42.6559 Y-47.7634 
G00 Z2.0000 
G00 X38.8759 Y-47.7634 
G01 Z-0.1700 F150.00 
G01 X38.7301 Y-47.8693 F200.00 
G01 X38.5695 Y-47.9511 
G01 X38.3981 Y-48.0068 
G01 X38.2201 Y-48.0350 
G01 X38.0399 Y-48.0350 
G01 X37.8619 Y-48.0068 
G01 X37.6905 Y-47.9511 
G01 X37.5299 Y-47.8693 
G01 X37.3841 Y-47.7634 
G01 X37.2566 Y-47.6359 
G01 X37.1507 Y-47.4901 
G01 X37.0689 Y-47.3295 
G01 X37.0132 Y-47.1581 
G01 X36.9850 Y-46.9801 
G01 X36.9850 Y-46.7999 
G01 X37.0132 Y-46.6219 
G01 X37.0689 Y-46.4505 
G01 X37.1507 Y-46.2899 
G01 X37.2566 Y-46.1441 
G01 X37.3841 Y-46.0166 
G01 X37.5299 Y-45.9107 
G01 X37.6905 Y-45.8289 
G01 X37.8619 Y-45.7732 
G01 X38.0399 Y-45.7450 
G01 X38.2201 Y-45.7450 
G01 X38.3981 Y-45.7732 
G01 X38.5695 Y-45.8289 
G01 X38.7301 Y-45.9107 
G01 X38.8759 Y-46.0166 
G01 X39.0034 Y-46.1441 
G01 X39.1093 Y-46.2899 
G01 X39.1911 Y-46.4505 
G01 X39.2468 Y-46.6219 
G01 X39.2750 Y-46.7999 
G01 X39.2750 Y-46.9801 
G01 X39.2468 Y-47.1581 
G01 X39.1911 Y-47.3295 
G01 X39.1093 Y-47.4901 
G01 X39.0034 Y-47.6359 
G01 X38.8759 Y-47.7634 
G00 Z2.0000 
G00 X30.0404 Y-68.2360 
G01 Z-0.1700 F150.00 
G01 X30.0404 Y-68.9240 F200.00 
G01 X29.5540 Y-69.4104 
G01 X28.8660 Y-69.4104 
G01 X28.3796 Y-68.9240 
G01 X28.3796 Y-68.2360 
G01 X28.8660 Y-67.7496 
G01 X29.5540 Y-67.7496 
G01 X30.0404 Y-68.2360 
G00 Z2.0000 
G00 X26.2304 Y-68.2360 
G01 Z-0.1700 F150.00 
G01 X26.2304 Y-68.9240 F200.00 
G01 X25.7440 Y-69.4104 
G01 X25.0560 Y-69.4104 
G01 X24.5696 Y-68.9240 
G01 X24.5696 Y-68.2360 
G01 X25.0560 Y-67.7496 
G01 X25.7440 Y-67.7496 
G01 X26.2304 Y-68.2360 
G00 Z2.0000 
G00 X19.6950 Y-68.6603 
G01 Z-0.1700 F150.00 
G01 X19.7859 Y-68.7963 F200.00 
G01 X19.8485 Y-68.9474 
G01 X19.8804 Y-69.1078 
G01 X19.8804 Y-70.5922 
G01 X19.8485 Y-70.7526 
G01 X19.7859 Y-70.9037 
G01 X19.6950 Y-71.0397 
G01 X19.5793 Y-71.1554 
G01 X19.4433 Y-71.2463 
G01 X19.2922 Y-71.3089 
G01 X19.1318 Y-71.3408 
G01 X18.9682 Y-71.3408 
G01 X18.8078 Y-71.3089 
G01 X18.6567 Y-71.2463 
G01 X18.5206 Y-71.1554 
G01 X18.4050 Y-71.0397 
G01 X18.3141 Y-70.9037 
G01 X18.2515 Y-70.7526 
G01 X18.2196 Y-70.5922 
G01 X18.2196 Y-69.1078 
G01 X18.2515 Y-68.9474 
G01 X18.3141 Y-68.7963 
G01 X18.4050 Y-68.6603 
G01 X18.5206 Y-68.5446 
G01 X18.6567 Y-68.4537 
G01 X18.8078 Y-68.3911 
G01 X18.9682 Y-68.3592 
G01 X19.1318 Y-68.3592 
G01 X19.2922 Y-68.3911 
G01 X19.4433 Y-68.4537 
G01 X19.5793 Y-68.5446 
G01 X19.6950 Y-68.6603 
G00 Z2.0000 
G00 X17.1550 Y-68.6603 
G01 Z-0.1700 F150.00 
G01 X17.2459 Y-68.7963 F200.00 
G01 X17.3085 Y-68.9474 
G01 X17.3404 Y-69.1078 
G01 X17.3404 Y-70.5922 
G01 X17.3085 Y-70.7526 
G01 X17.2459 Y-70.9037 
G01 X17.1550 Y-71.0397 
G01 X17.0393 Y-71.1554 
G01 X16.9033 Y-71.2463 
G01 X16.7522 Y-71.3089 
G01 X16.5918 Y-71.3408 
G01 X16.4282 Y-71.3408 
G01 X16.2678 Y-71.3089 
G01 X16.1167 Y-71.2463 
G01 X15.9807 Y-71.1554 
G01 X15.8650 Y-71.0397 
G01 X15.7741 Y-70.9037 
G01 X15.7115 Y-70.7526 
G01 X15.6796 Y-70.5922 
G01 X15.6796 Y-69.1078 
G01 X15.7115 Y-68.9474 
G01 X15.7741 Y-68.7963 
G01 X15.8650 Y-68.6603 
G01 X15.9807 Y-68.5446 
G01 X16.1167 Y-68.4537 
G01 X16.2678 Y-68.3911 
G01 X16.4282 Y-68.3592 
G01 X16.5918 Y-68.3592 
G01 X16.7522 Y-68.3911 
G01 X16.9033 Y-68.4537 
G01 X17.0393 Y-68.5446 
G01 X17.1550 Y-68.6603 
G00 Z2.0000 
G00 X17.1550 Y-73.7403 
G01 Z-0.1700 F150.00 
G01 X17.2459 Y-73.8763 F200.00 
G01 X17.3085 Y-74.0274 
G01 X17.3404 Y-74.1878 
G01 X17.3404 Y-75.6722 
G01 X17.3085 Y-75.8326 
G01 X17.2459 Y-75.9837 
G01 X17.1550 Y-76.1197 
G01 X17.0393 Y-76.2354 
G01 X16.9033 Y-76.3263 
G01 X16.7522 Y-76.3889 
G01 X16.5918 Y-76.4208 
G01 X16.4282 Y-76.4208 
G01 X16.2678 Y-76.3889 
G01 X16.1167 Y-76.3263 
G01 X15.9807 Y-76.2354 
G01 X15.8650 Y-76.1197 
G01 X15.7741 Y-75.9837 
G01 X15.7115 Y-75.8326 
G01 X15.6796 Y-75.6722 
G01 X15.6796 Y-74.1878 
G01 X15.7115 Y-74.0274 
G01 X15.7741 Y-73.8763 
G01 X15.8650 Y-73.7403 
G01 X15.9807 Y-73.6246 
G01 X16.1167 Y-73.5337 
G01 X16.2678 Y-73.4711 
G01 X16.4282 Y-73.4392 
G01 X16.5918 Y-73.4392 
G01 X16.7522 Y-73.4711 
G01 X16.9033 Y-73.5337 
G01 X17.0393 Y-73.6246 
G01 X17.1550 Y-73.7403 
G00 Z2.0000 
G00 X18.4050 Y-73.7403 
G01 Z-0.1700 F150.00 
G01 X18.5206 Y-73.6246 F200.00 
G01 X18.6567 Y-73.5337 
G01 X18.8078 Y-73.4711 
G01 X18.9682 Y-73.4392 
G01 X19.1318 Y-73.4392 
G01 X19.2922 Y-73.4711 
G01 X19.4433 Y-73.5337 
G01 X19.5793 Y-73.6246 
G01 X19.6950 Y-73.7403 
G01 X19.7859 Y-73.8763 
G01 X19.8485 Y-74.0274 
G01 X19.8804 Y-74.1878 
G01 X19.8804 Y-75.6722 
G01 X19.8485 Y-75.8326 
G01 X19.7859 Y-75.9837 
G01 X19.6950 Y-76.1197 
G01 X19.5793 Y-76.2354 
G01 X19.4433 Y-76.3263 
G01 X19.2922 Y-76.3889 
G01 X19.1318 Y-76.4208 
G01 X18.9682 Y-76.4208 
G01 X18.8078 Y-76.3889 
G01 X18.6567 Y-76.3263 
G01 X18.5206 Y-76.2354 
G01 X18.4050 Y-76.1197 
G01 X18.3141 Y-75.9837 
G01 X18.2515 Y-75.8326 
G01 X18.2196 Y-75.6722 
G01 X18.2196 Y-74.1878 
G01 X18.2515 Y-74.0274 
G01 X18.3141 Y-73.8763 
G01 X18.4050 Y-73.7403 
G00 Z2.0000 
G00 X18.5206 Y-81.2446 
G01 Z-0.1700 F150.00 
G01 X18.6567 Y-81.1537 F200.00 
G01 X18.8078 Y-81.0911 
G01 X18.9682 Y-81.0592 
G01 X19.1318 Y-81.0592 
G01 X19.2922 Y-81.0911 
G01 X19.4433 Y-81.1537 
G01 X19.5793 Y-81.2446 
G01 X19.6950 Y-81.3602 
G01 X19.7859 Y-81.4963 
G01 X19.8485 Y-81.6474 
G01 X19.8804 Y-81.8078 
G01 X19.8804 Y-83.2922 
G01 X19.8485 Y-83.4526 
G01 X19.7859 Y-83.6037 
G01 X19.6950 Y-83.7397 
G01 X19.5793 Y-83.8554 
G01 X19.4433 Y-83.9463 
G01 X19.2922 Y-84.0089 
G01 X19.1318 Y-84.0408 
G01 X18.9682 Y-84.0408 
G01 X18.8078 Y-84.0089 
G01 X18.6567 Y-83.9463 
G01 X18.5206 Y-83.8554 
G01 X18.4050 Y-83.7397 
G01 X18.3141 Y-83.6037 
G01 X18.2515 Y-83.4526 
G01 X18.2196 Y-83.2922 
G01 X18.2196 Y-81.8078 
G01 X18.2515 Y-81.6474 
G01 X18.3141 Y-81.4963 
G01 X18.4050 Y-81.3602 
G01 X18.5206 Y-81.2446 
G00 Z2.0000 
G00 X17.1550 Y-81.3602 
G01 Z-0.1700 F150.00 
G01 X17.2459 Y-81.4963 F200.00 
G01 X17.3085 Y-81.6474 
G01 X17.3404 Y-81.8078 
G01 X17.3404 Y-83.2922 
G01 X17.3085 Y-83.4526 
G01 X17.2459 Y-83.6037 
G01 X17.1550 Y-83.7397 
G01 X17.0393 Y-83.8554 
G01 X16.9033 Y-83.9463 
G01 X16.7522 Y-84.0089 
G01 X16.5918 Y-84.0408 
G01 X16.4282 Y-84.0408 
G01 X16.2678 Y-84.0089 
G01 X16.1167 Y-83.9463 
G01 X15.9807 Y-83.8554 
G01 X15.8650 Y-83.7397 
G01 X15.7741 Y-83.6037 
G01 X15.7115 Y-83.4526 
G01 X15.6796 Y-83.2922 
G01 X15.6796 Y-81.8078 
G01 X15.7115 Y-81.6474 
G01 X15.7741 Y-81.4963 
G01 X15.8650 Y-81.3602 
G01 X15.9807 Y-81.2446 
G01 X16.1167 Y-81.1537 
G01 X16.2678 Y-81.0911 
G01 X16.4282 Y-81.0592 
G01 X16.5918 Y-81.0592 
G01 X16.7522 Y-81.0911 
G01 X16.9033 Y-81.1537 
G01 X17.0393 Y-81.2446 
G01 X17.1550 Y-81.3602 
G00 Z2.0000 
G00 X17.0393 Y-63.5354 
G01 Z-0.1700 F150.00 
G01 X16.9033 Y-63.6263 F200.00 
G01 X16.7522 Y-63.6889 
G01 X16.5918 Y-63.7208 
G01 X16.4282 Y-63.7208 
G01 X16.2678 Y-63.6889 
G01 X16.1167 Y-63.6263 
G01 X15.9807 Y-63.5354 
G01 X15.8650 Y-63.4197 
G01 X15.7741 Y-63.2837 
G01 X15.7115 Y-63.1326 
G01 X15.6796 Y-62.9722 
G01 X15.6796 Y-61.4878 
G01 X15.7115 Y-61.3274 
G01 X15.7741 Y-61.1763 
G01 X15.8650 Y-61.0403 
G01 X15.9807 Y-60.9246 
G01 X16.1167 Y-60.8337 
G01 X16.2678 Y-60.7711 
G01 X16.4282 Y-60.7392 
G01 X16.5918 Y-60.7392 
G01 X16.7522 Y-60.7711 
G01 X16.9033 Y-60.8337 
G01 X17.0393 Y-60.9246 
G01 X17.1550 Y-61.0403 
G01 X17.2459 Y-61.1763 
G01 X17.3085 Y-61.3274 
G01 X17.3404 Y-61.4878 
G01 X17.3404 Y-62.9722 
G01 X17.3085 Y-63.1326 
G01 X17.2459 Y-63.2837 
G01 X17.1550 Y-63.4197 
G01 X17.0393 Y-63.5354 
G00 Z2.0000 
G00 X18.4050 Y-63.4197 
G01 Z-0.1700 F150.00 
G01 X18.3141 Y-63.2837 F200.00 
G01 X18.2515 Y-63.1326 
G01 X18.2196 Y-62.9722 
G01 X18.2196 Y-61.4878 
G01 X18.2515 Y-61.3274 
G01 X18.3141 Y-61.1763 
G01 X18.4050 Y-61.0403 
G01 X18.5206 Y-60.9246 
G01 X18.6567 Y-60.8337 
G01 X18.8078 Y-60.7711 
G01 X18.9682 Y-60.7392 
G01 X19.1318 Y-60.7392 
G01 X19.2922 Y-60.7711 
G01 X19.4433 Y-60.8337 
G01 X19.5793 Y-60.9246 
G01 X19.6950 Y-61.0403 
G01 X19.7859 Y-61.1763 
G01 X19.8485 Y-61.3274 
G01 X19.8804 Y-61.4878 
G01 X19.8804 Y-62.9722 
G01 X19.8485 Y-63.1326 
G01 X19.7859 Y-63.2837 
G01 X19.6950 Y-63.4197 
G01 X19.5793 Y-63.5354 
G01 X19.4433 Y-63.6263 
G01 X19.2922 Y-63.6889 
G01 X19.1318 Y-63.7208 
G01 X18.9682 Y-63.7208 
G01 X18.8078 Y-63.6889 
G01 X18.6567 Y-63.6263 
G01 X18.5206 Y-63.5354 
G01 X18.4050 Y-63.4197 
G00 Z2.0000 
G00 X14.6127 Y-56.6631 
G01 Z-0.1700 F150.00 
G01 X14.4476 Y-56.7735 F200.00 
G01 X14.2641 Y-56.8495 
G01 X14.0693 Y-56.8882 
G01 X13.8707 Y-56.8882 
G01 X13.6759 Y-56.8495 
G01 X13.4924 Y-56.7735 
G01 X13.3273 Y-56.6631 
G01 X13.1869 Y-56.5227 
G01 X13.0765 Y-56.3576 
G01 X13.0005 Y-56.1741 
G01 X12.9618 Y-55.9793 
G01 X12.9618 Y-55.7807 
G01 X13.0005 Y-55.5859 
G01 X13.0765 Y-55.4024 
G01 X13.1869 Y-55.2373 
G01 X13.3273 Y-55.0969 
G01 X13.4924 Y-54.9865 
G01 X13.6759 Y-54.9105 
G01 X13.8707 Y-54.8718 
G01 X14.0693 Y-54.8718 
